;FLAVOR:Marlin
;TIME:158
;Filament used: 0.089937m
;Layer height: 0.28
;MINX:91.515
;MINY:91.528
;MINZ:0.28
;MAXX:128.481
;MAXY:128.487
;MAXZ:3.36
;Generated with Cura_SteamEngine 4.8.0
M140 S50
M105
M190 S50
M104 S200
M105
M109 S200
M82 ;absolute extrusion mode
M201 X500.00 Y500.00 Z100.00 E5000.00 ;Setup machine max acceleration
M203 X500.00 Y500.00 Z10.00 E50.00 ;Setup machine max feedrate
M204 P500.00 R1000.00 T500.00 ;Setup Print/Retract/Travel acceleration
M205 X8.00 Y8.00 Z0.40 E5.00 ;Setup Jerk
M220 S100 ;Reset Feedrate
M221 S100 ;Reset Flowrate

G28 ;Home

G92 E0 ;Reset Extruder
G1 Z2.0 F3000 ;Move Z Axis up
G1 X10.1 Y20 Z0.28 F5000.0 ;Move to start position
G1 X10.1 Y200.0 Z0.28 F1500.0 E15 ;Draw the first line
G1 X10.4 Y200.0 Z0.28 F5000.0 ;Move to side a little
G1 X10.4 Y20 Z0.28 F1500.0 E30 ;Draw the second line
G92 E0 ;Reset Extruder
G1 Z2.0 F3000 ;Move Z Axis up

G92 E0
G92 E0
G1 F2700 E-5
;LAYER_COUNT:12
;LAYER:0
M107
G0 F6000 X97.092 Y96.781 Z0.28
;TYPE:SKIRT
G1 F2700 E0
G1 F1200 X97.341 Y96.54 E0.01614
G1 X97.544 Y96.349 E0.02911
G1 X98.262 Y95.73 E0.07326
G1 X98.715 Y95.372 E0.10014
G1 X99.004 Y95.151 E0.11708
G1 X99.252 Y94.968 E0.13143
G1 X100.017 Y94.451 E0.17443
G1 X100.493 Y94.158 E0.20046
G1 X100.782 Y93.986 E0.21612
G1 X101.052 Y93.831 E0.23061
G1 X101.937 Y93.375 E0.27697
G1 X102.503 Y93.115 E0.30597
G1 X102.786 Y92.99 E0.32038
G1 X103.035 Y92.884 E0.33298
G1 X103.962 Y92.538 E0.37905
G1 X104.516 Y92.359 E0.40616
G1 X104.833 Y92.262 E0.4216
G1 X105.126 Y92.177 E0.43581
G1 X106.048 Y91.952 E0.48
G1 X106.637 Y91.835 E0.50796
G1 X107.008 Y91.768 E0.52551
G1 X107.296 Y91.721 E0.5391
G1 X108.231 Y91.609 E0.58295
G1 X108.834 Y91.563 E0.61111
G1 X109.18 Y91.542 E0.62725
G1 X109.471 Y91.529 E0.64082
G1 X110.429 Y91.528 E0.68542
G1 X110.994 Y91.552 E0.71176
G1 X111.348 Y91.573 E0.72827
G1 X111.642 Y91.595 E0.742
G1 X112.571 Y91.704 E0.78555
G1 X113.179 Y91.802 E0.81423
G1 X113.526 Y91.864 E0.83064
G1 X113.804 Y91.918 E0.84383
G1 X114.75 Y92.145 E0.88913
G1 X115.344 Y92.316 E0.91791
G1 X115.623 Y92.401 E0.93149
G1 X115.885 Y92.484 E0.94429
G1 X116.843 Y92.837 E0.99183
G1 X117.397 Y93.071 E1.01983
G1 X117.657 Y93.185 E1.03305
G1 X117.913 Y93.301 E1.04614
G1 X118.818 Y93.762 E1.09343
G1 X119.327 Y94.052 E1.12071
G1 X119.589 Y94.206 E1.13486
G1 X119.851 Y94.365 E1.14913
G1 X120.674 Y94.917 E1.19528
G1 X121.143 Y95.263 E1.22242
G1 X121.436 Y95.487 E1.23959
G1 X121.675 Y95.676 E1.25378
G1 X122.365 Y96.269 E1.29614
G1 X122.796 Y96.672 E1.32362
G1 X123.061 Y96.929 E1.34081
G1 X123.272 Y97.14 E1.3547
G1 X123.914 Y97.84 E1.39893
G1 X124.283 Y98.279 E1.42563
G1 X124.506 Y98.553 E1.44208
G1 X124.691 Y98.788 E1.45601
G1 X125.254 Y99.571 E1.50092
G1 X125.598 Y100.097 E1.53018
G1 X125.77 Y100.368 E1.54513
G1 X125.919 Y100.611 E1.5584
G1 X126.388 Y101.458 E1.60348
G1 X126.628 Y101.94 E1.62856
G1 X126.793 Y102.286 E1.6464
G1 X126.935 Y102.598 E1.66237
G1 X127.28 Y103.448 E1.70508
G1 X127.474 Y103.99 E1.73189
G1 X127.578 Y104.295 E1.74689
G1 X127.672 Y104.584 E1.76104
G1 X127.937 Y105.544 E1.80742
G1 X128.067 Y106.115 E1.83469
G1 X128.133 Y106.427 E1.84954
G1 X128.192 Y106.726 E1.86373
G1 X128.339 Y107.701 E1.90964
G1 X128.398 Y108.26 E1.93581
G1 X128.429 Y108.598 E1.95162
G1 X128.452 Y108.907 E1.96605
G1 X128.481 Y109.865 E2.01068
G1 X128.473 Y110.487 E2.03964
G1 X128.463 Y110.847 E2.05641
G1 X128.45 Y111.132 E2.06969
G1 X128.367 Y112.063 E2.11322
G1 X128.294 Y112.619 E2.13933
G1 X128.244 Y112.962 E2.15547
G1 X128.192 Y113.28 E2.17047
G1 X127.994 Y114.227 E2.21552
G1 X127.851 Y114.787 E2.24244
G1 X127.763 Y115.111 E2.25807
G1 X127.68 Y115.399 E2.27203
G1 X127.376 Y116.304 E2.31648
G1 X127.157 Y116.873 E2.34487
G1 X127.014 Y117.227 E2.36265
G1 X126.903 Y117.488 E2.37586
G1 X126.505 Y118.323 E2.41893
G1 X126.227 Y118.849 E2.44663
G1 X126.064 Y119.147 E2.46245
G1 X125.915 Y119.409 E2.47648
G1 X125.395 Y120.235 E2.52193
G1 X125.086 Y120.681 E2.5472
G1 X124.899 Y120.943 E2.56218
G1 X124.7 Y121.213 E2.5778
G1 X124.085 Y121.974 E2.62336
G1 X123.703 Y122.406 E2.65021
G1 X123.468 Y122.664 E2.66646
G1 X123.255 Y122.89 E2.68093
G1 X122.573 Y123.553 E2.72522
G1 X122.128 Y123.95 E2.75298
G1 X121.885 Y124.161 E2.76797
G1 X121.665 Y124.346 E2.78135
G1 X120.868 Y124.956 E2.82809
G1 X120.365 Y125.306 E2.85662
G1 X120.101 Y125.484 E2.87145
G1 X119.87 Y125.635 E2.8843
G1 X119.05 Y126.122 E2.92871
G1 X118.554 Y126.388 E2.95491
G1 X118.221 Y126.559 E2.97235
G1 X117.927 Y126.704 E2.98761
G1 X117.081 Y127.078 E3.03068
G1 X116.513 Y127.301 E3.05909
G1 X116.147 Y127.437 E3.07728
G1 X115.9 Y127.524 E3.08947
G1 X115.02 Y127.794 E3.13233
G1 X114.406 Y127.954 E3.16188
G1 X114.057 Y128.038 E3.17859
G1 X113.796 Y128.097 E3.19105
G1 X112.852 Y128.268 E3.23572
G1 X112.3 Y128.343 E3.26166
G1 X111.955 Y128.384 E3.27784
G1 X111.618 Y128.419 E3.29362
G1 X110.674 Y128.476 E3.33765
G1 X110.102 Y128.486 E3.36429
G1 X109.763 Y128.487 E3.38008
G1 X109.463 Y128.483 E3.39405
G1 X108.49 Y128.427 E3.43943
G1 X107.894 Y128.366 E3.46733
G1 X107.543 Y128.324 E3.48379
G1 X107.254 Y128.285 E3.49737
G1 X106.339 Y128.122 E3.54064
G1 X105.763 Y127.994 E3.56812
G1 X105.392 Y127.905 E3.58589
G1 X105.11 Y127.832 E3.59945
G1 X104.222 Y127.562 E3.64267
G1 X103.624 Y127.352 E3.67218
G1 X103.249 Y127.212 E3.69082
G1 X103.007 Y127.117 E3.70292
G1 X102.183 Y126.754 E3.74485
G1 X101.661 Y126.498 E3.77192
G1 X101.323 Y126.325 E3.7896
G1 X101.044 Y126.176 E3.80433
G1 X100.249 Y125.707 E3.84731
G1 X99.767 Y125.395 E3.87405
G1 X99.448 Y125.181 E3.89193
G1 X99.203 Y125.01 E3.90585
G1 X98.468 Y124.449 E3.9489
G1 X98.006 Y124.065 E3.97687
G1 X97.745 Y123.842 E3.99286
G1 X97.527 Y123.649 E4.00642
G1 X96.826 Y122.97 E4.05186
G1 X96.427 Y122.548 E4.0789
G1 X96.183 Y122.282 E4.09571
G1 X95.975 Y122.047 E4.11032
G1 X95.396 Y121.335 E4.15306
G1 X95.046 Y120.866 E4.18031
G1 X94.822 Y120.554 E4.19819
G1 X94.657 Y120.316 E4.21168
G1 X94.16 Y119.53 E4.25498
G1 X93.856 Y119.001 E4.28339
G1 X93.683 Y118.688 E4.30004
G1 X93.551 Y118.44 E4.31312
G1 X93.135 Y117.569 E4.35807
G1 X92.902 Y117.02 E4.38584
G1 X92.791 Y116.749 E4.39948
G1 X92.686 Y116.482 E4.41284
G1 X92.357 Y115.514 E4.46044
G1 X92.19 Y114.937 E4.48841
G1 X92.109 Y114.643 E4.50261
G1 X92.035 Y114.358 E4.51632
G1 X91.83 Y113.393 E4.56226
G1 X91.735 Y112.82 E4.58931
G1 X91.683 Y112.47 E4.60578
G1 X91.641 Y112.154 E4.62063
G1 X91.557 Y111.219 E4.66434
G1 X91.531 Y110.663 E4.69026
G1 X91.52 Y110.326 E4.70596
G1 X91.515 Y110.016 E4.72039
G1 X91.542 Y109.051 E4.76535
G1 X91.585 Y108.452 E4.79331
G1 X91.616 Y108.102 E4.80967
G1 X91.647 Y107.804 E4.82362
G1 X91.788 Y106.855 E4.8683
G1 X91.897 Y106.291 E4.89504
G1 X91.971 Y105.937 E4.91188
G1 X92.037 Y105.647 E4.92573
G1 X92.283 Y104.746 E4.96922
G1 X92.474 Y104.147 E4.9985
G1 X92.58 Y103.832 E5.01397
G1 X92.672 Y103.571 E5.02686
G1 X93.045 Y102.648 E5.07322
G1 X93.29 Y102.113 E5.10062
G1 X93.43 Y101.819 E5.11578
G1 X93.56 Y101.556 E5.12944
G1 X94.025 Y100.71 E5.17439
G1 X94.316 Y100.232 E5.20045
G1 X94.491 Y99.954 E5.21575
G1 X94.666 Y99.685 E5.23069
G1 X95.224 Y98.904 E5.27538
G1 X95.62 Y98.398 E5.3053
G1 X95.837 Y98.13 E5.32136
G1 X95.983 Y97.955 E5.33197
G1 X96.642 Y97.232 E5.37752
G1 X97.092 Y96.781 E5.40719
G0 F6000 X97.375 Y97.064
G1 F1200 X97.615 Y96.831 E5.42277
G1 X97.818 Y96.64 E5.43575
G1 X98.51 Y96.044 E5.47827
G1 X98.963 Y95.686 E5.50516
G1 X99.241 Y95.473 E5.52146
G1 X99.489 Y95.29 E5.53582
G1 X100.227 Y94.792 E5.57727
G1 X100.703 Y94.499 E5.6033
G1 X100.982 Y94.333 E5.61842
G1 X101.252 Y94.178 E5.63291
G1 X102.104 Y93.739 E5.67754
G1 X102.67 Y93.479 E5.70655
G1 X102.943 Y93.358 E5.72045
G1 X103.192 Y93.252 E5.73305
G1 X104.085 Y92.918 E5.77745
G1 X104.639 Y92.739 E5.80456
G1 X104.945 Y92.646 E5.81945
G1 X105.238 Y92.561 E5.83365
G1 X106.126 Y92.344 E5.87622
G1 X106.715 Y92.227 E5.90418
G1 X107.073 Y92.162 E5.92112
G1 X107.361 Y92.115 E5.93471
G1 X108.262 Y92.008 E5.97696
G1 X108.865 Y91.962 E6.00512
G1 X109.198 Y91.942 E6.02066
G1 X109.489 Y91.929 E6.03422
G1 X110.412 Y91.928 E6.0772
G1 X110.977 Y91.952 E6.10353
G1 X111.318 Y91.972 E6.11944
G1 X111.612 Y91.994 E6.13316
G1 X112.508 Y92.099 E6.17517
G1 X113.116 Y92.197 E6.20385
G1 X113.45 Y92.256 E6.21964
G1 X113.728 Y92.31 E6.23283
G1 X114.639 Y92.53 E6.27647
G1 X115.233 Y92.701 E6.30525
G1 X115.502 Y92.782 E6.31833
G1 X115.764 Y92.865 E6.33113
G1 X116.687 Y93.205 E6.37693
G1 X117.241 Y93.439 E6.40493
G1 X117.492 Y93.549 E6.41769
G1 X117.748 Y93.665 E6.43078
G1 X118.62 Y94.11 E6.47637
G1 X119.129 Y94.4 E6.50364
G1 X119.381 Y94.548 E6.51725
G1 X119.643 Y94.707 E6.53152
G1 X120.437 Y95.239 E6.57603
G1 X120.906 Y95.585 E6.60317
G1 X121.188 Y95.801 E6.61971
G1 X121.427 Y95.99 E6.63389
G1 X122.092 Y96.561 E6.67471
G1 X122.523 Y96.964 E6.70218
G1 X122.778 Y97.212 E6.71875
G1 X122.989 Y97.423 E6.73264
G1 X123.608 Y98.098 E6.77529
G1 X123.977 Y98.537 E6.80199
G1 X124.192 Y98.8 E6.81781
G1 X124.377 Y99.035 E6.83174
G1 X124.919 Y99.79 E6.87501
G1 X125.263 Y100.316 E6.90428
G1 X125.429 Y100.577 E6.91868
G1 X125.578 Y100.82 E6.93195
G1 X126.03 Y101.636 E6.97539
G1 X126.27 Y102.118 E7.00046
G1 X126.429 Y102.452 E7.01769
G1 X126.571 Y102.764 E7.03365
G1 X126.903 Y103.583 E7.0748
G1 X127.097 Y104.125 E7.10161
G1 X127.197 Y104.418 E7.11602
G1 X127.291 Y104.707 E7.13017
G1 X127.547 Y105.633 E7.17491
G1 X127.677 Y106.204 E7.20218
G1 X127.74 Y106.505 E7.2165
G1 X127.799 Y106.804 E7.23069
G1 X127.941 Y107.743 E7.27491
G1 X128 Y108.302 E7.30108
G1 X128.03 Y108.628 E7.31633
G1 X128.053 Y108.937 E7.33075
G1 X128.081 Y109.86 E7.37375
G1 X128.073 Y110.482 E7.40272
G1 X128.063 Y110.829 E7.41888
G1 X128.05 Y111.114 E7.43217
G1 X127.971 Y112.011 E7.4741
G1 X127.898 Y112.567 E7.50021
G1 X127.849 Y112.898 E7.51579
G1 X127.797 Y113.216 E7.53079
G1 X127.606 Y114.128 E7.57418
G1 X127.463 Y114.688 E7.60109
G1 X127.378 Y115 E7.61615
G1 X127.295 Y115.288 E7.63011
G1 X127.003 Y116.161 E7.67297
G1 X126.784 Y116.73 E7.70136
G1 X126.645 Y117.07 E7.71847
G1 X126.534 Y117.331 E7.73167
G1 X126.152 Y118.136 E7.77316
G1 X125.874 Y118.662 E7.80087
G1 X125.716 Y118.949 E7.81612
G1 X125.567 Y119.211 E7.83016
G1 X125.066 Y120.008 E7.87399
G1 X124.757 Y120.454 E7.89926
G1 X124.577 Y120.706 E7.91368
G1 X124.378 Y120.976 E7.92929
G1 X123.786 Y121.709 E7.97317
G1 X123.404 Y122.141 E8.00002
G1 X123.177 Y122.389 E8.01567
G1 X122.964 Y122.615 E8.03014
G1 X122.307 Y123.255 E8.07284
G1 X121.862 Y123.652 E8.10061
G1 X121.627 Y123.855 E8.11507
G1 X121.407 Y124.04 E8.12846
G1 X120.639 Y124.628 E8.1735
G1 X120.136 Y124.978 E8.20203
G1 X119.882 Y125.15 E8.21631
G1 X119.651 Y125.301 E8.22916
G1 X118.861 Y125.769 E8.27192
G1 X118.365 Y126.035 E8.29813
G1 X118.044 Y126.201 E8.31496
G1 X117.75 Y126.346 E8.33022
G1 X116.935 Y126.706 E8.37171
G1 X116.367 Y126.929 E8.40012
G1 X116.015 Y127.06 E8.41761
G1 X115.768 Y127.147 E8.4298
G1 X114.919 Y127.406 E8.47114
G1 X114.305 Y127.566 E8.50068
G1 X113.969 Y127.648 E8.51679
G1 X113.708 Y127.707 E8.52925
G1 X112.798 Y127.871 E8.5723
G1 X112.246 Y127.946 E8.59824
G1 X111.914 Y127.986 E8.61381
G1 X111.577 Y128.021 E8.62959
G1 X110.667 Y128.076 E8.67204
G1 X110.095 Y128.086 E8.69868
G1 X109.769 Y128.087 E8.71386
G1 X109.469 Y128.083 E8.72783
G1 X108.531 Y128.029 E8.77158
G1 X107.935 Y127.968 E8.79948
G1 X107.596 Y127.928 E8.81537
G1 X107.307 Y127.889 E8.82895
G1 X106.426 Y127.732 E8.87062
G1 X105.85 Y127.604 E8.89809
G1 X105.493 Y127.518 E8.91519
G1 X105.211 Y127.445 E8.92876
G1 X104.355 Y127.184 E8.97043
G1 X103.757 Y126.974 E8.99994
G1 X103.396 Y126.84 E9.01787
G1 X103.154 Y126.745 E9.02998
G1 X102.36 Y126.395 E9.07038
G1 X101.838 Y126.139 E9.09745
G1 X101.512 Y125.972 E9.11451
G1 X101.233 Y125.823 E9.12924
G1 X100.466 Y125.371 E9.17069
G1 X99.984 Y125.059 E9.19743
G1 X99.677 Y124.853 E9.21464
G1 X99.432 Y124.682 E9.22855
G1 X98.723 Y124.142 E9.27005
G1 X98.261 Y123.758 E9.29803
G1 X98.011 Y123.543 E9.31338
G1 X97.793 Y123.35 E9.32694
G1 X97.117 Y122.695 E9.37077
G1 X96.718 Y122.273 E9.39781
G1 X96.483 Y122.016 E9.41403
G1 X96.275 Y121.781 E9.42864
G1 X95.717 Y121.096 E9.46978
G1 X95.367 Y120.627 E9.49703
G1 X95.151 Y120.326 E9.51428
G1 X94.986 Y120.088 E9.52777
G1 X94.506 Y119.331 E9.5695
G1 X94.202 Y118.802 E9.59791
G1 X94.036 Y118.5 E9.61396
G1 X93.904 Y118.252 E9.62704
G1 X93.503 Y117.413 E9.67034
G1 X93.27 Y116.864 E9.69811
G1 X93.163 Y116.602 E9.71129
G1 X93.058 Y116.335 E9.72465
G1 X92.741 Y115.403 E9.77049
G1 X92.574 Y114.826 E9.79846
G1 X92.496 Y114.543 E9.81213
G1 X92.422 Y114.258 E9.82584
G1 X92.225 Y113.328 E9.87011
G1 X92.13 Y112.755 E9.89715
G1 X92.079 Y112.418 E9.91302
G1 X92.037 Y112.102 E9.92787
G1 X91.957 Y111.2 E9.97003
G1 X91.931 Y110.644 E9.99595
G1 X91.92 Y110.32 E10.01104
G1 X91.915 Y110.01 E10.02548
G1 X91.941 Y109.08 E10.0688
G1 X91.984 Y108.481 E10.09677
G1 X92.014 Y108.143 E10.11257
G1 X92.045 Y107.845 E10.12652
G1 X92.181 Y106.931 E10.16955
G1 X92.29 Y106.367 E10.1963
G1 X92.361 Y106.026 E10.21251
G1 X92.427 Y105.736 E10.22636
G1 X92.664 Y104.868 E10.26826
G1 X92.855 Y104.269 E10.29754
G1 X92.957 Y103.965 E10.31247
G1 X93.049 Y103.704 E10.32535
G1 X93.408 Y102.815 E10.37
G1 X93.653 Y102.28 E10.3974
G1 X93.788 Y101.996 E10.41204
G1 X93.918 Y101.733 E10.4257
G1 X94.367 Y100.918 E10.46903
G1 X94.658 Y100.44 E10.49508
G1 X94.827 Y100.172 E10.50984
G1 X95.002 Y99.903 E10.52478
G1 X95.539 Y99.15 E10.56785
G1 X95.935 Y98.644 E10.59777
G1 X96.144 Y98.386 E10.61323
G1 X96.29 Y98.211 E10.62384
G1 X96.925 Y97.515 E10.66771
G1 X97.375 Y97.064 E10.69738
G0 F6000 X97.659 Y97.347
G1 F1200 X97.889 Y97.122 E10.71236
G1 X98.092 Y96.931 E10.72534
G1 X98.758 Y96.357 E10.76628
G1 X99.211 Y95.999 E10.79316
G1 X99.479 Y95.795 E10.80885
G1 X99.727 Y95.612 E10.8232
G1 X100.436 Y95.133 E10.86304
G1 X100.912 Y94.84 E10.88907
G1 X101.181 Y94.68 E10.90364
G1 X101.451 Y94.525 E10.91814
G1 X102.271 Y94.102 E10.9611
G1 X102.837 Y93.842 E10.9901
G1 X103.1 Y93.726 E11.00349
G1 X103.349 Y93.62 E11.01609
G1 X104.208 Y93.299 E11.05879
G1 X104.762 Y93.12 E11.0859
G1 X105.056 Y93.03 E11.10022
G1 X105.349 Y92.945 E11.11442
G1 X106.204 Y92.736 E11.15541
G1 X106.793 Y92.619 E11.18337
G1 X107.137 Y92.557 E11.19965
G1 X107.425 Y92.51 E11.21323
G1 X108.292 Y92.407 E11.25389
G1 X108.895 Y92.361 E11.28205
G1 X109.216 Y92.341 E11.29702
G1 X109.507 Y92.328 E11.31059
G1 X110.395 Y92.327 E11.35194
G1 X110.96 Y92.351 E11.37827
G1 X111.288 Y92.37 E11.39357
G1 X111.582 Y92.392 E11.4073
G1 X112.444 Y92.494 E11.44771
G1 X113.052 Y92.592 E11.47639
G1 X113.374 Y92.649 E11.49162
G1 X113.652 Y92.703 E11.5048
G1 X114.529 Y92.914 E11.54681
G1 X115.123 Y93.085 E11.57559
G1 X115.381 Y93.163 E11.58814
G1 X115.643 Y93.246 E11.60094
G1 X116.532 Y93.574 E11.64506
G1 X117.086 Y93.808 E11.67306
G1 X117.327 Y93.913 E11.6853
G1 X117.583 Y94.029 E11.69839
G1 X118.422 Y94.457 E11.74225
G1 X118.931 Y94.747 E11.76953
G1 X119.174 Y94.89 E11.78266
G1 X119.436 Y95.049 E11.79693
G1 X120.199 Y95.561 E11.83971
G1 X120.668 Y95.907 E11.86685
G1 X120.94 Y96.114 E11.88277
G1 X121.179 Y96.303 E11.89695
G1 X121.818 Y96.854 E11.93624
G1 X122.249 Y97.257 E11.96372
G1 X122.495 Y97.495 E11.97966
G1 X122.706 Y97.706 E11.99355
G1 X123.302 Y98.355 E12.03458
G1 X123.671 Y98.794 E12.06129
G1 X123.878 Y99.048 E12.07654
G1 X124.063 Y99.283 E12.09047
G1 X124.585 Y100.009 E12.13211
G1 X124.929 Y100.535 E12.16137
G1 X125.088 Y100.786 E12.17521
G1 X125.237 Y101.029 E12.18848
G1 X125.672 Y101.815 E12.23031
G1 X125.912 Y102.297 E12.25538
G1 X126.065 Y102.618 E12.27194
G1 X126.207 Y102.93 E12.2879
G1 X126.526 Y103.718 E12.32749
G1 X126.72 Y104.26 E12.35429
G1 X126.817 Y104.542 E12.36818
G1 X126.911 Y104.831 E12.38233
G1 X127.156 Y105.722 E12.42536
G1 X127.286 Y106.293 E12.45263
G1 X127.348 Y106.582 E12.46639
G1 X127.407 Y106.881 E12.48058
G1 X127.544 Y107.785 E12.52316
G1 X127.603 Y108.344 E12.54933
G1 X127.631 Y108.658 E12.56401
G1 X127.654 Y108.967 E12.57844
G1 X127.681 Y109.855 E12.61981
G1 X127.673 Y110.477 E12.64877
G1 X127.663 Y110.811 E12.66433
G1 X127.65 Y111.096 E12.67762
G1 X127.574 Y111.959 E12.71796
G1 X127.501 Y112.515 E12.74407
G1 X127.454 Y112.833 E12.75904
G1 X127.402 Y113.151 E12.77404
