;FLAVOR:Marlin
;TIME:502
;Filament used: 0.319744m
;Layer height: 0.28
;MINX:92.518
;MINY:92.522
;MINZ:0.28
;MAXX:127.48
;MAXY:127.484
;MAXZ:13.44
;Generated with Cura_SteamEngine 4.8.0
M140 S50
M105
M190 S50
M104 S200
M105
M109 S200
M82 ;absolute extrusion mode
M201 X500.00 Y500.00 Z100.00 E5000.00 ;Setup machine max acceleration
M203 X500.00 Y500.00 Z10.00 E50.00 ;Setup machine max feedrate
M204 P500.00 R1000.00 T500.00 ;Setup Print/Retract/Travel acceleration
M205 X8.00 Y8.00 Z0.40 E5.00 ;Setup Jerk
M220 S100 ;Reset Feedrate
M221 S100 ;Reset Flowrate

G28 ;Home

G92 E0 ;Reset Extruder
G1 Z2.0 F3000 ;Move Z Axis up
G1 X10.1 Y20 Z0.28 F5000.0 ;Move to start position
G1 X10.1 Y200.0 Z0.28 F1500.0 E15 ;Draw the first line
G1 X10.4 Y200.0 Z0.28 F5000.0 ;Move to side a little
G1 X10.4 Y20 Z0.28 F1500.0 E30 ;Draw the second line
G92 E0 ;Reset Extruder
G1 Z2.0 F3000 ;Move Z Axis up

G92 E0
G92 E0
G1 F2700 E-5
;LAYER_COUNT:48
;LAYER:0
M107
G0 F6000 X97.564 Y97.712 Z0.28
;TYPE:SKIRT
G1 F2700 E0
G1 F1200 X97.854 Y97.426 E0.01897
G1 X98.409 Y96.915 E0.05409
G1 X98.828 Y96.555 E0.07982
G1 X99.438 Y96.067 E0.11619
G1 X99.644 Y95.914 E0.12814
G1 X100.175 Y95.544 E0.15828
G1 X100.694 Y95.204 E0.18717
G1 X101.332 Y94.816 E0.22194
G1 X101.501 Y94.721 E0.23097
G1 X102.13 Y94.394 E0.26398
G1 X102.682 Y94.129 E0.29249
G1 X103.348 Y93.835 E0.32639
G1 X103.727 Y93.683 E0.3454
G1 X104.403 Y93.438 E0.37888
G1 X104.721 Y93.334 E0.39446
G1 X105.441 Y93.125 E0.42937
G1 X105.927 Y93.002 E0.45272
G1 X106.658 Y92.843 E0.48755
G1 X107.153 Y92.753 E0.51098
G1 X107.801 Y92.655 E0.54149
G1 X108.041 Y92.626 E0.55275
G1 X108.812 Y92.561 E0.58878
G1 X109.352 Y92.534 E0.61395
G1 X110.092 Y92.522 E0.64842
G1 X110.552 Y92.53 E0.66984
G1 X111.266 Y92.565 E0.70313
G1 X111.678 Y92.599 E0.72238
G1 X112.393 Y92.682 E0.75589
G1 X112.722 Y92.731 E0.77138
G1 X113.472 Y92.869 E0.80689
G1 X114.043 Y92.995 E0.83412
G1 X114.752 Y93.177 E0.8682
G1 X115.047 Y93.263 E0.88251
G1 X115.691 Y93.472 E0.91404
G1 X116.147 Y93.636 E0.9366
G1 X116.848 Y93.916 E0.97175
G1 X117.21 Y94.075 E0.99016
G1 X117.869 Y94.391 E1.02419
G1 X118.297 Y94.614 E1.04667
G1 X118.889 Y94.946 E1.07827
G1 X119.158 Y95.108 E1.09289
G1 X119.808 Y95.531 E1.129
G1 X120.306 Y95.881 E1.15735
G1 X120.865 Y96.301 E1.1899
G1 X121.123 Y96.508 E1.20531
G1 X121.495 Y96.821 E1.22795
G1 X121.683 Y96.986 E1.23959
G1 X122.371 Y97.644 E1.28392
G1 X122.78 Y98.071 E1.31145
G1 X123.296 Y98.649 E1.34753
G1 X123.606 Y99.022 E1.37012
G1 X124.039 Y99.578 E1.40293
G1 X124.205 Y99.806 E1.41606
G1 X124.625 Y100.427 E1.45097
G1 X124.938 Y100.925 E1.47836
G1 X125.277 Y101.503 E1.50956
G1 X125.447 Y101.814 E1.52607
G1 X125.806 Y102.531 E1.5634
G1 X126.005 Y102.968 E1.58576
G1 X126.256 Y103.567 E1.61601
G1 X126.371 Y103.865 E1.63088
G1 X126.629 Y104.612 E1.66768
G1 X126.793 Y105.149 E1.69382
G1 X126.975 Y105.819 E1.72615
G1 X127.066 Y106.202 E1.74448
G1 X127.211 Y106.917 E1.77845
G1 X127.285 Y107.356 E1.79918
G1 X127.363 Y107.899 E1.82473
G1 X127.387 Y108.103 E1.83429
G1 X127.438 Y108.668 E1.86071
G1 X127.446 Y108.79 E1.8664
G1 X127.465 Y109.169 E1.88407
G1 X127.48 Y109.652 E1.90657
G1 X127.479 Y110.347 E1.93893
G1 X127.466 Y110.751 E1.95776
G1 X127.418 Y111.485 E1.99201
G1 X127.372 Y111.948 E2.01367
G1 X127.276 Y112.672 E2.04768
G1 X127.192 Y113.175 E2.07143
G1 X127.036 Y113.941 E2.10783
G1 X126.975 Y114.194 E2.11994
G1 X126.801 Y114.83 E2.15065
G1 X126.629 Y115.393 E2.17806
G1 X126.375 Y116.13 E2.21436
G1 X126.268 Y116.408 E2.22823
G1 X126.004 Y117.036 E2.25995
G1 X125.798 Y117.486 E2.283
G1 X125.474 Y118.135 E2.31677
G1 X125.279 Y118.496 E2.33588
G1 X124.918 Y119.116 E2.36928
G1 X124.687 Y119.484 E2.38952
G1 X124.26 Y120.115 E2.42499
G1 X124.002 Y120.469 E2.44539
G1 X123.543 Y121.055 E2.48005
G1 X123.217 Y121.444 E2.50368
G1 X122.796 Y121.918 E2.5332
G1 X122.588 Y122.139 E2.54734
G1 X122.236 Y122.496 E2.57068
G1 X122.037 Y122.689 E2.58359
G1 X121.558 Y123.128 E2.61384
G1 X121.421 Y123.246 E2.62226
G1 X121.136 Y123.483 E2.63952
G1 X120.85 Y123.713 E2.65661
G1 X120.277 Y124.144 E2.69
G1 X119.844 Y124.448 E2.71463
G1 X119.216 Y124.857 E2.74953
G1 X118.844 Y125.082 E2.76978
G1 X118.242 Y125.421 E2.80195
G1 X117.97 Y125.563 E2.81623
G1 X117.301 Y125.884 E2.85079
G1 X116.768 Y126.118 E2.87789
G1 X116.052 Y126.403 E2.91378
G1 X115.753 Y126.51 E2.92856
G1 X115.109 Y126.718 E2.96008
G1 X114.581 Y126.871 E2.98567
G1 X113.887 Y127.048 E3.01902
G1 X113.633 Y127.104 E3.03113
G1 X112.9 Y127.24 E3.06585
G1 X112.341 Y127.324 E3.09217
G1 X111.626 Y127.407 E3.12569
G1 X111.233 Y127.44 E3.14405
G1 X110.497 Y127.477 E3.17837
G1 X110.079 Y127.484 E3.19783
G1 X109.334 Y127.472 E3.23253
G1 X108.962 Y127.453 E3.24987
G1 X108.249 Y127.393 E3.28319
G1 X107.666 Y127.325 E3.31052
G1 X106.951 Y127.218 E3.34418
G1 X106.641 Y127.161 E3.35886
G1 X105.923 Y127.004 E3.39308
G1 X105.541 Y126.907 E3.41144
G1 X104.842 Y126.704 E3.44533
G1 X104.363 Y126.548 E3.46879
G1 X103.644 Y126.286 E3.50442
G1 X103.246 Y126.125 E3.52441
G1 X102.635 Y125.856 E3.5555
G1 X102.287 Y125.69 E3.57345
G1 X101.61 Y125.338 E3.60898
G1 X101.196 Y125.104 E3.63112
G1 X100.597 Y124.74 E3.66376
G1 X100.289 Y124.539 E3.68089
G1 X99.694 Y124.122 E3.71472
G1 X99.28 Y123.811 E3.73883
G1 X98.71 Y123.352 E3.77291
G1 X98.48 Y123.154 E3.78704
G1 X97.937 Y122.654 E3.82141
G1 X97.534 Y122.257 E3.84775
G1 X97.011 Y121.705 E3.88316
G1 X96.783 Y121.447 E3.89919
G1 X96.341 Y120.913 E3.93147
G1 X96.062 Y120.554 E3.95264
G1 X95.637 Y119.969 E3.98631
G1 X95.39 Y119.604 E4.00683
G1 X95.019 Y119.016 E4.03921
G1 X94.839 Y118.71 E4.05574
G1 X94.472 Y118.033 E4.0916
G1 X94.268 Y117.623 E4.11292
G1 X93.973 Y116.98 E4.14586
G1 X93.777 Y116.513 E4.16945
G1 X93.512 Y115.815 E4.20421
G1 X93.393 Y115.467 E4.22134
G1 X93.181 Y114.775 E4.25504
G1 X93.076 Y114.386 E4.2738
G1 X92.91 Y113.681 E4.30752
G1 X92.812 Y113.192 E4.33075
G1 X92.696 Y112.496 E4.3636
G1 X92.65 Y112.154 E4.37967
G1 X92.576 Y111.421 E4.41398
G1 X92.542 Y110.912 E4.43773
G1 X92.518 Y110.179 E4.47188
G1 X92.518 Y109.818 E4.48869
G1 X92.542 Y109.086 E4.52279
G1 X92.574 Y108.606 E4.54519
G1 X92.649 Y107.867 E4.57978
G1 X92.705 Y107.452 E4.59928
G1 X92.82 Y106.766 E4.63167
G1 X92.9 Y106.366 E4.65066
G1 X93.074 Y105.629 E4.68592
G1 X93.2 Y105.167 E4.70822
G1 X93.406 Y104.495 E4.74095
G1 X93.528 Y104.139 E4.75847
G1 X93.796 Y103.435 E4.79355
G1 X93.967 Y103.029 E4.81406
G1 X94.256 Y102.4 E4.8463
G1 X94.445 Y102.02 E4.86606
G1 X94.812 Y101.343 E4.90192
G1 X95.039 Y100.957 E4.92277
G1 X95.414 Y100.363 E4.95548
G1 X95.643 Y100.025 E4.97449
G1 X96.081 Y99.424 E5.00912
G1 X96.37 Y99.054 E5.03098
G1 X96.806 Y98.53 E5.06272
G1 X97.055 Y98.249 E5.0802
G1 X97.564 Y97.712 E5.11466
G0 F6000 X97.845 Y97.997
G1 F1200 X98.135 Y97.711 E5.13362
G1 X98.67 Y97.218 E5.1675
G1 X99.089 Y96.858 E5.19322
G1 X99.677 Y96.388 E5.22827
G1 X99.883 Y96.235 E5.24022
G1 X100.394 Y95.878 E5.26925
G1 X100.913 Y95.538 E5.29814
G1 X101.528 Y95.165 E5.33163
G1 X101.697 Y95.07 E5.34066
G1 X102.303 Y94.754 E5.37248
G1 X102.855 Y94.489 E5.40099
G1 X103.497 Y94.207 E5.43364
G1 X103.876 Y94.055 E5.45266
G1 X104.527 Y93.818 E5.48492
G1 X104.845 Y93.714 E5.5005
G1 X105.539 Y93.513 E5.53414
G1 X106.025 Y93.39 E5.55748
G1 X106.73 Y93.237 E5.59108
G1 X107.225 Y93.147 E5.6145
G1 X107.849 Y93.053 E5.64389
G1 X108.089 Y93.024 E5.65514
G1 X108.832 Y92.96 E5.68987
G1 X109.372 Y92.933 E5.71505
G1 X110.085 Y92.922 E5.74825
G1 X110.545 Y92.93 E5.76967
G1 X111.233 Y92.964 E5.80175
G1 X111.645 Y92.998 E5.821
G1 X112.334 Y93.078 E5.8533
G1 X112.663 Y93.127 E5.86878
G1 X113.386 Y93.26 E5.90301
G1 X113.957 Y93.386 E5.93024
G1 X114.64 Y93.561 E5.96307
G1 X114.935 Y93.647 E5.97738
G1 X115.555 Y93.848 E6.00773
G1 X116.011 Y94.012 E6.0303
G1 X116.687 Y94.282 E6.06419
G1 X117.049 Y94.441 E6.0826
G1 X117.684 Y94.745 E6.11538
G1 X118.112 Y94.968 E6.13786
G1 X118.683 Y95.289 E6.16836
G1 X118.952 Y95.451 E6.18298
G1 X119.578 Y95.859 E6.21777
G1 X120.076 Y96.209 E6.24612
G1 X120.614 Y96.613 E6.27744
G1 X120.872 Y96.82 E6.29285
G1 X121.231 Y97.121 E6.31466
G1 X121.419 Y97.286 E6.32631
G1 X122.082 Y97.921 E6.36906
G1 X122.491 Y98.348 E6.39659
G1 X122.988 Y98.905 E6.43135
G1 X123.298 Y99.278 E6.45393
G1 X123.715 Y99.814 E6.48555
G1 X123.881 Y100.042 E6.49869
G1 X124.287 Y100.64 E6.53234
G1 X124.6 Y101.138 E6.55973
G1 X124.926 Y101.695 E6.58978
G1 X125.096 Y102.006 E6.60629
G1 X125.442 Y102.697 E6.64227
G1 X125.641 Y103.134 E6.66463
G1 X125.883 Y103.711 E6.69377
G1 X125.998 Y104.009 E6.70864
G1 X126.247 Y104.729 E6.74411
G1 X126.411 Y105.266 E6.77026
G1 X126.586 Y105.912 E6.80142
G1 X126.677 Y106.295 E6.81975
G1 X126.817 Y106.983 E6.85245
G1 X126.891 Y107.422 E6.87318
G1 X126.965 Y107.945 E6.89777
G1 X126.989 Y108.149 E6.90734
G1 X127.039 Y108.694 E6.93282
G1 X127.047 Y108.816 E6.93851
G1 X127.065 Y109.181 E6.95553
G1 X127.08 Y109.664 E6.97803
G1 X127.08 Y110.334 E7.00923
G1 X127.067 Y110.738 E7.02805
G1 X127.02 Y111.445 E7.06105
G1 X126.974 Y111.908 E7.08271
G1 X126.881 Y112.606 E7.1155
G1 X126.797 Y113.109 E7.13925
G1 X126.647 Y113.848 E7.17436
G1 X126.586 Y114.101 E7.18648
G1 X126.418 Y114.713 E7.21603
G1 X126.246 Y115.276 E7.24344
G1 X126.002 Y115.987 E7.27844
G1 X125.895 Y116.265 E7.29231
G1 X125.64 Y116.869 E7.32284
G1 X125.434 Y117.319 E7.34589
G1 X125.122 Y117.945 E7.37846
G1 X124.927 Y118.306 E7.39756
G1 X124.579 Y118.904 E7.42978
G1 X124.348 Y119.272 E7.45001
G1 X123.936 Y119.879 E7.48417
G1 X123.678 Y120.233 E7.50457
G1 X123.236 Y120.799 E7.53801
G1 X122.91 Y121.188 E7.56164
G1 X122.505 Y121.644 E7.59004
G1 X122.297 Y121.865 E7.60417
G1 X121.958 Y122.209 E7.62666
G1 X121.759 Y122.402 E7.63957
G1 X121.297 Y122.825 E7.66874
G1 X121.16 Y122.943 E7.67716
G1 X120.885 Y123.171 E7.69379
G1 X120.599 Y123.401 E7.71088
G1 X120.047 Y123.816 E7.74304
G1 X119.614 Y124.12 E7.76767
G1 X119.009 Y124.515 E7.80132
G1 X118.637 Y124.74 E7.82156
G1 X118.057 Y125.067 E7.85256
G1 X117.785 Y125.209 E7.86685
G1 X117.14 Y125.518 E7.90015
G1 X116.607 Y125.752 E7.92726
G1 X115.918 Y126.026 E7.96178
G1 X115.619 Y126.133 E7.97657
G1 X114.997 Y126.334 E8.00701
G1 X114.469 Y126.487 E8.03261
G1 X113.801 Y126.657 E8.0647
G1 X113.547 Y126.713 E8.07681
G1 X112.84 Y126.844 E8.1103
G1 X112.281 Y126.928 E8.13662
G1 X111.593 Y127.009 E8.16888
G1 X111.2 Y127.042 E8.18724
G1 X110.49 Y127.078 E8.22034
G1 X110.072 Y127.085 E8.23981
G1 X109.354 Y127.072 E8.27325
G1 X108.982 Y127.053 E8.29059
G1 X108.295 Y126.996 E8.32269
G1 X107.712 Y126.928 E8.35002
G1 X107.023 Y126.824 E8.38247
G1 X106.713 Y126.767 E8.39715
G1 X106.021 Y126.616 E8.43013
G1 X105.639 Y126.519 E8.44848
G1 X104.966 Y126.324 E8.4811
G1 X104.487 Y126.168 E8.50456
G1 X103.794 Y125.915 E8.53891
G1 X103.396 Y125.754 E8.55891
G1 X102.807 Y125.495 E8.58887
G1 X102.459 Y125.329 E8.60682
G1 X101.807 Y124.99 E8.64104
G1 X101.393 Y124.756 E8.66318
G1 X100.816 Y124.405 E8.69463
G1 X100.508 Y124.204 E8.71176
G1 X99.934 Y123.802 E8.74439
G1 X99.52 Y123.491 E8.7685
G1 X98.971 Y123.049 E8.80132
G1 X98.741 Y122.851 E8.81545
G1 X98.218 Y122.369 E8.84857
G1 X97.815 Y121.972 E8.87491
G1 X97.311 Y121.44 E8.90903
G1 X97.083 Y121.182 E8.92506
G1 X96.656 Y120.668 E8.95618
G1 X96.377 Y120.309 E8.97735
G1 X95.968 Y119.745 E9.00979
G1 X95.721 Y119.38 E9.03031
G1 X95.363 Y118.813 E9.06154
G1 X95.183 Y118.507 E9.07807
G1 X94.83 Y117.855 E9.11259
G1 X94.626 Y117.445 E9.13392
G1 X94.342 Y116.825 E9.16567
G1 X94.146 Y116.358 E9.18925
G1 X93.89 Y115.686 E9.22274
G1 X93.771 Y115.338 E9.23986
G1 X93.567 Y114.67 E9.27239
G1 X93.462 Y114.281 E9.29115
G1 X93.303 Y113.602 E9.32362
G1 X93.205 Y113.113 E9.34684
G1 X93.093 Y112.443 E9.37847
G1 X93.047 Y112.101 E9.39454
G1 X92.976 Y111.394 E9.42763
G1 X92.942 Y110.885 E9.45138
G1 X92.918 Y110.179 E9.48428
G1 X92.918 Y109.818 E9.50109
G1 X92.941 Y109.113 E9.53393
G1 X92.973 Y108.633 E9.55633
G1 X93.045 Y107.92 E9.5897
G1 X93.101 Y107.505 E9.6092
G1 X93.212 Y106.844 E9.64041
G1 X93.292 Y106.444 E9.6594
G1 X93.46 Y105.734 E9.69338
G1 X93.586 Y105.272 E9.71568
G1 X93.784 Y104.625 E9.74718
G1 X93.906 Y104.269 E9.76471
G1 X94.165 Y103.591 E9.7985
G1 X94.336 Y103.185 E9.81902
G1 X94.614 Y102.579 E9.85006
G1 X94.803 Y102.199 E9.86982
G1 X95.157 Y101.546 E9.90441
G1 X95.384 Y101.16 E9.92526
G1 X95.745 Y100.587 E9.9568
G1 X95.974 Y100.249 E9.97581
G1 X96.396 Y99.67 E10.00917
G1 X96.685 Y99.3 E10.03103
G1 X97.106 Y98.795 E10.06164
G1 X97.355 Y98.514 E10.07913
G1 X97.845 Y97.997 E10.1123
G0 F6000 X98.126 Y98.282
G1 F1200 X98.416 Y97.996 E10.13126
G1 X98.931 Y97.521 E10.16388
G1 X99.35 Y97.161 E10.18961
G1 X99.915 Y96.709 E10.2233
G1 X100.121 Y96.556 E10.23525
G1 X100.614 Y96.213 E10.26321
G1 X101.133 Y95.873 E10.2921
G1 X101.724 Y95.514 E10.3243
G1 X101.893 Y95.419 E10.33333
G1 X102.477 Y95.115 E10.36399
G1 X103.029 Y94.85 E10.3925
G1 X103.646 Y94.578 E10.4239
G1 X104.025 Y94.426 E10.44291
G1 X104.651 Y94.198 E10.47393
G1 X104.969 Y94.094 E10.48951
G1 X105.637 Y93.901 E10.52189
G1 X106.123 Y93.778 E10.54523
G1 X106.801 Y93.631 E10.57754
G1 X107.296 Y93.541 E10.60096
G1 X107.897 Y93.45 E10.62927
G1 X108.137 Y93.421 E10.64053
G1 X108.852 Y93.36 E10.67394
G1 X109.392 Y93.333 E10.69912
G1 X110.078 Y93.322 E10.73106
G1 X110.538 Y93.33 E10.75249
G1 X111.2 Y93.363 E10.78335
G1 X111.612 Y93.397 E10.8026
G1 X112.276 Y93.473 E10.83372
G1 X112.605 Y93.522 E10.84921
G1 X113.3 Y93.651 E10.88212
G1 X113.871 Y93.777 E10.90935
G1 X114.528 Y93.945 E10.94093
G1 X114.823 Y94.031 E10.95524
G1 X115.42 Y94.225 E10.98447
G1 X115.876 Y94.389 E11.00703
G1 X116.526 Y94.648 E11.03961
G1 X116.888 Y94.807 E11.05802
G1 X117.499 Y95.1 E11.08958
G1 X117.927 Y95.323 E11.11205
G1 X118.476 Y95.631 E11.14136
G1 X118.745 Y95.793 E11.15598
G1 X119.348 Y96.186 E11.1895
G1 X119.846 Y96.536 E11.21784
G1 X120.364 Y96.925 E11.248
G1 X120.622 Y97.132 E11.26341
G1 X120.967 Y97.422 E11.28439
G1 X121.155 Y97.587 E11.29604
G1 X121.793 Y98.197 E11.33714
G1 X122.202 Y98.624 E11.36467
G1 X122.68 Y99.16 E11.39812
G1 X122.99 Y99.533 E11.4207
G1 X123.392 Y100.049 E11.45116
G1 X123.558 Y100.277 E11.46429
G1 X123.948 Y100.853 E11.49668
G1 X124.261 Y101.351 E11.52407
G1 X124.575 Y101.887 E11.553
G1 X124.745 Y102.198 E11.5695
G1 X125.078 Y102.863 E11.60413
G1 X125.277 Y103.3 E11.62649
G1 X125.51 Y103.855 E11.65452
G1 X125.625 Y104.153 E11.66939
G1 X125.864 Y104.846 E11.70352
G1 X126.028 Y105.383 E11.72967
G1 X126.197 Y106.004 E11.75964
G1 X126.288 Y106.387 E11.77797
G1 X126.422 Y107.05 E11.80946
G1 X126.496 Y107.489 E11.83019
G1 X126.568 Y107.992 E11.85385
G1 X126.592 Y108.196 E11.86342
G1 X126.64 Y108.721 E11.88797
G1 X126.648 Y108.843 E11.89366
G1 X126.665 Y109.193 E11.90998
G1 X126.68 Y109.676 E11.93248
G1 X126.68 Y110.321 E11.96251
G1 X126.667 Y110.725 E11.98133
G1 X126.622 Y111.405 E12.01307
G1 X126.576 Y111.868 E12.03473
G1 X126.487 Y112.54 E12.0663
G1 X126.403 Y113.043 E12.09004
G1 X126.258 Y113.754 E12.12383
G1 X126.197 Y114.007 E12.13595
G1 X126.036 Y114.596 E12.16438
G1 X125.864 Y115.159 E12.19179
G1 X125.628 Y115.843 E12.22549
G1 X125.521 Y116.121 E12.23936
G1 X125.276 Y116.703 E12.26876
G1 X125.07 Y117.153 E12.29181
G1 X124.77 Y117.755 E12.32313
G1 X124.575 Y118.116 E12.34223
G1 X124.24 Y118.691 E12.37322
G1 X124.009 Y119.059 E12.39345
G1 X123.613 Y119.644 E12.42634
G1 X123.355 Y119.998 E12.44674
G1 X122.93 Y120.542 E12.47889
G1 X122.604 Y120.931 E12.50252
G1 X122.214 Y121.37 E12.52986
G1 X122.006 Y121.591 E12.54399
G1 X121.679 Y121.922 E12.56566
G1 X121.48 Y122.115 E12.57857
G1 X121.036 Y122.521 E12.60658
G1 X120.899 Y122.639 E12.615
G1 X120.634 Y122.86 E12.63107
G1 X120.348 Y123.09 E12.64816
G1 X119.817 Y123.489 E12.67909
G1 X119.384 Y123.793 E12.70372
G1 X118.802 Y124.173 E12.73609
G1 X118.43 Y124.398 E12.75633
G1 X117.871 Y124.712 E12.78619
G1 X117.599 Y124.854 E12.80047
G1 X116.979 Y125.152 E12.83251
G1 X116.446 Y125.386 E12.85961
G1 X115.783 Y125.65 E12.89284
G1 X115.484 Y125.757 E12.90763
G1 X114.886 Y125.95 E12.93689
G1 X114.358 Y126.103 E12.96248
G1 X113.715 Y126.267 E12.99338
G1 X113.461 Y126.323 E13.00549
G1 X112.781 Y126.449 E13.0377
G1 X112.222 Y126.533 E13.06402
G1 X111.559 Y126.61 E13.0951
