;FLAVOR:Marlin
;TIME:879
;Filament used: 1.41397m
;Layer height: 0.28
;MINX:78.518
;MINY:78.513
;MINZ:0.28
;MAXX:141.492
;MAXY:141.485
;MAXZ:17.92
;Generated with Cura_SteamEngine 4.8.0
M140 S50
M105
M190 S50
M104 S200
M105
M109 S200
M82 ;absolute extrusion mode
M201 X500.00 Y500.00 Z100.00 E5000.00 ;Setup machine max acceleration
M203 X500.00 Y500.00 Z10.00 E50.00 ;Setup machine max feedrate
M204 P500.00 R1000.00 T500.00 ;Setup Print/Retract/Travel acceleration
M205 X8.00 Y8.00 Z0.40 E5.00 ;Setup Jerk
M220 S100 ;Reset Feedrate
M221 S100 ;Reset Flowrate

G28 ;Home

G92 E0 ;Reset Extruder
G1 Z2.0 F3000 ;Move Z Axis up
G1 X10.1 Y20 Z0.28 F5000.0 ;Move to start position
G1 X10.1 Y200.0 Z0.28 F1500.0 E15 ;Draw the first line
G1 X10.4 Y200.0 Z0.28 F5000.0 ;Move to side a little
G1 X10.4 Y20 Z0.28 F1500.0 E30 ;Draw the second line
G92 E0 ;Reset Extruder
G1 Z2.0 F3000 ;Move Z Axis up

G92 E0
G92 E0
G1 F2700 E-5
;LAYER_COUNT:64
;LAYER:0
M107
G0 F6000 X87.761 Y87.713 Z0.28
;TYPE:SKIRT
G1 F2700 E0
G1 F1200 X87.994 Y87.484 E0.01521
G1 X88.513 Y86.988 E0.04864
G1 X88.75 Y86.767 E0.06373
G1 X89.083 Y86.467 E0.0846
G1 X89.346 Y86.238 E0.10084
G1 X89.998 Y85.687 E0.14059
G1 X90.249 Y85.481 E0.15571
G1 X90.616 Y85.189 E0.17755
G1 X90.887 Y84.98 E0.19348
G1 X91.458 Y84.554 E0.22665
G1 X91.731 Y84.357 E0.24233
G1 X92.107 Y84.094 E0.2637
G1 X92.38 Y83.909 E0.27905
G1 X93.109 Y83.431 E0.31964
G1 X93.409 Y83.241 E0.33618
G1 X93.789 Y83.009 E0.35691
G1 X94.063 Y82.847 E0.37173
G1 X94.714 Y82.475 E0.40665
G1 X95.006 Y82.314 E0.42217
G1 X95.429 Y82.089 E0.44448
G1 X95.732 Y81.934 E0.46033
G1 X96.432 Y81.589 E0.49667
G1 X96.726 Y81.45 E0.51181
G1 X97.129 Y81.266 E0.53244
G1 X97.436 Y81.131 E0.54806
G1 X98.195 Y80.812 E0.58639
G1 X98.527 Y80.679 E0.60305
G1 X98.927 Y80.526 E0.62299
G1 X99.226 Y80.417 E0.63781
G1 X99.998 Y80.147 E0.67589
G1 X100.307 Y80.044 E0.69106
G1 X100.771 Y79.897 E0.71372
G1 X101.119 Y79.793 E0.73063
G1 X101.824 Y79.595 E0.76473
G1 X102.142 Y79.51 E0.78006
G1 X102.564 Y79.405 E0.80031
G1 X102.864 Y79.335 E0.81465
G1 X103.726 Y79.146 E0.85574
G1 X104.095 Y79.072 E0.87327
G1 X104.498 Y78.998 E0.89235
G1 X104.807 Y78.946 E0.90694
G1 X105.591 Y78.825 E0.94388
G1 X105.932 Y78.778 E0.9599
G1 X106.422 Y78.718 E0.98289
G1 X106.734 Y78.684 E0.99751
G1 X107.471 Y78.615 E1.03197
G1 X107.831 Y78.587 E1.04879
G1 X108.293 Y78.559 E1.07034
G1 X108.6 Y78.545 E1.08465
G1 X109.399 Y78.519 E1.12187
G1 X109.757 Y78.513 E1.13855
G1 X110.203 Y78.513 E1.15931
G1 X110.527 Y78.518 E1.1744
G1 X111.342 Y78.542 E1.21237
G1 X111.696 Y78.558 E1.22887
G1 X112.182 Y78.588 E1.25154
G1 X112.5 Y78.612 E1.26639
G1 X113.237 Y78.679 E1.30085
G1 X113.56 Y78.713 E1.31597
G1 X114.007 Y78.767 E1.33694
G1 X114.359 Y78.816 E1.35349
G1 X115.166 Y78.94 E1.39151
G1 X115.482 Y78.993 E1.40643
G1 X115.972 Y79.083 E1.42963
G1 X116.317 Y79.152 E1.44601
G1 X117.036 Y79.308 E1.48027
G1 X117.355 Y79.382 E1.49552
G1 X117.81 Y79.495 E1.51735
G1 X118.134 Y79.581 E1.53295
G1 X118.903 Y79.797 E1.57015
G1 X119.231 Y79.895 E1.58609
G1 X119.644 Y80.025 E1.60625
G1 X119.948 Y80.125 E1.62115
G1 X120.746 Y80.402 E1.66048
G1 X121.055 Y80.515 E1.6758
G1 X121.454 Y80.667 E1.69569
G1 X121.792 Y80.802 E1.71263
G1 X122.517 Y81.106 E1.74924
G1 X122.813 Y81.235 E1.76428
G1 X123.218 Y81.419 E1.78499
G1 X123.513 Y81.559 E1.80019
G1 X124.259 Y81.925 E1.83889
G1 X124.568 Y82.082 E1.85503
G1 X124.947 Y82.283 E1.875
G1 X125.242 Y82.445 E1.89067
G1 X125.947 Y82.847 E1.92846
G1 X126.24 Y83.021 E1.94433
G1 X126.624 Y83.256 E1.96529
G1 X126.889 Y83.423 E1.97988
G1 X127.544 Y83.85 E2.01629
G1 X127.842 Y84.051 E2.03302
G1 X128.238 Y84.328 E2.05553
G1 X128.496 Y84.514 E2.07034
G1 X129.104 Y84.966 E2.10561
G1 X129.377 Y85.176 E2.12165
G1 X129.735 Y85.46 E2.14293
G1 X129.987 Y85.666 E2.15809
G1 X130.61 Y86.191 E2.19602
G1 X130.886 Y86.432 E2.21309
G1 X131.2 Y86.715 E2.23277
G1 X131.425 Y86.923 E2.24704
G1 X132.043 Y87.512 E2.28679
G1 X132.308 Y87.773 E2.30411
G1 X132.612 Y88.083 E2.32433
G1 X132.815 Y88.296 E2.33803
G1 X133.343 Y88.864 E2.37414
G1 X133.583 Y89.13 E2.39082
G1 X133.852 Y89.439 E2.4099
G1 X134.054 Y89.678 E2.42447
G1 X134.621 Y90.368 E2.46605
G1 X134.843 Y90.648 E2.48269
G1 X135.109 Y90.994 E2.50301
G1 X135.304 Y91.255 E2.51819
G1 X135.747 Y91.868 E2.5534
G1 X135.935 Y92.137 E2.56868
G1 X136.19 Y92.513 E2.58984
G1 X136.375 Y92.794 E2.6055
G1 X136.814 Y93.486 E2.64366
G1 X137.008 Y93.805 E2.66105
G1 X137.229 Y94.181 E2.68136
G1 X137.373 Y94.434 E2.69491
G1 X137.766 Y95.145 E2.73274
G1 X137.932 Y95.457 E2.7492
G1 X138.133 Y95.85 E2.76975
G1 X138.281 Y96.149 E2.78529
G1 X138.625 Y96.875 E2.8227
G1 X138.761 Y97.175 E2.83803
G1 X138.947 Y97.6 E2.85963
G1 X139.073 Y97.9 E2.87479
G1 X139.361 Y98.615 E2.91068
G1 X139.481 Y98.926 E2.9262
G1 X139.619 Y99.301 E2.94481
G1 X139.734 Y99.629 E2.96099
G1 X140.021 Y100.492 E3.00334
G1 X140.124 Y100.818 E3.01926
G1 X140.249 Y101.237 E3.03962
G1 X140.339 Y101.558 E3.05514
G1 X140.53 Y102.277 E3.08978
G1 X140.613 Y102.608 E3.10567
G1 X140.717 Y103.055 E3.12704
G1 X140.785 Y103.367 E3.14191
G1 X140.947 Y104.168 E3.17997
G1 X141.008 Y104.5 E3.19569
G1 X141.081 Y104.928 E3.2159
G1 X141.135 Y105.275 E3.23225
G1 X141.245 Y106.073 E3.26976
G1 X141.284 Y106.39 E3.28464
G1 X141.336 Y106.87 E3.30712
G1 X141.368 Y107.214 E3.32321
G1 X141.426 Y107.97 E3.35851
G1 X141.445 Y108.283 E3.37311
G1 X141.467 Y108.741 E3.39446
G1 X141.479 Y109.093 E3.41086
G1 X141.492 Y109.905 E3.44868
G1 X141.492 Y110.241 E3.46432
G1 X141.486 Y110.653 E3.48351
G1 X141.476 Y110.993 E3.49935
G1 X141.437 Y111.85 E3.5393
G1 X141.418 Y112.161 E3.5538
G1 X141.388 Y112.567 E3.57276
G1 X141.356 Y112.925 E3.5895
G1 X141.266 Y113.767 E3.62893
G1 X141.224 Y114.108 E3.64493
G1 X141.169 Y114.505 E3.66359
G1 X141.121 Y114.819 E3.67838
G1 X140.987 Y115.616 E3.71601
G1 X140.929 Y115.93 E3.73088
G1 X140.842 Y116.369 E3.75172
G1 X140.764 Y116.731 E3.76896
G1 X140.575 Y117.541 E3.80769
G1 X140.493 Y117.869 E3.82344
G1 X140.377 Y118.305 E3.84444
G1 X140.295 Y118.598 E3.85861
G1 X140.079 Y119.328 E3.89406
G1 X139.972 Y119.67 E3.91075
G1 X139.835 Y120.083 E3.93101
G1 X139.729 Y120.387 E3.946
G1 X139.433 Y121.199 E3.98624
G1 X139.304 Y121.535 E4.003
G1 X139.144 Y121.933 E4.02298
G1 X139.023 Y122.223 E4.03761
G1 X138.712 Y122.937 E4.07387
G1 X138.561 Y123.268 E4.09081
G1 X138.357 Y123.697 E4.11293
G1 X138.225 Y123.965 E4.12684
G1 X137.867 Y124.668 E4.16358
G1 X137.714 Y124.958 E4.17885
G1 X137.506 Y125.338 E4.19902
G1 X137.323 Y125.659 E4.21622
G1 X136.917 Y126.345 E4.25334
G1 X136.755 Y126.609 E4.26776
G1 X136.516 Y126.988 E4.28863
G1 X136.327 Y127.278 E4.30475
G1 X135.869 Y127.956 E4.34285
G1 X135.668 Y128.244 E4.3592
G1 X135.373 Y128.652 E4.38264
G1 X135.177 Y128.915 E4.39792
G1 X134.743 Y129.479 E4.43105
G1 X134.551 Y129.722 E4.44547
G1 X134.273 Y130.063 E4.46596
G1 X134.045 Y130.333 E4.48242
G1 X133.482 Y130.98 E4.52235
G1 X133.27 Y131.216 E4.53712
G1 X132.95 Y131.563 E4.5591
G1 X132.692 Y131.834 E4.57653
G1 X132.154 Y132.379 E4.61219
G1 X131.932 Y132.597 E4.62667
G1 X131.605 Y132.91 E4.64775
G1 X131.358 Y133.14 E4.66347
G1 X130.777 Y133.663 E4.69987
G1 X130.539 Y133.871 E4.71459
G1 X130.207 Y134.153 E4.73487
G1 X129.928 Y134.382 E4.75168
G1 X129.262 Y134.911 E4.79128
G1 X129.003 Y135.111 E4.80652
G1 X128.667 Y135.362 E4.82605
G1 X128.396 Y135.558 E4.84162
G1 X127.718 Y136.033 E4.88017
G1 X127.431 Y136.227 E4.8963
G1 X127.098 Y136.445 E4.91483
G1 X126.814 Y136.625 E4.93049
G1 X126.103 Y137.06 E4.9693
G1 X125.814 Y137.231 E4.98494
G1 X125.418 Y137.457 E5.00617
G1 X125.132 Y137.614 E5.02136
G1 X124.429 Y137.988 E5.05844
G1 X124.143 Y138.135 E5.07341
G1 X123.737 Y138.336 E5.09451
G1 X123.416 Y138.489 E5.11106
G1 X122.698 Y138.816 E5.1478
G1 X122.366 Y138.96 E5.16465
G1 X121.96 Y139.129 E5.18513
G1 X121.692 Y139.237 E5.19858
G1 X120.922 Y139.534 E5.23701
G1 X120.602 Y139.652 E5.2529
G1 X120.234 Y139.781 E5.27105
G1 X119.901 Y139.892 E5.2874
G1 X119.079 Y140.151 E5.32753
G1 X118.738 Y140.252 E5.34409
G1 X118.32 Y140.369 E5.3643
G1 X118.02 Y140.448 E5.37875
G1 X117.219 Y140.648 E5.41719
G1 X116.889 Y140.725 E5.43297
G1 X116.447 Y140.821 E5.45403
G1 X116.125 Y140.886 E5.46933
G1 X115.405 Y141.02 E5.50343
G1 X115.057 Y141.079 E5.51986
G1 X114.6 Y141.149 E5.54139
G1 X114.288 Y141.192 E5.55606
G1 X113.433 Y141.298 E5.59617
G1 X113.085 Y141.336 E5.61247
G1 X112.638 Y141.377 E5.63338
G1 X112.313 Y141.402 E5.64855
G1 X111.57 Y141.448 E5.68322
G1 X111.255 Y141.463 E5.6979
G1 X110.803 Y141.478 E5.71896
G1 X110.451 Y141.484 E5.73535
G1 X109.63 Y141.485 E5.77358
G1 X109.301 Y141.48 E5.7889
G1 X108.884 Y141.468 E5.80833
G1 X108.528 Y141.452 E5.82492
G1 X107.662 Y141.399 E5.86532
G1 X107.345 Y141.375 E5.88013
G1 X106.924 Y141.337 E5.89981
G1 X106.564 Y141.299 E5.91667
G1 X105.771 Y141.201 E5.95387
G1 X105.446 Y141.156 E5.96915
G1 X104.985 Y141.085 E5.99087
G1 X104.682 Y141.034 E6.00518
G1 X103.954 Y140.901 E6.03964
G1 X103.625 Y140.835 E6.05526
G1 X103.182 Y140.74 E6.07636
G1 X102.82 Y140.657 E6.09365
G1 X102.012 Y140.455 E6.13243
G1 X101.713 Y140.375 E6.14685
G1 X101.231 Y140.24 E6.17015
G1 X100.901 Y140.142 E6.18618
G1 X100.207 Y139.924 E6.22005
G1 X99.895 Y139.821 E6.23535
G1 X99.443 Y139.664 E6.25763
G1 X99.128 Y139.549 E6.27325
G1 X98.4 Y139.271 E6.30954
G1 X98.07 Y139.139 E6.32609
G1 X97.667 Y138.97 E6.34643
G1 X97.372 Y138.841 E6.36143
G1 X96.608 Y138.494 E6.4005
G1 X96.309 Y138.353 E6.41589
G1 X95.922 Y138.163 E6.43597
G1 X95.613 Y138.005 E6.45213
G1 X94.899 Y137.626 E6.48977
G1 X94.596 Y137.459 E6.50588
G1 X94.178 Y137.22 E6.5283
G1 X93.905 Y137.059 E6.54306
G1 X93.268 Y136.67 E6.57781
G1 X93.024 Y136.517 E6.59122
G1 X92.664 Y136.284 E6.61119
G1 X92.34 Y136.065 E6.6294
G1 X91.616 Y135.559 E6.67053
G1 X91.329 Y135.352 E6.68701
G1 X90.98 Y135.091 E6.7073
G1 X90.738 Y134.904 E6.72154
G1 X90.151 Y134.439 E6.75641
G1 X89.887 Y134.223 E6.77229
G1 X89.541 Y133.931 E6.79338
G1 X89.288 Y133.712 E6.80896
G1 X88.664 Y133.152 E6.848
G1 X88.419 Y132.925 E6.86355
G1 X88.094 Y132.615 E6.88446
G1 X87.85 Y132.375 E6.9004
G1 X87.319 Y131.836 E6.93563
G1 X87.104 Y131.612 E6.95009
G1 X86.78 Y131.264 E6.97223
G1 X86.539 Y130.996 E6.98901
G1 X86.009 Y130.388 E7.02657
G1 X85.793 Y130.133 E7.04213
G1 X85.525 Y129.806 E7.06182
G1 X85.316 Y129.542 E7.0775
G1 X84.815 Y128.891 E7.11575
G1 X84.619 Y128.628 E7.13102
G1 X84.342 Y128.245 E7.15303
G1 X84.147 Y127.967 E7.16884
G1 X83.721 Y127.338 E7.20422
G1 X83.541 Y127.063 E7.21952
G1 X83.305 Y126.691 E7.24003
G1 X83.131 Y126.408 E7.2555
G1 X82.7 Y125.681 E7.29486
G1 X82.533 Y125.39 E7.31048
G1 X82.322 Y125.008 E7.3308
G1 X82.15 Y124.683 E7.34792
G1 X81.804 Y124.004 E7.38341
G1 X81.666 Y123.724 E7.39794
G1 X81.454 Y123.277 E7.42098
G1 X81.316 Y122.974 E7.43648
G1 X80.996 Y122.243 E7.47364
G1 X80.867 Y121.935 E7.48919
G1 X80.707 Y121.537 E7.50916
G1 X80.584 Y121.216 E7.52517
G1 X80.305 Y120.454 E7.56296
G1 X80.191 Y120.129 E7.57899
G1 X80.045 Y119.688 E7.60062
G1 X79.952 Y119.392 E7.61507
G1 X79.736 Y118.672 E7.65007
G1 X79.643 Y118.342 E7.66604
G1 X79.525 Y117.899 E7.68739
G1 X79.443 Y117.571 E7.70313
G1 X79.25 Y116.745 E7.74263
G1 X79.178 Y116.419 E7.75817
G1 X79.091 Y115.988 E7.77865
G1 X79.029 Y115.652 E7.79456
G1 X78.899 Y114.886 E7.83073
G1 X78.849 Y114.559 E7.84614
G1 X78.788 Y114.12 E7.86678
G1 X78.748 Y113.799 E7.88184
G1 X78.659 Y112.983 E7.92006
G1 X78.626 Y112.623 E7.93689
G1 X78.595 Y112.215 E7.95595
G1 X78.575 Y111.887 E7.97125
G1 X78.537 Y111.06 E8.0098
G1 X78.527 Y110.748 E8.02433
G1 X78.519 Y110.293 E8.04552
G1 X78.518 Y109.932 E8.06233
G1 X78.53 Y109.145 E8.09898
G1 X78.54 Y108.814 E8.1144
G1 X78.563 Y108.307 E8.13803
G1 X78.583 Y107.976 E8.15348
G1 X78.639 Y107.236 E8.18803
G1 X78.668 Y106.916 E8.20299
G1 X78.715 Y106.469 E8.22392
G1 X78.758 Y106.116 E8.24048
G1 X78.869 Y105.311 E8.27832
G1 X78.917 Y104.998 E8.29306
G1 X78.996 Y104.526 E8.31535
G1 X79.059 Y104.182 E8.33163
G1 X79.203 Y103.463 E8.36578
G1 X79.272 Y103.143 E8.38102
G1 X79.378 Y102.685 E8.40291
G1 X79.462 Y102.349 E8.41904
G1 X79.676 Y101.541 E8.45796
G1 X79.766 Y101.22 E8.47348
G1 X79.899 Y100.773 E8.4952
G1 X80.005 Y100.436 E8.51165
G1 X80.241 Y99.727 E8.54644
G1 X80.342 Y99.438 E8.5607
G1 X80.5 Y99.004 E8.58221
G1 X80.626 Y98.675 E8.59861
G1 X80.931 Y97.914 E8.63679
G1 X81.06 Y97.605 E8.65238
G1 X81.232 Y97.211 E8.6724
G1 X81.364 Y96.919 E8.68732
G1 X81.706 Y96.194 E8.72464
G1 X81.864 Y95.874 E8.74126
G1 X82.078 Y95.456 E8.76313
G1 X82.224 Y95.179 E8.77771
G1 X82.586 Y94.519 E8.81276
G1 X82.764 Y94.208 E8.82945
G1 X83.006 Y93.799 E8.85157
G1 X83.166 Y93.536 E8.86591
G1 X83.597 Y92.852 E8.90355
G1 X83.792 Y92.555 E8.9201
G1 X84.053 Y92.169 E8.94179
G1 X84.243 Y91.896 E8.95728
G1 X84.698 Y91.265 E8.99351
G1 X84.894 Y91.001 E9.00882
G1 X85.178 Y90.631 E9.03054
G1 X85.385 Y90.37 E9.04605
G1 X85.88 Y89.764 E9.08248
G1 X86.113 Y89.489 E9.09927
G1 X86.395 Y89.166 E9.11923
G1 X86.602 Y88.934 E9.13371
G1 X87.162 Y88.328 E9.17213
G1 X87.408 Y88.071 E9.1887
G1 X87.761 Y87.713 E9.21211
G0 F6000 X88.046 Y87.994
G1 F1200 X88.27 Y87.773 E9.22676
G1 X88.789 Y87.277 E9.26019
G1 X89.018 Y87.065 E9.27472
G1 X89.351 Y86.765 E9.29559
G1 X89.604 Y86.544 E9.31123
G1 X90.256 Y85.993 E9.35098
G1 X90.498 Y85.794 E9.36557
G1 X90.865 Y85.502 E9.38741
G1 X91.126 Y85.301 E9.40275
G1 X91.697 Y84.875 E9.43592
G1 X91.96 Y84.685 E9.45103
G1 X92.336 Y84.422 E9.47239
G1 X92.6 Y84.244 E9.48722
G1 X93.329 Y83.766 E9.52781
G1 X93.617 Y83.583 E9.5437
G1 X93.997 Y83.351 E9.56443
G1 X94.262 Y83.195 E9.57875
G1 X94.913 Y82.823 E9.61366
G1 X95.194 Y82.668 E9.62861
G1 X95.617 Y82.443 E9.65092
G1 X95.909 Y82.293 E9.6662
G1 X96.609 Y81.948 E9.70254
G1 X96.892 Y81.814 E9.71712
G1 X97.295 Y81.63 E9.73775
G1 X97.591 Y81.5 E9.75281
G1 X98.35 Y81.181 E9.79114
G1 X98.67 Y81.053 E9.80719
G1 X99.07 Y80.9 E9.82713
G1 X99.358 Y80.794 E9.84142
G1 X100.13 Y80.524 E9.8795
G1 X100.428 Y80.425 E9.89413
G1 X100.892 Y80.278 E9.91679
G1 X101.227 Y80.178 E9.93307
G1 X101.932 Y79.98 E9.96717
G1 X102.239 Y79.899 E9.98195
G1 X102.661 Y79.794 E10.0022
G1 X102.95 Y79.726 E10.01603
G1 X103.812 Y79.537 E10.05712
G1 X104.168 Y79.465 E10.07403
G1 X104.571 Y79.391 E10.09311
G1 X104.868 Y79.341 E10.10713
G1 X105.652 Y79.22 E10.14407
G1 X105.981 Y79.175 E10.15953
G1 X106.471 Y79.115 E10.18252
G1 X106.771 Y79.082 E10.19657
G1 X107.508 Y79.013 E10.23104
G1 X107.855 Y78.986 E10.24725
G1 X108.317 Y78.958 E10.2688
G1 X108.613 Y78.945 E10.2826
G1 X109.412 Y78.919 E10.31982
G1 X109.757 Y78.913 E10.33589
G1 X110.203 Y78.913 E10.35666
G1 X110.515 Y78.918 E10.37119
G1 X111.33 Y78.942 E10.40915
G1 X111.671 Y78.957 E10.42505
G1 X112.157 Y78.987 E10.44772
G1 X112.464 Y79.011 E10.46206
G1 X113.201 Y79.078 E10.49652
G1 X113.512 Y79.111 E10.51108
G1 X113.959 Y79.165 E10.53205
G1 X114.298 Y79.211 E10.54798
G1 X115.105 Y79.335 E10.58599
G1 X115.41 Y79.386 E10.60039
G1 X115.9 Y79.476 E10.62359
G1 X116.233 Y79.543 E10.63941
G1 X116.952 Y79.699 E10.67367
G1 X117.259 Y79.771 E10.68835
G1 X117.714 Y79.884 E10.71018
G1 X118.025 Y79.966 E10.72516
G1 X118.794 Y80.182 E10.76235
G1 X119.111 Y80.276 E10.77775
G1 X119.524 Y80.406 E10.79791
G1 X119.817 Y80.503 E10.81228
G1 X120.615 Y80.78 E10.85161
G1 X120.913 Y80.888 E10.86637
G1 X121.312 Y81.04 E10.88625
G1 X121.637 Y81.171 E10.90257
G1 X122.362 Y81.475 E10.93918
G1 X122.648 Y81.599 E10.95369
G1 X123.053 Y81.783 E10.97441
G1 X123.337 Y81.918 E10.98905
G1 X124.083 Y82.284 E11.02774
G1 X124.38 Y82.435 E11.04325
G1 X124.759 Y82.636 E11.06323
G1 X125.044 Y82.793 E11.07838
G1 X125.749 Y83.195 E11.11617
G1 X126.031 Y83.362 E11.13143
G1 X126.415 Y83.597 E11.1524
G1 X126.671 Y83.758 E11.16648
G1 X127.326 Y84.185 E11.20289
G1 X127.613 Y84.379 E11.21902
G1 X128.009 Y84.656 E11.24152
G1 X128.257 Y84.835 E11.25576
G1 X128.865 Y85.287 E11.29104
G1 X129.129 Y85.49 E11.30654
G1 X129.487 Y85.774 E11.32782
G1 X129.73 Y85.972 E11.34242
G1 X130.353 Y86.497 E11.38036
G1 X130.619 Y86.729 E11.39679
G1 X130.933 Y87.012 E11.41647
G1 X131.149 Y87.213 E11.43021
G1 X131.767 Y87.802 E11.46997
G1 X132.022 Y88.053 E11.48663
G1 X132.326 Y88.363 E11.50684
G1 X132.522 Y88.568 E11.52005
