;FLAVOR:Marlin
;TIME:3389
;Filament used: 2.79902m
;Layer height: 0.28
;MINX:83.014
;MINY:83.014
;MINZ:0.28
;MAXX:136.982
;MAXY:136.984
;MAXZ:35.84
;Generated with Cura_SteamEngine 4.8.0
M140 S50
M105
M190 S50
M104 S200
M105
M109 S200
M82 ;absolute extrusion mode
M201 X500.00 Y500.00 Z100.00 E5000.00 ;Setup machine max acceleration
M203 X500.00 Y500.00 Z10.00 E50.00 ;Setup machine max feedrate
M204 P500.00 R1000.00 T500.00 ;Setup Print/Retract/Travel acceleration
M205 X8.00 Y8.00 Z0.40 E5.00 ;Setup Jerk
M220 S100 ;Reset Feedrate
M221 S100 ;Reset Flowrate

G28 ;Home

G92 E0 ;Reset Extruder
G1 Z2.0 F3000 ;Move Z Axis up
G1 X10.1 Y20 Z0.28 F5000.0 ;Move to start position
G1 X10.1 Y200.0 Z0.28 F1500.0 E15 ;Draw the first line
G1 X10.4 Y200.0 Z0.28 F5000.0 ;Move to side a little
G1 X10.4 Y20 Z0.28 F1500.0 E30 ;Draw the second line
G92 E0 ;Reset Extruder
G1 Z2.0 F3000 ;Move Z Axis up

G92 E0
G92 E0
G1 F2700 E-5
;LAYER_COUNT:128
;LAYER:0
M107
G0 F6000 X91.096 Y90.74 Z0.28
;TYPE:SKIRT
G1 F2700 E0
G1 F1200 X91.395 Y90.455 E0.01923
G1 X92.104 Y89.803 E0.06409
G1 X92.499 Y89.457 E0.08854
G1 X92.753 Y89.247 E0.10388
G1 X93.474 Y88.668 E0.14694
G1 X93.796 Y88.419 E0.16589
G1 X94.177 Y88.141 E0.18786
G1 X94.935 Y87.612 E0.2309
G1 X95.263 Y87.39 E0.24934
G1 X95.634 Y87.156 E0.26976
G1 X96.483 Y86.644 E0.31593
G1 X96.9 Y86.405 E0.33831
G1 X97.214 Y86.236 E0.35491
G1 X97.98 Y85.84 E0.39507
G1 X98.25 Y85.705 E0.40912
G1 X98.395 Y85.635 E0.41662
G1 X98.775 Y85.46 E0.4361
G1 X99.636 Y85.084 E0.47985
G1 X100.03 Y84.921 E0.4997
G1 X100.406 Y84.779 E0.51842
G1 X101.337 Y84.444 E0.56449
G1 X101.627 Y84.344 E0.57878
G1 X101.767 Y84.298 E0.58564
G1 X102.184 Y84.17 E0.60595
G1 X102.994 Y83.939 E0.64517
G1 X103.361 Y83.841 E0.66286
G1 X103.498 Y83.807 E0.66943
G1 X103.816 Y83.733 E0.68463
G1 X104.738 Y83.533 E0.72856
G1 X105.077 Y83.465 E0.74466
G1 X105.229 Y83.437 E0.75186
G1 X105.617 Y83.373 E0.77017
G1 X106.505 Y83.242 E0.81197
G1 X106.877 Y83.193 E0.82944
G1 X107.01 Y83.178 E0.83567
G1 X107.356 Y83.145 E0.85186
G1 X108.283 Y83.07 E0.89516
G1 X108.653 Y83.046 E0.91243
G1 X108.823 Y83.038 E0.92035
G1 X109.178 Y83.027 E0.93689
G1 X110.06 Y83.014 E0.97796
G1 X110.519 Y83.016 E0.99934
G1 X110.925 Y83.029 E1.01825
G1 X111.843 Y83.076 E1.06105
G1 X112.288 Y83.108 E1.08183
G1 X112.663 Y83.146 E1.09938
G1 X113.65 Y83.263 E1.14566
G1 X114.113 Y83.328 E1.16743
G1 X114.5 Y83.392 E1.1857
G1 X115.382 Y83.556 E1.22747
G1 X115.774 Y83.637 E1.24611
G1 X116.222 Y83.742 E1.26753
G1 X117.132 Y83.974 E1.31126
G1 X117.563 Y84.092 E1.33207
G1 X117.945 Y84.21 E1.35069
G1 X118.837 Y84.503 E1.39441
G1 X119.228 Y84.639 E1.41368
G1 X119.635 Y84.793 E1.43395
G1 X120.501 Y85.141 E1.4774
G1 X120.843 Y85.286 E1.4947
G1 X120.963 Y85.339 E1.50081
G1 X121.297 Y85.493 E1.51794
G1 X122.139 Y85.899 E1.56146
G1 X122.552 Y86.108 E1.58302
G1 X122.859 Y86.276 E1.59931
G1 X123.688 Y86.745 E1.64366
G1 X123.998 Y86.927 E1.6604
G1 X124.144 Y87.016 E1.66836
G1 X124.443 Y87.205 E1.68483
G1 X125.167 Y87.679 E1.72513
G1 X125.503 Y87.908 E1.74406
G1 X125.847 Y88.157 E1.76384
G1 X126.662 Y88.772 E1.81138
G1 X126.944 Y88.992 E1.82803
G1 X127.313 Y89.297 E1.85033
G1 X127.983 Y89.877 E1.89159
G1 X128.269 Y90.134 E1.90949
G1 X128.582 Y90.431 E1.92959
G1 X129.314 Y91.154 E1.97749
G1 X129.628 Y91.476 E1.99844
G1 X129.901 Y91.773 E2.01722
G1 X130.48 Y92.427 E2.05789
G1 X130.706 Y92.691 E2.07407
G1 X130.804 Y92.809 E2.08122
G1 X131.031 Y93.091 E2.09807
G1 X131.611 Y93.838 E2.14211
G1 X131.874 Y94.191 E2.16261
G1 X132.101 Y94.515 E2.18103
G1 X132.642 Y95.318 E2.22612
G1 X132.898 Y95.716 E2.24815
G1 X133.087 Y96.029 E2.26518
G1 X133.553 Y96.831 E2.30837
G1 X133.719 Y97.126 E2.32413
G1 X133.942 Y97.55 E2.34644
G1 X134.366 Y98.402 E2.39075
G1 X134.564 Y98.821 E2.41233
G1 X134.718 Y99.174 E2.43026
G1 X135.168 Y100.26 E2.485
G1 X135.198 Y100.336 E2.48881
G1 X135.377 Y100.825 E2.51305
G1 X135.688 Y101.737 E2.55792
G1 X135.797 Y102.073 E2.57437
G1 X135.841 Y102.217 E2.58138
G1 X135.947 Y102.586 E2.59926
G1 X136.177 Y103.445 E2.64066
G1 X136.294 Y103.925 E2.66367
G1 X136.355 Y104.21 E2.67724
G1 X136.556 Y105.214 E2.72492
G1 X136.634 Y105.648 E2.74545
G1 X136.694 Y106.044 E2.7641
G1 X136.812 Y106.944 E2.80637
G1 X136.858 Y107.363 E2.826
G1 X136.894 Y107.795 E2.84618
G1 X136.953 Y108.708 E2.88878
G1 X136.97 Y109.044 E2.90445
G1 X136.976 Y109.221 E2.9127
G1 X136.982 Y109.606 E2.93062
G1 X136.981 Y110.504 E2.97244
G1 X136.973 Y110.924 E2.992
G1 X136.953 Y111.303 E3.00967
G1 X136.88 Y112.368 E3.05938
G1 X136.837 Y112.847 E3.08177
G1 X136.797 Y113.179 E3.09734
G1 X136.682 Y114.028 E3.13724
G1 X136.629 Y114.378 E3.15372
G1 X136.597 Y114.568 E3.16269
G1 X136.532 Y114.919 E3.17932
G1 X136.35 Y115.82 E3.22212
G1 X136.262 Y116.221 E3.24123
G1 X136.228 Y116.362 E3.24799
G1 X136.149 Y116.669 E3.26275
G1 X135.919 Y117.515 E3.30357
G1 X135.783 Y117.976 E3.32595
G1 X135.675 Y118.307 E3.34216
G1 X135.35 Y119.251 E3.38865
G1 X135.221 Y119.606 E3.40624
G1 X135.18 Y119.713 E3.41158
G1 X135.042 Y120.056 E3.42879
G1 X134.681 Y120.911 E3.47201
G1 X134.526 Y121.261 E3.48983
G1 X134.324 Y121.686 E3.51174
G1 X133.903 Y122.523 E3.55537
G1 X133.688 Y122.93 E3.5768
G1 X133.485 Y123.291 E3.59609
G1 X133.033 Y124.058 E3.63754
G1 X132.861 Y124.34 E3.65292
G1 X132.762 Y124.497 E3.66157
G1 X132.553 Y124.816 E3.67933
G1 X132.062 Y125.538 E3.71998
G1 X131.846 Y125.844 E3.73742
G1 X131.759 Y125.963 E3.74429
G1 X131.545 Y126.246 E3.76081
G1 X130.961 Y126.993 E3.80496
G1 X130.749 Y127.256 E3.82069
G1 X130.448 Y127.607 E3.84222
G1 X129.788 Y128.345 E3.88832
G1 X129.476 Y128.681 E3.90967
G1 X129.215 Y128.944 E3.92693
G1 X128.535 Y129.609 E3.97121
G1 X128.306 Y129.827 E3.98594
G1 X127.926 Y130.168 E4.00971
G1 X127.1 Y130.874 E4.06031
G1 X126.543 Y131.319 E4.09351
G1 X125.812 Y131.866 E4.13602
G1 X125.483 Y132.103 E4.1549
G1 X125.148 Y132.33 E4.17374
G1 X124.293 Y132.887 E4.22126
G1 X123.907 Y133.127 E4.24242
G1 X123.561 Y133.329 E4.26108
G1 X122.791 Y133.76 E4.30217
G1 X122.406 Y133.966 E4.3225
G1 X122.039 Y134.149 E4.34159
G1 X121.174 Y134.561 E4.38621
G1 X120.768 Y134.745 E4.40696
G1 X120.397 Y134.9 E4.42569
G1 X119.554 Y135.235 E4.46793
G1 X119.23 Y135.359 E4.48408
G1 X119.075 Y135.415 E4.49175
G1 X118.725 Y135.534 E4.50897
G1 X117.854 Y135.816 E4.5516
G1 X117.386 Y135.956 E4.57434
G1 X117.014 Y136.056 E4.59228
G1 X116.16 Y136.271 E4.63329
G1 X115.803 Y136.355 E4.65036
G1 X115.683 Y136.381 E4.65608
G1 X115.332 Y136.451 E4.67275
G1 X114.353 Y136.63 E4.71909
G1 X113.944 Y136.697 E4.73839
G1 X113.826 Y136.714 E4.74394
G1 X113.502 Y136.755 E4.75915
G1 X112.624 Y136.855 E4.80029
G1 X112.245 Y136.892 E4.81803
G1 X112.055 Y136.907 E4.8269
G1 X111.72 Y136.928 E4.84253
G1 X110.83 Y136.971 E4.88402
G1 X110.392 Y136.984 E4.90443
G1 X109.984 Y136.984 E4.92342
G1 X109.025 Y136.966 E4.96809
G1 X108.577 Y136.949 E4.98896
G1 X108.204 Y136.924 E5.00637
G1 X107.247 Y136.843 E5.05109
G1 X106.775 Y136.793 E5.07319
G1 X106.388 Y136.741 E5.09137
G1 X105.509 Y136.607 E5.13278
G1 X105.173 Y136.551 E5.14864
G1 X104.994 Y136.518 E5.15711
G1 X104.623 Y136.443 E5.17474
G1 X103.769 Y136.255 E5.21546
G1 X103.369 Y136.159 E5.23461
G1 X103.215 Y136.119 E5.24202
G1 X102.914 Y136.036 E5.25656
G1 X102.032 Y135.78 E5.29932
G1 X101.576 Y135.637 E5.32158
G1 X101.238 Y135.521 E5.33822
G1 X100.338 Y135.194 E5.3828
G1 X99.983 Y135.058 E5.40051
G1 X99.844 Y135.002 E5.40748
G1 X99.508 Y134.86 E5.42447
G1 X98.671 Y134.49 E5.46708
G1 X98.269 Y134.303 E5.48773
G1 X97.933 Y134.135 E5.50522
G1 X97.107 Y133.704 E5.5486
G1 X96.803 Y133.539 E5.56471
G1 X96.675 Y133.467 E5.57155
G1 X96.336 Y133.269 E5.58983
G1 X95.553 Y132.791 E5.63254
G1 X95.161 Y132.541 E5.65419
G1 X94.828 Y132.315 E5.67293
G1 X94.084 Y131.79 E5.71533
G1 X93.728 Y131.528 E5.73592
G1 X93.434 Y131.299 E5.75327
G1 X92.665 Y130.678 E5.79929
G1 X92.35 Y130.414 E5.81843
G1 X92.011 Y130.113 E5.83954
G1 X91.343 Y129.496 E5.88189
G1 X91.029 Y129.193 E5.9022
G1 X90.744 Y128.903 E5.92114
G1 X90.11 Y128.235 E5.96402
G1 X89.836 Y127.935 E5.98294
G1 X89.534 Y127.586 E6.00443
G1 X88.935 Y126.864 E6.04811
G1 X88.633 Y126.484 E6.07072
G1 X88.432 Y126.214 E6.08639
G1 X87.867 Y125.434 E6.13124
G1 X87.622 Y125.083 E6.15117
G1 X87.552 Y124.978 E6.15704
G1 X87.385 Y124.718 E6.17143
G1 X86.908 Y123.957 E6.21325
G1 X86.718 Y123.644 E6.2303
G1 X86.618 Y123.472 E6.23957
G1 X86.444 Y123.16 E6.2562
G1 X86.034 Y122.399 E6.29645
G1 X85.864 Y122.07 E6.3137
G1 X85.802 Y121.945 E6.32019
G1 X85.647 Y121.619 E6.337
G1 X85.177 Y120.585 E6.38989
G1 X85.141 Y120.502 E6.3941
G1 X84.946 Y120.021 E6.41827
G1 X84.593 Y119.089 E6.46468
G1 X84.425 Y118.613 E6.48818
G1 X84.322 Y118.291 E6.50392
G1 X84.054 Y117.411 E6.54676
G1 X83.947 Y117.034 E6.56501
G1 X83.834 Y116.591 E6.5863
G1 X83.598 Y115.577 E6.63477
G1 X83.456 Y114.855 E6.66904
G1 X83.3 Y113.899 E6.71414
G1 X83.25 Y113.564 E6.72991
G1 X83.233 Y113.435 E6.73597
G1 X83.191 Y113.063 E6.7534
G1 X83.104 Y112.169 E6.79523
G1 X83.077 Y111.841 E6.81055
G1 X83.068 Y111.707 E6.81681
G1 X83.048 Y111.308 E6.83541
G1 X83.019 Y110.364 E6.87939
G1 X83.014 Y110.026 E6.89513
G1 X83.014 Y109.879 E6.90197
G1 X83.021 Y109.497 E6.91976
G1 X83.052 Y108.606 E6.96128
G1 X83.071 Y108.234 E6.97862
G1 X83.08 Y108.103 E6.98474
G1 X83.11 Y107.748 E7.00132
G1 X83.206 Y106.801 E7.04565
G1 X83.258 Y106.371 E7.06582
G1 X83.316 Y105.991 E7.08371
G1 X83.478 Y105.029 E7.12914
G1 X83.559 Y104.595 E7.1497
G1 X83.65 Y104.18 E7.16948
G1 X83.858 Y103.309 E7.21118
G1 X83.967 Y102.887 E7.23147
G1 X84.072 Y102.526 E7.24898
G1 X84.37 Y101.561 E7.29601
G1 X84.472 Y101.246 E7.31143
G1 X84.511 Y101.132 E7.31704
G1 X84.647 Y100.757 E7.33561
G1 X84.957 Y99.948 E7.37595
G1 X85.118 Y99.551 E7.3959
G1 X85.181 Y99.404 E7.40335
G1 X85.3 Y99.137 E7.41696
G1 X85.713 Y98.24 E7.46294
G1 X85.944 Y97.769 E7.48737
G1 X86.079 Y97.512 E7.50089
G1 X86.506 Y96.726 E7.54254
G1 X86.739 Y96.317 E7.56446
G1 X86.927 Y96.009 E7.58126
G1 X87.461 Y95.164 E7.6278
G1 X87.664 Y94.855 E7.64502
G1 X87.749 Y94.73 E7.65206
G1 X87.96 Y94.429 E7.66917
G1 X88.471 Y93.729 E7.70953
G1 X88.703 Y93.423 E7.72741
G1 X88.971 Y93.09 E7.74732
G1 X89.627 Y92.306 E7.79492
G1 X89.92 Y91.969 E7.81571
G1 X90.18 Y91.688 E7.83354
G1 X90.818 Y91.021 E7.87651
G1 X91.096 Y90.74 E7.89492
G0 F6000 X91.375 Y91.027
G1 F1200 X91.666 Y90.75 E7.91363
G1 X92.375 Y90.098 E7.95848
G1 X92.755 Y89.764 E7.98204
G1 X93.004 Y89.559 E7.99706
G1 X93.725 Y88.98 E8.04011
G1 X94.039 Y88.736 E8.05863
G1 X94.406 Y88.469 E8.07976
G1 X95.164 Y87.94 E8.1228
G1 X95.483 Y87.724 E8.14074
G1 X95.841 Y87.499 E8.16043
G1 X96.69 Y86.987 E8.2066
G1 X96.993 Y86.811 E8.22291
G1 X97.398 Y86.591 E8.24438
G1 X98.164 Y86.195 E8.28453
G1 X98.424 Y86.065 E8.29806
G1 X98.569 Y85.995 E8.30556
G1 X98.935 Y85.827 E8.32431
G1 X99.796 Y85.451 E8.36806
G1 X100.175 Y85.294 E8.38716
G1 X100.541 Y85.155 E8.40539
G1 X101.472 Y84.82 E8.45147
G1 X101.892 Y84.678 E8.47211
G1 X102.294 Y84.554 E8.4917
G1 X103.104 Y84.323 E8.53092
G1 X103.458 Y84.229 E8.54798
G1 X103.595 Y84.195 E8.55455
G1 X103.901 Y84.124 E8.56918
G1 X104.823 Y83.924 E8.61311
G1 X105.15 Y83.858 E8.62864
G1 X105.302 Y83.83 E8.63584
G1 X105.675 Y83.768 E8.65344
G1 X106.563 Y83.637 E8.69524
G1 X106.922 Y83.591 E8.71209
G1 X107.055 Y83.576 E8.71833
G1 X107.388 Y83.544 E8.7339
G1 X108.315 Y83.469 E8.77721
G1 X108.672 Y83.446 E8.79387
G1 X108.842 Y83.438 E8.80179
G1 X109.184 Y83.427 E8.81772
G1 X110.066 Y83.414 E8.8588
G1 X110.513 Y83.416 E8.87961
G1 X110.905 Y83.429 E8.89788
G1 X111.823 Y83.476 E8.94068
G1 X112.252 Y83.507 E8.96071
G1 X112.616 Y83.544 E8.97774
G1 X113.603 Y83.661 E9.02402
G1 X113.92 Y83.703 E9.03891
G1 X114.054 Y83.723 E9.04522
G1 X114.427 Y83.786 E9.06284
G1 X115.309 Y83.95 E9.10461
G1 X115.687 Y84.027 E9.12257
G1 X115.821 Y84.057 E9.12897
G1 X116.124 Y84.13 E9.14348
G1 X117.034 Y84.362 E9.18721
G1 X117.452 Y84.477 E9.20739
G1 X117.82 Y84.59 E9.22532
G1 X118.712 Y84.883 E9.26904
G1 X119.093 Y85.016 E9.28783
G1 X119.485 Y85.164 E9.30734
G1 X120.351 Y85.512 E9.3508
G1 X120.682 Y85.652 E9.36753
G1 X120.802 Y85.705 E9.37364
G1 X121.123 Y85.853 E9.3901
G1 X121.965 Y86.259 E9.43363
G1 X122.366 Y86.462 E9.45456
G1 X122.662 Y86.624 E9.47027
G1 X123.491 Y87.093 E9.51462
G1 X123.789 Y87.268 E9.53071
G1 X123.935 Y87.357 E9.53867
G1 X124.224 Y87.54 E9.5546
G1 X124.948 Y88.014 E9.5949
G1 X125.272 Y88.234 E9.61313
G1 X125.606 Y88.477 E9.63237
G1 X126.421 Y89.092 E9.67991
G1 X126.695 Y89.305 E9.69607
G1 X127.051 Y89.6 E9.7176
G1 X127.721 Y90.18 E9.75886
G1 X127.999 Y90.429 E9.77624
G1 X128.301 Y90.715 E9.79561
G1 X129.033 Y91.438 E9.84351
G1 X129.339 Y91.752 E9.86393
G1 X129.602 Y92.039 E9.88206
G1 X130.181 Y92.693 E9.92273
G1 X130.398 Y92.947 E9.93829
G1 X130.496 Y93.065 E9.94543
G1 X130.715 Y93.336 E9.96165
G1 X131.295 Y94.083 E10.00569
G1 X131.551 Y94.426 E10.02562
G1 X131.769 Y94.738 E10.04334
G1 X132.31 Y95.541 E10.08843
G1 X132.559 Y95.928 E10.10986
G1 X132.741 Y96.23 E10.12627
G1 X133.207 Y97.032 E10.16946
G1 X133.369 Y97.32 E10.18485
G1 X133.584 Y97.728 E10.20633
G1 X134.008 Y98.58 E10.25064
G1 X134.2 Y98.988 E10.27164
G1 X134.349 Y99.328 E10.28892
G1 X134.796 Y100.407 E10.34331
G1 X134.826 Y100.483 E10.34711
G1 X134.999 Y100.954 E10.37047
G1 X135.31 Y101.866 E10.41534
G1 X135.414 Y102.189 E10.43114
G1 X135.458 Y102.333 E10.43815
G1 X135.56 Y102.689 E10.4554
G1 X135.79 Y103.548 E10.49681
G1 X135.904 Y104.014 E10.51914
G1 X135.963 Y104.288 E10.5322
G1 X136.164 Y105.292 E10.57987
G1 X136.24 Y105.715 E10.59989
G1 X136.297 Y106.096 E10.61782
G1 X136.415 Y106.996 E10.66009
G1 X136.46 Y107.4 E10.67902
G1 X136.495 Y107.82 E10.69864
G1 X136.554 Y108.733 E10.74125
G1 X136.57 Y109.058 E10.7564
G1 X136.576 Y109.235 E10.76464
G1 X136.582 Y109.606 E10.78192
G1 X136.581 Y110.504 E10.82374
G1 X136.573 Y110.91 E10.84264
G1 X136.554 Y111.276 E10.85971
G1 X136.481 Y112.341 E10.90942
G1 X136.439 Y112.805 E10.93111
G1 X136.401 Y113.125 E10.94612
G1 X136.286 Y113.974 E10.98601
G1 X136.235 Y114.311 E11.00188
G1 X136.203 Y114.501 E11.01085
G1 X136.14 Y114.84 E11.02691
G1 X135.958 Y115.741 E11.06971
G1 X135.873 Y116.127 E11.08811
G1 X135.839 Y116.268 E11.09487
G1 X135.763 Y116.564 E11.1091
G1 X135.533 Y117.41 E11.14992
G1 X135.401 Y117.858 E11.17167
G1 X135.297 Y118.177 E11.18729
G1 X134.972 Y119.121 E11.23378
G1 X134.806 Y119.57 E11.25607
G1 X134.673 Y119.9 E11.27264
G1 X134.312 Y120.755 E11.31585
G1 X134.162 Y121.096 E11.3332
G1 X133.967 Y121.506 E11.35434
G1 X133.546 Y122.343 E11.39797
G1 X133.336 Y122.74 E11.41888
G1 X133.14 Y123.088 E11.43748
G1 X132.688 Y123.855 E11.47893
G1 X132.522 Y124.127 E11.49377
G1 X132.423 Y124.284 E11.50241
G1 X132.222 Y124.591 E11.5195
G1 X131.731 Y125.313 E11.56016
G1 X131.523 Y125.608 E11.57697
G1 X131.436 Y125.727 E11.58383
G1 X131.23 Y126 E11.59975
G1 X130.646 Y126.747 E11.64391
G1 X130.44 Y127.002 E11.65917
G1 X130.15 Y127.34 E11.67991
G1 X129.49 Y128.078 E11.72601
G1 X129.186 Y128.404 E11.74677
G1 X128.935 Y128.658 E11.76339
G1 X128.255 Y129.323 E11.80768
G1 X128.033 Y129.535 E11.82198
G1 X127.666 Y129.864 E11.84493
G1 X126.84 Y130.57 E11.89552
G1 X126.304 Y130.999 E11.92749
G1 X125.573 Y131.546 E11.97
G1 X125.178 Y131.828 E11.9926
G1 X124.93 Y131.995 E12.00653
G1 X124.075 Y132.552 E12.05404
G1 X123.703 Y132.783 E12.07443
G1 X123.365 Y132.98 E12.09265
G1 X122.595 Y133.411 E12.13374
G1 X122.221 Y133.611 E12.15349
G1 X121.867 Y133.788 E12.17192
G1 X121.002 Y134.2 E12.21653
G1 X120.607 Y134.379 E12.23672
G1 X120.25 Y134.529 E12.25475
G1 X119.407 Y134.864 E12.29699
G1 X119.094 Y134.982 E12.31257
G1 X118.939 Y135.038 E12.32024
G1 X118.602 Y135.154 E12.33684
G1 X117.731 Y135.436 E12.37947
G1 X117.28 Y135.571 E12.40139
G1 X116.916 Y135.668 E12.41893
G1 X116.062 Y135.883 E12.45994
G1 X115.719 Y135.964 E12.47635
G1 X115.599 Y135.99 E12.48207
G1 X115.26 Y136.057 E12.49816
G1 X114.281 Y136.236 E12.5445
G1 X113.887 Y136.301 E12.56309
G1 X113.457 Y136.358 E12.58329
G1 X112.579 Y136.458 E12.62444
G1 X112.213 Y136.493 E12.64156
G1 X112.023 Y136.508 E12.65043
G1 X111.701 Y136.529 E12.66546
G1 X110.811 Y136.572 E12.70695
G1 X110.384 Y136.584 E12.72684
