;FLAVOR:Marlin
;TIME:458
;Filament used: 0.380152m
;Layer height: 0.28
;MINX:91.515
;MINY:91.515
;MINZ:0.28
;MAXX:128.485
;MAXY:128.485
;MAXZ:9.8
;Generated with Cura_SteamEngine 4.8.0
M140 S50
M105
M190 S50
M104 S200
M105
M109 S200
M82 ;absolute extrusion mode
M201 X500.00 Y500.00 Z100.00 E5000.00 ;Setup machine max acceleration
M203 X500.00 Y500.00 Z10.00 E50.00 ;Setup machine max feedrate
M204 P500.00 R1000.00 T500.00 ;Setup Print/Retract/Travel acceleration
M205 X8.00 Y8.00 Z0.40 E5.00 ;Setup Jerk
M220 S100 ;Reset Feedrate
M221 S100 ;Reset Flowrate

G28 ;Home

G92 E0 ;Reset Extruder
G1 Z2.0 F3000 ;Move Z Axis up
G1 X10.1 Y20 Z0.28 F5000.0 ;Move to start position
G1 X10.1 Y200.0 Z0.28 F1500.0 E15 ;Draw the first line
G1 X10.4 Y200.0 Z0.28 F5000.0 ;Move to side a little
G1 X10.4 Y20 Z0.28 F1500.0 E30 ;Draw the second line
G92 E0 ;Reset Extruder
G1 Z2.0 F3000 ;Move Z Axis up

G92 E0
G92 E0
G1 F2700 E-5
;LAYER_COUNT:35
;LAYER:0
M107
G0 F6000 X96.929 Y96.927 Z0.28
;TYPE:SKIRT
G1 F2700 E0
G1 F1200 X97.405 Y96.467 E0.03082
G1 X97.681 Y96.216 E0.04819
G1 X98.174 Y95.794 E0.07841
G1 X98.635 Y95.422 E0.106
G1 X99.233 Y94.972 E0.14084
G1 X99.54 Y94.757 E0.1583
G1 X100.125 Y94.374 E0.19086
G1 X100.609 Y94.079 E0.21725
G1 X101.178 Y93.755 E0.24774
G1 X101.504 Y93.582 E0.26492
G1 X102.118 Y93.28 E0.29678
G1 X102.632 Y93.047 E0.32306
G1 X103.269 Y92.783 E0.35517
G1 X103.585 Y92.663 E0.37091
G1 X104.255 Y92.432 E0.40391
G1 X104.879 Y92.24 E0.43431
G1 X105.528 Y92.062 E0.46565
G1 X105.834 Y91.988 E0.48031
G1 X106.521 Y91.845 E0.51298
G1 X107.063 Y91.75 E0.5386
G1 X107.755 Y91.651 E0.57115
G1 X108.217 Y91.6 E0.5928
G1 X108.907 Y91.546 E0.62503
G1 X109.332 Y91.526 E0.64484
G1 X110.004 Y91.515 E0.67613
G1 X110.501 Y91.522 E0.69928
G1 X111.2 Y91.554 E0.73186
G1 X111.688 Y91.592 E0.75465
G1 X112.368 Y91.666 E0.7865
G1 X112.787 Y91.725 E0.80621
G1 X113.49 Y91.848 E0.83944
G1 X114.058 Y91.966 E0.86645
G1 X114.74 Y92.13 E0.89911
G1 X115.027 Y92.209 E0.91297
G1 X115.653 Y92.402 E0.94348
G1 X116.267 Y92.611 E0.97368
G1 X116.96 Y92.873 E1.00818
G1 X117.245 Y92.992 E1.02256
G1 X117.841 Y93.262 E1.05302
G1 X118.397 Y93.534 E1.08185
G1 X119.014 Y93.86 E1.11434
G1 X119.319 Y94.034 E1.13069
G1 X119.904 Y94.393 E1.16265
G1 X120.358 Y94.691 E1.18794
G1 X120.89 Y95.063 E1.21817
G1 X121.203 Y95.296 E1.23634
G1 X121.764 Y95.743 E1.26974
G1 X122.207 Y96.12 E1.29682
G1 X122.756 Y96.62 E1.3314
G1 X123.073 Y96.929 E1.35201
G1 X123.533 Y97.405 E1.38284
G1 X123.784 Y97.681 E1.40021
G1 X124.226 Y98.199 E1.43191
G1 X124.595 Y98.659 E1.45937
G1 X124.994 Y99.187 E1.49019
G1 X125.212 Y99.495 E1.50776
G1 X125.619 Y100.113 E1.54222
G1 X125.913 Y100.594 E1.56847
G1 X126.251 Y101.188 E1.60029
G1 X126.425 Y101.517 E1.61762
G1 X126.72 Y102.118 E1.6488
G1 X126.953 Y102.632 E1.67507
G1 X127.213 Y103.258 E1.70664
G1 X127.333 Y103.573 E1.72233
G1 X127.568 Y104.254 E1.75588
G1 X127.76 Y104.878 E1.78628
G1 X127.94 Y105.535 E1.818
G1 X128.014 Y105.842 E1.8327
G1 X128.154 Y106.518 E1.86485
G1 X128.249 Y107.059 E1.89043
G1 X128.349 Y107.754 E1.92312
G1 X128.4 Y108.216 E1.94476
G1 X128.454 Y108.906 E1.97699
G1 X128.474 Y109.331 E1.9968
G1 X128.485 Y110.003 E2.0281
G1 X128.478 Y110.5 E2.05124
G1 X128.446 Y111.197 E2.08373
G1 X128.408 Y111.686 E2.10657
G1 X128.334 Y112.368 E2.13852
G1 X128.275 Y112.787 E2.15822
G1 X128.152 Y113.49 E2.19145
G1 X128.034 Y114.058 E2.21846
G1 X127.87 Y114.74 E2.25113
G1 X127.791 Y115.027 E2.26499
G1 X127.6 Y115.648 E2.29524
G1 X127.392 Y116.26 E2.32534
G1 X127.126 Y116.963 E2.36034
G1 X127.006 Y117.25 E2.37482
G1 X126.738 Y117.841 E2.40504
G1 X126.466 Y118.397 E2.43386
G1 X126.14 Y119.014 E2.46635
G1 X125.966 Y119.319 E2.48271
G1 X125.61 Y119.899 E2.51439
G1 X125.313 Y120.352 E2.53962
G1 X124.931 Y120.899 E2.57068
G1 X124.696 Y121.214 E2.58898
G1 X124.258 Y121.763 E2.62169
G1 X123.882 Y122.205 E2.64871
G1 X123.38 Y122.756 E2.68342
G1 X123.071 Y123.073 E2.70403
G1 X122.595 Y123.533 E2.73485
G1 X122.319 Y123.784 E2.75222
G1 X121.826 Y124.206 E2.78244
G1 X121.365 Y124.578 E2.81002
G1 X120.769 Y125.027 E2.84477
G1 X120.465 Y125.24 E2.86205
G1 X119.88 Y125.622 E2.89459
G1 X119.393 Y125.919 E2.92115
G1 X118.822 Y126.245 E2.95177
G1 X118.496 Y126.418 E2.96895
G1 X117.882 Y126.72 E3.00081
G1 X117.368 Y126.953 E3.02709
G1 X116.731 Y127.217 E3.0592
G1 X116.415 Y127.337 E3.07494
G1 X115.745 Y127.568 E3.10794
G1 X115.121 Y127.76 E3.13834
G1 X114.472 Y127.938 E3.16967
G1 X114.166 Y128.012 E3.18433
G1 X113.479 Y128.155 E3.21701
G1 X112.937 Y128.25 E3.24263
G1 X112.245 Y128.349 E3.27518
G1 X111.783 Y128.4 E3.29683
G1 X111.093 Y128.454 E3.32905
G1 X110.668 Y128.474 E3.34886
G1 X109.996 Y128.485 E3.38016
G1 X109.499 Y128.478 E3.4033
G1 X108.8 Y128.446 E3.43589
G1 X108.312 Y128.408 E3.45868
G1 X107.632 Y128.334 E3.49053
G1 X107.213 Y128.275 E3.51023
G1 X106.51 Y128.152 E3.54346
G1 X105.942 Y128.034 E3.57048
G1 X105.26 Y127.87 E3.60314
G1 X104.973 Y127.791 E3.617
G1 X104.348 Y127.598 E3.64746
G1 X103.731 Y127.388 E3.67781
G1 X103.029 Y127.122 E3.71276
G1 X102.747 Y127.004 E3.727
G1 X102.159 Y126.738 E3.75705
G1 X101.603 Y126.466 E3.78587
G1 X100.99 Y126.141 E3.81818
G1 X100.683 Y125.966 E3.83463
G1 X100.089 Y125.603 E3.86705
G1 X99.637 Y125.306 E3.89223
G1 X99.1 Y124.93 E3.92276
G1 X98.785 Y124.695 E3.94106
G1 X98.236 Y124.257 E3.97376
G1 X97.794 Y123.881 E4.00078
G1 X97.243 Y123.379 E4.03549
G1 X96.926 Y123.07 E4.0561
G1 X96.465 Y122.592 E4.08703
G1 X96.215 Y122.317 E4.10433
G1 X95.794 Y121.826 E4.13445
G1 X95.422 Y121.365 E4.16203
G1 X94.976 Y120.773 E4.19654
G1 X94.76 Y120.465 E4.21406
G1 X94.373 Y119.874 E4.24696
G1 X94.078 Y119.39 E4.27335
G1 X93.749 Y118.81 E4.3044
G1 X93.577 Y118.485 E4.32152
G1 X93.277 Y117.874 E4.35322
G1 X93.044 Y117.359 E4.37954
G1 X92.791 Y116.752 E4.41016
G1 X92.671 Y116.438 E4.42581
G1 X92.431 Y115.741 E4.46014
G1 X92.239 Y115.116 E4.49058
G1 X92.062 Y114.472 E4.52168
G1 X91.988 Y114.166 E4.53634
G1 X91.845 Y113.479 E4.56901
G1 X91.75 Y112.937 E4.59464
G1 X91.651 Y112.242 E4.62733
G1 X91.6 Y111.779 E4.64902
G1 X91.546 Y111.095 E4.68096
G1 X91.526 Y110.672 E4.70068
G1 X91.515 Y109.997 E4.73212
G1 X91.522 Y109.499 E4.75531
G1 X91.554 Y108.8 E4.78789
G1 X91.592 Y108.312 E4.81068
G1 X91.666 Y107.632 E4.84253
G1 X91.725 Y107.213 E4.86224
G1 X91.848 Y106.51 E4.89547
G1 X91.966 Y105.942 E4.92248
G1 X92.126 Y105.276 E4.95438
G1 X92.207 Y104.98 E4.96867
G1 X92.408 Y104.327 E5.00048
G1 X92.614 Y103.724 E5.03015
G1 X92.874 Y103.037 E5.06436
G1 X92.994 Y102.75 E5.07884
G1 X93.262 Y102.159 E5.10906
G1 X93.534 Y101.603 E5.13788
G1 X93.86 Y100.986 E5.17037
G1 X94.034 Y100.681 E5.18672
G1 X94.39 Y100.101 E5.21841
G1 X94.687 Y99.648 E5.24364
G1 X95.069 Y99.101 E5.2747
G1 X95.304 Y98.786 E5.293
G1 X95.742 Y98.237 E5.32571
G1 X96.118 Y97.795 E5.35273
G1 X96.62 Y97.244 E5.38743
G1 X96.929 Y96.927 E5.40805
G0 F6000 X97.216 Y97.206
G1 F1200 X97.674 Y96.763 E5.43772
G1 X97.95 Y96.512 E5.45509
G1 X98.425 Y96.105 E5.48422
G1 X98.886 Y95.733 E5.5118
G1 X99.462 Y95.299 E5.54538
G1 X99.769 Y95.084 E5.56283
G1 X100.333 Y94.716 E5.59419
G1 X100.817 Y94.421 E5.62059
G1 X101.365 Y94.109 E5.64995
G1 X101.691 Y93.936 E5.66713
G1 X102.284 Y93.645 E5.69789
G1 X102.798 Y93.412 E5.72417
G1 X103.411 Y93.156 E5.7551
G1 X103.727 Y93.036 E5.77084
G1 X104.373 Y92.815 E5.80263
G1 X104.997 Y92.623 E5.83303
G1 X105.622 Y92.451 E5.86322
G1 X105.928 Y92.377 E5.87788
G1 X106.59 Y92.239 E5.90937
G1 X107.132 Y92.144 E5.93499
G1 X107.799 Y92.049 E5.96636
G1 X108.261 Y91.998 E5.988
G1 X108.926 Y91.946 E6.01906
G1 X109.351 Y91.926 E6.03888
G1 X109.998 Y91.915 E6.06901
G1 X110.495 Y91.922 E6.09215
G1 X111.169 Y91.953 E6.12357
G1 X111.657 Y91.991 E6.14636
G1 X112.312 Y92.063 E6.17704
G1 X112.731 Y92.122 E6.19675
G1 X113.409 Y92.24 E6.22879
G1 X113.977 Y92.358 E6.25581
G1 X114.634 Y92.516 E6.28727
G1 X114.921 Y92.595 E6.30113
G1 X115.524 Y92.78 E6.3305
G1 X116.138 Y92.989 E6.3607
G1 X116.806 Y93.242 E6.39396
G1 X117.091 Y93.361 E6.40835
G1 X117.665 Y93.621 E6.43769
G1 X118.221 Y93.893 E6.46651
G1 X118.816 Y94.208 E6.49786
G1 X119.121 Y94.382 E6.51421
G1 X119.685 Y94.727 E6.54499
G1 X120.139 Y95.025 E6.57028
G1 X120.652 Y95.384 E6.59944
G1 X120.965 Y95.617 E6.61761
G1 X121.505 Y96.047 E6.64975
G1 X121.948 Y96.424 E6.67684
G1 X122.477 Y96.907 E6.71019
G1 X122.794 Y97.216 E6.7308
G1 X123.237 Y97.674 E6.76048
G1 X123.488 Y97.95 E6.77785
G1 X123.914 Y98.449 E6.8084
G1 X124.283 Y98.909 E6.83586
G1 X124.667 Y99.418 E6.86555
G1 X124.885 Y99.726 E6.88312
G1 X125.277 Y100.322 E6.91633
G1 X125.571 Y100.803 E6.94258
G1 X125.897 Y101.375 E6.97324
G1 X126.071 Y101.704 E6.99057
G1 X126.355 Y102.284 E7.02064
G1 X126.588 Y102.798 E7.04692
G1 X126.84 Y103.4 E7.07731
G1 X126.96 Y103.715 E7.093
G1 X127.185 Y104.372 E7.12534
G1 X127.377 Y104.996 E7.15574
G1 X127.551 Y105.629 E7.18631
G1 X127.625 Y105.936 E7.20102
G1 X127.76 Y106.587 E7.23197
G1 X127.855 Y107.128 E7.25755
G1 X127.951 Y107.798 E7.28907
G1 X128.002 Y108.26 E7.31071
G1 X128.054 Y108.925 E7.34177
G1 X128.074 Y109.35 E7.36158
G1 X128.085 Y109.997 E7.39171
G1 X128.078 Y110.494 E7.41486
G1 X128.047 Y111.166 E7.44618
G1 X128.009 Y111.655 E7.46902
G1 X127.937 Y112.312 E7.4998
G1 X127.878 Y112.731 E7.5195
G1 X127.76 Y113.409 E7.55154
G1 X127.642 Y113.977 E7.57856
G1 X127.484 Y114.634 E7.61002
G1 X127.405 Y114.921 E7.62388
G1 X127.221 Y115.519 E7.65302
G1 X127.013 Y116.131 E7.68312
G1 X126.757 Y116.809 E7.71686
G1 X126.637 Y117.096 E7.73135
G1 X126.379 Y117.665 E7.76044
G1 X126.107 Y118.221 E7.78926
G1 X125.792 Y118.816 E7.82061
G1 X125.618 Y119.121 E7.83696
G1 X125.276 Y119.68 E7.86747
G1 X124.979 Y120.133 E7.8927
G1 X124.61 Y120.659 E7.92262
G1 X124.375 Y120.974 E7.94091
G1 X123.953 Y121.504 E7.97246
G1 X123.577 Y121.946 E7.99948
G1 X123.093 Y122.477 E8.03294
G1 X122.784 Y122.794 E8.05355
G1 X122.326 Y123.237 E8.08322
G1 X122.05 Y123.488 E8.10059
G1 X121.575 Y123.895 E8.12972
G1 X121.114 Y124.267 E8.1573
G1 X120.54 Y124.699 E8.19075
G1 X120.236 Y124.912 E8.20804
G1 X119.672 Y125.281 E8.23942
G1 X119.185 Y125.578 E8.26598
G1 X118.635 Y125.891 E8.29545
G1 X118.309 Y126.064 E8.31264
G1 X117.716 Y126.355 E8.34339
G1 X117.202 Y126.588 E8.36967
G1 X116.589 Y126.844 E8.4006
G1 X116.273 Y126.964 E8.41634
G1 X115.627 Y127.185 E8.44814
G1 X115.003 Y127.377 E8.47854
G1 X114.378 Y127.549 E8.50872
G1 X114.072 Y127.623 E8.52338
G1 X113.41 Y127.761 E8.55487
G1 X112.868 Y127.856 E8.58049
G1 X112.201 Y127.951 E8.61186
G1 X111.739 Y128.002 E8.63351
G1 X111.074 Y128.054 E8.66457
G1 X110.649 Y128.074 E8.68438
G1 X110.002 Y128.085 E8.71451
G1 X109.505 Y128.078 E8.73765
G1 X108.831 Y128.047 E8.76907
G1 X108.343 Y128.009 E8.79186
G1 X107.688 Y127.937 E8.82255
G1 X107.269 Y127.878 E8.84225
G1 X106.591 Y127.76 E8.87429
G1 X106.023 Y127.642 E8.90131
G1 X105.366 Y127.484 E8.93277
G1 X105.079 Y127.405 E8.94663
G1 X104.477 Y127.22 E8.97596
G1 X103.86 Y127.01 E9.00631
G1 X103.183 Y126.753 E9.04003
G1 X102.901 Y126.635 E9.05426
G1 X102.335 Y126.379 E9.08319
G1 X101.779 Y126.107 E9.11201
G1 X101.188 Y125.794 E9.14315
G1 X100.881 Y125.619 E9.1596
G1 X100.309 Y125.269 E9.19083
G1 X99.857 Y124.972 E9.21601
G1 X99.34 Y124.609 E9.24543
G1 X99.025 Y124.374 E9.26373
G1 X98.495 Y123.952 E9.29527
G1 X98.053 Y123.576 E9.3223
G1 X97.522 Y123.092 E9.35575
G1 X97.205 Y122.783 E9.37636
G1 X96.761 Y122.323 E9.40613
G1 X96.511 Y122.048 E9.42344
G1 X96.105 Y121.575 E9.45247
G1 X95.733 Y121.114 E9.48005
G1 X95.303 Y120.543 E9.51333
G1 X95.087 Y120.235 E9.53085
G1 X94.715 Y119.666 E9.5625
G1 X94.42 Y119.182 E9.5889
G1 X94.102 Y118.623 E9.61884
G1 X93.93 Y118.298 E9.63597
G1 X93.641 Y117.709 E9.66652
G1 X93.408 Y117.194 E9.69284
G1 X93.164 Y116.609 E9.72235
G1 X93.044 Y116.295 E9.738
G1 X92.813 Y115.624 E9.77105
G1 X92.621 Y114.999 E9.80149
G1 X92.451 Y114.378 E9.83147
G1 X92.377 Y114.072 E9.84613
G1 X92.239 Y113.41 E9.87762
G1 X92.144 Y112.868 E9.90324
G1 X92.049 Y112.199 E9.93471
G1 X91.998 Y111.736 E9.9564
G1 X91.946 Y111.076 E9.98722
G1 X91.926 Y110.653 E10.00694
G1 X91.915 Y110.003 E10.03721
G1 X91.922 Y109.505 E10.06041
G1 X91.953 Y108.831 E10.09182
G1 X91.991 Y108.343 E10.11462
G1 X92.063 Y107.688 E10.1453
G1 X92.122 Y107.269 E10.165
G1 X92.24 Y106.591 E10.19705
G1 X92.358 Y106.023 E10.22406
G1 X92.512 Y105.381 E10.2548
G1 X92.593 Y105.085 E10.26909
G1 X92.786 Y104.456 E10.29973
G1 X92.992 Y103.853 E10.3294
G1 X93.243 Y103.191 E10.36237
G1 X93.363 Y102.904 E10.37685
G1 X93.621 Y102.335 E10.40594
G1 X93.893 Y101.779 E10.43476
G1 X94.208 Y101.184 E10.46611
G1 X94.382 Y100.879 E10.48246
G1 X94.724 Y100.32 E10.51298
G1 X95.021 Y99.867 E10.5382
G1 X95.39 Y99.341 E10.56812
G1 X95.625 Y99.026 E10.58642
G1 X96.047 Y98.496 E10.61797
G1 X96.423 Y98.054 E10.64499
G1 X96.907 Y97.523 E10.67844
G1 X97.216 Y97.206 E10.69906
G0 F6000 X97.502 Y97.485
G1 F1200 X97.943 Y97.059 E10.72761
G1 X98.219 Y96.808 E10.74498
G1 X98.677 Y96.416 E10.77305
G1 X99.138 Y96.044 E10.80063
G1 X99.692 Y95.627 E10.83292
G1 X99.999 Y95.412 E10.85037
G1 X100.541 Y95.057 E10.88054
G1 X101.025 Y94.762 E10.90694
G1 X101.553 Y94.462 E10.93521
G1 X101.879 Y94.289 E10.9524
G1 X102.449 Y94.009 E10.98197
G1 X102.963 Y93.776 E11.00825
G1 X103.553 Y93.53 E11.03801
G1 X103.869 Y93.41 E11.05375
G1 X104.49 Y93.197 E11.08432
G1 X105.114 Y93.005 E11.11472
G1 X105.716 Y92.84 E11.14379
G1 X106.022 Y92.766 E11.15845
G1 X106.659 Y92.633 E11.18875
G1 X107.201 Y92.538 E11.21437
G1 X107.843 Y92.447 E11.24456
G1 X108.305 Y92.396 E11.26621
G1 X108.945 Y92.345 E11.2961
G1 X109.37 Y92.325 E11.31591
G1 X109.993 Y92.315 E11.34493
G1 X110.49 Y92.322 E11.36807
G1 X111.138 Y92.352 E11.39828
G1 X111.626 Y92.39 E11.42107
G1 X112.256 Y92.459 E11.45058
G1 X112.675 Y92.518 E11.47028
G1 X113.328 Y92.631 E11.50114
G1 X113.896 Y92.749 E11.52816
G1 X114.528 Y92.902 E11.55843
G1 X114.815 Y92.981 E11.5723
G1 X115.395 Y93.159 E11.60055
G1 X116.009 Y93.368 E11.63075
G1 X116.652 Y93.612 E11.66277
G1 X116.937 Y93.731 E11.67715
G1 X117.489 Y93.981 E11.70537
G1 X118.045 Y94.253 E11.73419
G1 X118.617 Y94.555 E11.76431
G1 X118.922 Y94.729 E11.78066
G1 X119.465 Y95.062 E11.81032
G1 X119.919 Y95.36 E11.83561
G1 X120.413 Y95.705 E11.86367
G1 X120.726 Y95.938 E11.88183
G1 X121.246 Y96.352 E11.91278
G1 X121.689 Y96.729 E11.93987
G1 X122.198 Y97.193 E11.97194
G1 X122.515 Y97.502 E11.99256
G1 X122.941 Y97.943 E12.02111
G1 X123.192 Y98.219 E12.03848
G1 X123.602 Y98.7 E12.06791
G1 X123.971 Y99.16 E12.09537
G1 X124.341 Y99.649 E12.12392
G1 X124.559 Y99.957 E12.14149
G1 X124.936 Y100.53 E12.17343
G1 X125.23 Y101.011 E12.19968
G1 X125.544 Y101.562 E12.22921
G1 X125.718 Y101.891 E12.24654
G1 X125.991 Y102.449 E12.27547
G1 X126.224 Y102.963 E12.30174
G1 X126.466 Y103.543 E12.33101
G1 X126.586 Y103.858 E12.3467
G1 X126.803 Y104.489 E12.37778
G1 X126.995 Y105.113 E12.40818
G1 X127.162 Y105.723 E12.43763
G1 X127.236 Y106.03 E12.45233
G1 X127.366 Y106.656 E12.4821
G1 X127.461 Y107.197 E12.50768
G1 X127.553 Y107.842 E12.53802
G1 X127.604 Y108.304 E12.55966
G1 X127.655 Y108.944 E12.58955
G1 X127.675 Y109.369 E12.60937
G1 X127.685 Y109.992 E12.63838
G1 X127.678 Y110.489 E12.66152
G1 X127.648 Y111.135 E12.69164
G1 X127.61 Y111.624 E12.71448
G1 X127.541 Y112.256 E12.74408
G1 X127.482 Y112.675 E12.76378
G1 X127.369 Y113.328 E12.79464
G1 X127.251 Y113.896 E12.82165
G1 X127.098 Y114.528 E12.85193
G1 X127.019 Y114.815 E12.86579
G1 X126.842 Y115.39 E12.89381
G1 X126.634 Y116.002 E12.92391
G1 X126.388 Y116.655 E12.9564
G1 X126.268 Y116.942 E12.97088
G1 X126.019 Y117.489 E12.99887
G1 X125.747 Y118.045 E13.02769
G1 X125.445 Y118.617 E13.05781
G1 X125.271 Y118.922 E13.07416
G1 X124.941 Y119.461 E13.10359
G1 X124.644 Y119.914 E13.12881
G1 X124.29 Y120.42 E13.15757
G1 X124.055 Y120.735 E13.17587
G1 X123.648 Y121.245 E13.20625
G1 X123.272 Y121.687 E13.23327
G1 X122.807 Y122.198 E13.26544
G1 X122.498 Y122.515 E13.28605
G1 X122.057 Y122.941 E13.31461
G1 X121.781 Y123.192 E13.33198
G1 X121.323 Y123.584 E13.36005
G1 X120.862 Y123.956 E13.38763
G1 X120.31 Y124.372 E13.41982
G1 X120.006 Y124.585 E13.4371
G1 X119.464 Y124.939 E13.46724
G1 X118.977 Y125.236 E13.49381
G1 X118.447 Y125.538 E13.52221
