;FLAVOR:Marlin
;TIME:365
;Filament used: 0.324936m
;Layer height: 0.28
;MINX:63.86
;MINY:97.5
;MINZ:0.28
;MAXX:156.14
;MAXY:122.5
;MAXZ:3.92
;Generated with Cura_SteamEngine 4.8.0
M140 S50
M105
M190 S50
M104 S200
M105
M109 S200
M82 ;absolute extrusion mode
M201 X500.00 Y500.00 Z100.00 E5000.00 ;Setup machine max acceleration
M203 X500.00 Y500.00 Z10.00 E50.00 ;Setup machine max feedrate
M204 P500.00 R1000.00 T500.00 ;Setup Print/Retract/Travel acceleration
M205 X8.00 Y8.00 Z0.40 E5.00 ;Setup Jerk
M220 S100 ;Reset Feedrate
M221 S100 ;Reset Flowrate

G28 ;Home

G92 E0 ;Reset Extruder
G1 Z2.0 F3000 ;Move Z Axis up
G1 X10.1 Y20 Z0.28 F5000.0 ;Move to start position
G1 X10.1 Y200.0 Z0.28 F1500.0 E15 ;Draw the first line
G1 X10.4 Y200.0 Z0.28 F5000.0 ;Move to side a little
G1 X10.4 Y20 Z0.28 F1500.0 E30 ;Draw the second line
G92 E0 ;Reset Extruder
G1 Z2.0 F3000 ;Move Z Axis up

G92 E0
G92 E0
G1 F2700 E-5
;LAYER_COUNT:14
;LAYER:0
M107
G0 F6000 X68.474 Y99.559 Z0.28
;TYPE:SKIRT
G1 F2700 E0
G1 F1200 X69.259 Y99.047 E0.04364
G1 X70.086 Y98.603 E0.08735
G1 X70.947 Y98.232 E0.131
G1 X71.837 Y97.936 E0.17468
G1 X72.749 Y97.716 E0.21836
G1 X73.676 Y97.575 E0.26202
G1 X74.526 Y97.515 E0.3017
G1 X74.848 Y97.505 E0.3167
G1 X75.189 Y97.5 E0.33258
G1 X144.433 Y97.5 E3.55687
G1 X145.289 Y97.511 E3.59674
G1 X146.225 Y97.565 E3.64039
G1 X147.153 Y97.697 E3.68404
G1 X148.067 Y97.909 E3.72773
G1 X148.959 Y98.198 E3.77139
G1 X149.824 Y98.561 E3.81507
G1 X150.654 Y98.997 E3.85873
G1 X151.445 Y99.502 E3.90242
G1 X152.189 Y100.073 E3.9461
G1 X152.882 Y100.705 E3.98977
G1 X153.519 Y101.393 E4.03343
G1 X154.094 Y102.134 E4.0771
G1 X154.605 Y102.92 E4.12076
G1 X155.047 Y103.748 E4.16446
G1 X155.416 Y104.61 E4.20812
G1 X155.711 Y105.5 E4.25178
G1 X155.929 Y106.412 E4.29544
G1 X156.069 Y107.34 E4.33914
G1 X156.127 Y108.201 E4.37933
G1 X156.136 Y108.521 E4.39423
G1 X156.14 Y108.824 E4.40834
G1 X156.14 Y110.902 E4.5051
G1 X156.132 Y111.614 E4.53826
G1 X156.082 Y112.55 E4.58191
G1 X155.952 Y113.479 E4.62559
G1 X155.743 Y114.393 E4.66924
G1 X155.457 Y115.286 E4.71291
G1 X155.096 Y116.152 E4.75659
G1 X154.663 Y116.984 E4.80027
G1 X154.16 Y117.776 E4.84396
G1 X153.592 Y118.522 E4.88762
G1 X152.962 Y119.217 E4.93129
G1 X152.276 Y119.856 E4.97495
G1 X151.537 Y120.434 E5.01863
G1 X150.752 Y120.947 E5.0623
G1 X149.926 Y121.391 E5.10597
G1 X149.065 Y121.763 E5.14964
G1 X148.176 Y122.061 E5.1933
G1 X147.264 Y122.282 E5.237
G1 X146.337 Y122.424 E5.28066
G1 X145.474 Y122.485 E5.32095
G1 X145.152 Y122.495 E5.33595
G1 X144.811 Y122.5 E5.35183
G1 X75.425 Y122.499 E8.58273
G1 X74.727 Y122.49 E8.61524
G1 X73.791 Y122.438 E8.65889
G1 X72.862 Y122.306 E8.70258
G1 X71.948 Y122.096 E8.74625
G1 X71.055 Y121.809 E8.78993
G1 X70.19 Y121.446 E8.83361
G1 X69.359 Y121.012 E8.87726
G1 X68.568 Y120.508 E8.92094
G1 X67.823 Y119.938 E8.96462
G1 X67.129 Y119.307 E9.00829
G1 X66.492 Y118.62 E9.05192
G1 X65.915 Y117.88 E9.09561
G1 X65.403 Y117.094 E9.13929
G1 X64.96 Y116.267 E9.18298
G1 X64.589 Y115.406 E9.22663
G1 X64.293 Y114.516 E9.2703
G1 X64.074 Y113.604 E9.31398
G1 X63.933 Y112.677 E9.35764
G1 X63.872 Y111.768 E9.40006
G1 X63.863 Y111.411 E9.41669
G1 X63.86 Y111.14 E9.42931
G1 X63.86 Y109.017 E9.52817
G1 X63.868 Y108.373 E9.55816
G1 X63.919 Y107.437 E9.6018
G1 X64.051 Y106.508 E9.6455
G1 X64.26 Y105.594 E9.68916
G1 X64.547 Y104.701 E9.73283
G1 X64.909 Y103.836 E9.77649
G1 X65.344 Y103.005 E9.82017
G1 X65.847 Y102.214 E9.86382
G1 X66.416 Y101.468 E9.90751
G1 X67.047 Y100.774 E9.95118
G1 X67.734 Y100.136 E9.99484
G1 X68.474 Y99.559 E10.03853
G0 F6000 X68.858 Y99.778
G1 F1200 X69.639 Y99.289 E10.08144
G1 X70.459 Y98.87 E10.12432
G1 X71.312 Y98.524 E10.16718
G1 X72.192 Y98.253 E10.21006
G1 X73.092 Y98.06 E10.25292
G1 X74.005 Y97.945 E10.29577
G1 X74.538 Y97.915 E10.32062
G1 X74.86 Y97.905 E10.33563
G1 X75.189 Y97.9 E10.35095
G1 X144.433 Y97.9 E13.57524
G1 X145.283 Y97.911 E13.61482
G1 X146.202 Y97.964 E13.65768
G1 X147.113 Y98.097 E13.70055
G1 X148.009 Y98.308 E13.74342
G1 X148.883 Y98.596 E13.78627
G1 X149.73 Y98.959 E13.82918
G1 X150.541 Y99.394 E13.87203
G1 X151.311 Y99.898 E13.91488
G1 X152.035 Y100.467 E13.95776
G1 X152.707 Y101.097 E14.00065
G1 X153.322 Y101.782 E14.04352
G1 X153.875 Y102.518 E14.08638
G1 X154.362 Y103.299 E14.12924
G1 X154.779 Y104.12 E14.17212
G1 X155.124 Y104.974 E14.21501
G1 X155.393 Y105.854 E14.25785
G1 X155.585 Y106.755 E14.30075
G1 X155.698 Y107.668 E14.34359
G1 X155.727 Y108.212 E14.36896
G1 X155.736 Y108.532 E14.38386
G1 X155.74 Y108.825 E14.39751
G1 X155.74 Y110.897 E14.49399
G1 X155.732 Y111.609 E14.52714
G1 X155.682 Y112.528 E14.57
G1 X155.552 Y113.44 E14.61289
G1 X155.344 Y114.337 E14.65577
G1 X155.058 Y115.212 E14.69864
G1 X154.698 Y116.059 E14.74149
G1 X154.265 Y116.872 E14.78438
G1 X153.764 Y117.644 E14.82724
G1 X153.197 Y118.37 E14.87013
G1 X152.57 Y119.043 E14.91296
G1 X151.886 Y119.66 E14.95585
G1 X151.152 Y120.215 E14.9987
G1 X150.372 Y120.705 E15.04159
G1 X149.553 Y121.125 E15.08445
G1 X148.7 Y121.472 E15.12733
G1 X147.821 Y121.744 E15.17018
G1 X146.921 Y121.938 E15.21305
G1 X146.007 Y122.054 E15.25595
G1 X145.462 Y122.085 E15.28137
G1 X145.14 Y122.095 E15.29637
G1 X144.811 Y122.1 E15.31169
G1 X75.43 Y122.099 E18.54236
G1 X74.732 Y122.09 E18.57486
G1 X73.813 Y122.038 E18.61772
G1 X72.902 Y121.907 E18.66058
G1 X72.006 Y121.697 E18.70343
G1 X71.131 Y121.41 E18.74631
G1 X70.284 Y121.048 E18.7892
G1 X69.472 Y120.614 E18.83207
G1 X68.701 Y120.112 E18.87492
G1 X67.976 Y119.544 E18.9178
G1 X67.303 Y118.915 E18.96069
G1 X66.688 Y118.231 E19.00353
G1 X66.134 Y117.496 E19.04638
G1 X65.646 Y116.715 E19.08927
G1 X65.227 Y115.895 E19.13214
G1 X64.881 Y115.042 E19.17501
G1 X64.611 Y114.162 E19.21787
G1 X64.418 Y113.261 E19.26077
G1 X64.304 Y112.348 E19.30362
G1 X64.272 Y111.758 E19.33113
G1 X64.263 Y111.401 E19.34776
G1 X64.26 Y111.139 E19.35996
G1 X64.26 Y109.022 E19.45854
G1 X64.268 Y108.378 E19.48853
G1 X64.319 Y107.459 E19.53138
G1 X64.45 Y106.548 E19.57424
G1 X64.66 Y105.651 E19.61714
G1 X64.946 Y104.776 E19.66
G1 X65.308 Y103.93 E19.70285
G1 X65.741 Y103.117 E19.74574
G1 X66.244 Y102.346 E19.78861
G1 X66.811 Y101.621 E19.83147
G1 X67.439 Y100.948 E19.87433
G1 X68.123 Y100.332 E19.91719
G1 X68.858 Y99.778 E19.96005
G0 F6000 X69.242 Y100.001
G1 F1200 X70.017 Y99.537 E20.00211
G1 X70.829 Y99.143 E20.04413
G1 X71.674 Y98.823 E20.08621
G1 X72.543 Y98.578 E20.12825
G1 X73.431 Y98.412 E20.17032
G1 X74.55 Y98.315 E20.22262
G1 X74.872 Y98.305 E20.23762
G1 X75.189 Y98.3 E20.25238
G1 X144.433 Y98.3 E23.47667
G1 X145.277 Y98.311 E23.51597
G1 X146.179 Y98.364 E23.55805
G1 X147.072 Y98.496 E23.60008
G1 X147.95 Y98.707 E23.64213
G1 X148.806 Y98.995 E23.68418
G1 X149.633 Y99.357 E23.72622
G1 X150.425 Y99.792 E23.76829
G1 X151.176 Y100.294 E23.81036
G1 X151.879 Y100.861 E23.85241
G1 X152.529 Y101.488 E23.89446
G1 X153.121 Y102.17 E23.93652
G1 X153.651 Y102.901 E23.97856
G1 X154.113 Y103.677 E24.02061
G1 X154.506 Y104.49 E24.06266
G1 X154.824 Y105.335 E24.1047
G1 X155.067 Y106.205 E24.14676
G1 X155.232 Y107.093 E24.18882
G1 X155.327 Y108.223 E24.24162
G1 X155.336 Y108.543 E24.25653
G1 X155.34 Y108.825 E24.26966
G1 X155.34 Y110.893 E24.36596
G1 X155.332 Y111.605 E24.39911
G1 X155.282 Y112.506 E24.44113
G1 X155.153 Y113.4 E24.48319
G1 X154.944 Y114.279 E24.52526
G1 X154.659 Y115.136 E24.56732
G1 X154.299 Y115.964 E24.60936
G1 X153.868 Y116.757 E24.65138
G1 X153.368 Y117.509 E24.69343
G1 X152.803 Y118.214 E24.7355
G1 X152.178 Y118.866 E24.77756
G1 X151.498 Y119.46 E24.8196
G1 X150.768 Y119.992 E24.86166
G1 X149.994 Y120.457 E24.90371
G1 X149.182 Y120.852 E24.94575
G1 X148.338 Y121.173 E24.9878
G1 X147.469 Y121.419 E25.02986
G1 X146.581 Y121.587 E25.07194
G1 X145.45 Y121.685 E25.1248
G1 X145.128 Y121.695 E25.1398
G1 X144.811 Y121.7 E25.15456
G1 X75.435 Y121.699 E28.385
G1 X74.737 Y121.69 E28.4175
G1 X73.836 Y121.639 E28.45953
G1 X72.942 Y121.507 E28.50161
G1 X72.064 Y121.298 E28.54363
G1 X71.207 Y121.011 E28.58572
G1 X70.38 Y120.65 E28.62773
G1 X69.587 Y120.217 E28.6698
G1 X68.836 Y119.716 E28.71184
G1 X68.132 Y119.15 E28.7539
G1 X67.481 Y118.524 E28.79596
G1 X66.888 Y117.843 E28.838
G1 X66.358 Y117.112 E28.88005
G1 X65.894 Y116.337 E28.92211
G1 X65.5 Y115.524 E28.96418
G1 X65.18 Y114.68 E29.00621
G1 X64.936 Y113.81 E29.04828
G1 X64.77 Y112.922 E29.09035
G1 X64.672 Y111.748 E29.1452
G1 X64.663 Y111.391 E29.16183
G1 X64.66 Y111.139 E29.17357
G1 X64.66 Y109.027 E29.27191
G1 X64.668 Y108.383 E29.3019
G1 X64.719 Y107.482 E29.34392
G1 X64.85 Y106.588 E29.38599
G1 X65.059 Y105.71 E29.42802
G1 X65.345 Y104.853 E29.47009
G1 X65.706 Y104.025 E29.51215
G1 X66.139 Y103.232 E29.55422
G1 X66.64 Y102.481 E29.59626
G1 X67.205 Y101.777 E29.63829
G1 X67.831 Y101.126 E29.68034
G1 X68.511 Y100.532 E29.72239
G1 X69.242 Y100.001 E29.76446
G1 F2700 E24.76446
;MESH:Grip railing.stl
G0 F6000 X75.279 Y107.835
G0 X75.279 Y108.92
G0 X144.358 Y109.282
G0 X144.541 Y110.9
;TYPE:WALL-INNER
G1 F2700 E29.76446
G1 F1200 X144.342 Y110.9 E29.77373
G1 X75.46 Y110.9 E32.98116
G1 X75.459 Y109.299 E33.05571
G1 X75.459 Y109.1 E33.06498
G1 X75.658 Y109.1 E33.07097
G1 X144.54 Y109.1 E36.2784
G1 X144.541 Y110.701 E36.35295
G1 X144.541 Y110.9 E36.35895
G0 F6000 X144.941 Y111.3
;TYPE:WALL-OUTER
G1 F1200 X75.06 Y111.3 E39.6129
G1 X75.059 Y108.7 E39.73397
G1 X144.94 Y108.7 E42.98792
G1 X144.941 Y111.3 E43.10899
G0 F6000 X144.671 Y111.03
G0 X144.431 Y110.51
G0 X144.151 Y110.51
;TYPE:SKIN
G1 F1200 X75.85 Y110.51 E46.28937
G1 X75.849 Y109.49 E46.33686
G1 X144.15 Y109.49 E49.51724
G1 X144.151 Y110.51 E49.56474
G0 F6000 X143.99 Y110.049
G1 F1200 X143.59 Y109.649 E49.59108
G0 F6000 X143.025 Y109.649
G1 F1200 X143.725 Y110.349 E49.63718
G0 F6000 X143.159 Y110.349
G1 F1200 X142.459 Y109.649 E49.68327
G0 F6000 X141.893 Y109.649
G1 F1200 X142.593 Y110.349 E49.72937
G0 F6000 X142.028 Y110.349
G1 F1200 X141.328 Y109.649 E49.77547
G0 F6000 X140.762 Y109.649
G1 F1200 X141.462 Y110.349 E49.82156
G0 F6000 X140.896 Y110.349
G1 F1200 X140.196 Y109.649 E49.86766
G0 F6000 X139.63 Y109.649
G1 F1200 X140.33 Y110.349 E49.91375
G0 F6000 X139.765 Y110.349
G1 F1200 X139.065 Y109.649 E49.95985
G0 F6000 X138.499 Y109.649
G1 F1200 X139.199 Y110.349 E50.00595
G0 F6000 X138.633 Y110.349
G1 F1200 X137.933 Y109.649 E50.05204
G0 F6000 X137.368 Y109.649
G1 F1200 X138.068 Y110.349 E50.09814
G0 F6000 X137.502 Y110.349
G1 F1200 X136.802 Y109.649 E50.14423
G0 F6000 X136.236 Y109.649
G1 F1200 X136.936 Y110.349 E50.19033
G0 F6000 X136.371 Y110.349
G1 F1200 X135.671 Y109.649 E50.23643
G0 F6000 X135.105 Y109.649
G1 F1200 X135.805 Y110.349 E50.28252
G0 F6000 X135.239 Y110.349
G1 F1200 X134.539 Y109.649 E50.32862
G0 F6000 X133.974 Y109.649
G1 F1200 X134.674 Y110.349 E50.37472
G0 F6000 X134.108 Y110.349
G1 F1200 X133.408 Y109.649 E50.42081
G0 F6000 X132.842 Y109.649
G1 F1200 X133.542 Y110.349 E50.46691
G0 F6000 X132.977 Y110.349
G1 F1200 X132.277 Y109.649 E50.513
G0 F6000 X131.711 Y109.649
G1 F1200 X132.411 Y110.349 E50.5591
G0 F6000 X131.845 Y110.349
G1 F1200 X131.145 Y109.649 E50.6052
G0 F6000 X130.579 Y109.649
G1 F1200 X131.28 Y110.349 E50.65133
G0 F6000 X130.714 Y110.349
G1 F1200 X130.014 Y109.649 E50.69742
G0 F6000 X129.448 Y109.649
G1 F1200 X130.148 Y110.349 E50.74352
G0 F6000 X129.582 Y110.349
G1 F1200 X128.882 Y109.649 E50.78961
G0 F6000 X128.317 Y109.649
G1 F1200 X129.017 Y110.349 E50.83571
G0 F6000 X128.451 Y110.349
G1 F1200 X127.751 Y109.649 E50.88181
G0 F6000 X127.185 Y109.649
G1 F1200 X127.885 Y110.349 E50.9279
G0 F6000 X127.32 Y110.349
G1 F1200 X126.62 Y109.649 E50.974
G0 F6000 X126.054 Y109.649
G1 F1200 X126.754 Y110.349 E51.0201
G0 F6000 X126.188 Y110.349
G1 F1200 X125.488 Y109.649 E51.06619
G0 F6000 X124.923 Y109.649
G1 F1200 X125.623 Y110.349 E51.11229
G0 F6000 X125.057 Y110.349
G1 F1200 X124.357 Y109.649 E51.15838
G0 F6000 X123.791 Y109.649
G1 F1200 X124.491 Y110.349 E51.20448
G0 F6000 X123.926 Y110.349
G1 F1200 X123.226 Y109.649 E51.25058
G0 F6000 X122.66 Y109.649
G1 F1200 X123.36 Y110.349 E51.29667
G0 F6000 X122.794 Y110.349
G1 F1200 X122.094 Y109.649 E51.34277
G0 F6000 X121.529 Y109.649
G1 F1200 X122.229 Y110.349 E51.38887
G0 F6000 X121.663 Y110.349
G1 F1200 X120.963 Y109.649 E51.43496
G0 F6000 X120.397 Y109.649
G1 F1200 X121.097 Y110.349 E51.48106
G0 F6000 X120.532 Y110.349
G1 F1200 X119.831 Y109.649 E51.52719
G0 F6000 X119.266 Y109.649
G1 F1200 X119.966 Y110.349 E51.57328
G0 F6000 X119.4 Y110.349
G1 F1200 X118.7 Y109.649 E51.61938
G0 F6000 X118.134 Y109.649
G1 F1200 X118.834 Y110.349 E51.66548
G0 F6000 X118.269 Y110.349
G1 F1200 X117.569 Y109.649 E51.71157
G0 F6000 X117.003 Y109.649
G1 F1200 X117.703 Y110.349 E51.75767
G0 F6000 X117.137 Y110.349
G1 F1200 X116.437 Y109.649 E51.80376
G0 F6000 X115.872 Y109.649
G1 F1200 X116.572 Y110.349 E51.84986
G0 F6000 X116.006 Y110.349
G1 F1200 X115.306 Y109.649 E51.89596
G0 F6000 X114.74 Y109.649
G1 F1200 X115.44 Y110.349 E51.94205
G0 F6000 X114.875 Y110.349
G1 F1200 X114.175 Y109.649 E51.98815
G0 F6000 X113.609 Y109.649
G1 F1200 X114.309 Y110.349 E52.03424
G0 F6000 X113.743 Y110.349
G1 F1200 X113.043 Y109.649 E52.08034
G0 F6000 X112.478 Y109.649
G1 F1200 X113.178 Y110.349 E52.12644
G0 F6000 X112.612 Y110.349
G1 F1200 X111.912 Y109.649 E52.17253
G0 F6000 X111.346 Y109.649
G1 F1200 X112.046 Y110.349 E52.21863
G0 F6000 X111.481 Y110.349
G1 F1200 X110.781 Y109.649 E52.26473
G0 F6000 X110.215 Y109.649
G1 F1200 X110.915 Y110.349 E52.31082
G0 F6000 X110.349 Y110.349
G1 F1200 X109.649 Y109.649 E52.35692
G0 F6000 X109.083 Y109.649
G1 F1200 X109.783 Y110.349 E52.40301
G0 F6000 X109.218 Y110.349
G1 F1200 X108.518 Y109.649 E52.44911
G0 F6000 X107.952 Y109.649
G1 F1200 X108.652 Y110.349 E52.49521
G0 F6000 X108.086 Y110.349
G1 F1200 X107.386 Y109.649 E52.5413
G0 F6000 X106.821 Y109.649
G1 F1200 X107.521 Y110.349 E52.5874
G0 F6000 X106.955 Y110.349
G1 F1200 X106.255 Y109.649 E52.6335
G0 F6000 X105.689 Y109.649
G1 F1200 X106.389 Y110.349 E52.67959
G0 F6000 X105.824 Y110.349
G1 F1200 X105.124 Y109.649 E52.72569
G0 F6000 X104.558 Y109.649
G1 F1200 X105.258 Y110.349 E52.77178
G0 F6000 X104.692 Y110.349
G1 F1200 X103.992 Y109.649 E52.81788
G0 F6000 X103.427 Y109.649
G1 F1200 X104.127 Y110.349 E52.86398
G0 F6000 X103.561 Y110.349
G1 F1200 X102.861 Y109.649 E52.91007
G0 F6000 X102.295 Y109.649
G1 F1200 X102.995 Y110.349 E52.95617
G0 F6000 X102.43 Y110.349
G1 F1200 X101.73 Y109.649 E53.00226
G0 F6000 X101.164 Y109.649
G1 F1200 X101.864 Y110.349 E53.04836
G0 F6000 X101.298 Y110.349
G1 F1200 X100.598 Y109.649 E53.09446
G0 F6000 X100.032 Y109.649
G1 F1200 X100.733 Y110.349 E53.14059
G0 F6000 X100.167 Y110.349
G1 F1200 X99.467 Y109.649 E53.18668
G0 F6000 X98.901 Y109.649
G1 F1200 X99.601 Y110.349 E53.23278
G0 F6000 X99.035 Y110.349
G1 F1200 X98.335 Y109.649 E53.27887
G0 F6000 X97.77 Y109.649
G1 F1200 X98.47 Y110.349 E53.32497
G0 F6000 X97.904 Y110.349
G1 F1200 X97.204 Y109.649 E53.37107
G0 F6000 X96.638 Y109.649
G1 F1200 X97.338 Y110.349 E53.41716
G0 F6000 X96.773 Y110.349
G1 F1200 X96.073 Y109.649 E53.46326
G0 F6000 X95.507 Y109.649
G1 F1200 X96.207 Y110.349 E53.50936
G0 F6000 X95.641 Y110.349
G1 F1200 X94.941 Y109.649 E53.55545
G0 F6000 X94.376 Y109.649
G1 F1200 X95.076 Y110.349 E53.60155
G0 F6000 X94.51 Y110.349
G1 F1200 X93.81 Y109.649 E53.64764
G0 F6000 X93.244 Y109.649
G1 F1200 X93.944 Y110.349 E53.69374
G0 F6000 X93.379 Y110.349
G1 F1200 X92.679 Y109.649 E53.73984
G0 F6000 X92.113 Y109.649
G1 F1200 X92.813 Y110.349 E53.78593
G0 F6000 X92.247 Y110.349
G1 F1200 X91.547 Y109.649 E53.83203
G0 F6000 X90.982 Y109.649
G1 F1200 X91.682 Y110.349 E53.87813
G0 F6000 X91.116 Y110.349
G1 F1200 X90.416 Y109.649 E53.92422
G0 F6000 X89.85 Y109.649
G1 F1200 X90.55 Y110.349 E53.97032
G0 F6000 X89.984 Y110.349
G1 F1200 X89.284 Y109.649 E54.01641
G0 F6000 X88.719 Y109.649
G1 F1200 X89.419 Y110.349 E54.06251
G0 F6000 X88.853 Y110.349
G1 F1200 X88.153 Y109.649 E54.10861
G0 F6000 X87.587 Y109.649
G1 F1200 X88.287 Y110.349 E54.1547
G0 F6000 X87.722 Y110.349
G1 F1200 X87.022 Y109.649 E54.2008
G0 F6000 X86.456 Y109.649
G1 F1200 X87.156 Y110.349 E54.2469
G0 F6000 X86.59 Y110.349
G1 F1200 X85.89 Y109.649 E54.29299
