;FLAVOR:Marlin
;TIME:4142
;Filament used: 2.85798m
;Layer height: 0.28
;MINX:88.044
;MINY:88.498
;MINZ:0.28
;MAXX:131.955
;MAXY:131.578
;MAXZ:68.88
;Generated with Cura_SteamEngine 4.8.0
M140 S50
M105
M190 S50
M104 S200
M105
M109 S200
M82 ;absolute extrusion mode
M201 X500.00 Y500.00 Z100.00 E5000.00 ;Setup machine max acceleration
M203 X500.00 Y500.00 Z10.00 E50.00 ;Setup machine max feedrate
M204 P500.00 R1000.00 T500.00 ;Setup Print/Retract/Travel acceleration
M205 X8.00 Y8.00 Z0.40 E5.00 ;Setup Jerk
M220 S100 ;Reset Feedrate
M221 S100 ;Reset Flowrate

G28 ;Home

G92 E0 ;Reset Extruder
G1 Z2.0 F3000 ;Move Z Axis up
G1 X10.1 Y20 Z0.28 F5000.0 ;Move to start position
G1 X10.1 Y200.0 Z0.28 F1500.0 E15 ;Draw the first line
G1 X10.4 Y200.0 Z0.28 F5000.0 ;Move to side a little
G1 X10.4 Y20 Z0.28 F1500.0 E30 ;Draw the second line
G92 E0 ;Reset Extruder
G1 Z2.0 F3000 ;Move Z Axis up

G92 E0
G92 E0
G1 F2700 E-5
;LAYER_COUNT:246
;LAYER:0
M107
G0 F6000 X94.611 Y93.961 Z0.28
;TYPE:SKIRT
G1 F2700 E0
G1 F1200 X95.322 Y93.292 E0.04546
G1 X96.003 Y92.706 E0.08729
G1 X96.301 Y92.459 E0.10532
G1 X96.482 Y92.314 E0.11611
G1 X96.983 Y91.935 E0.14537
G1 X97.409 Y91.632 E0.16971
G1 X97.669 Y91.453 E0.18441
G1 X97.974 Y91.249 E0.20149
G1 X98.511 Y90.912 E0.23101
G1 X99.138 Y90.543 E0.26489
G1 X99.464 Y90.358 E0.28234
G1 X99.705 Y90.227 E0.29512
G1 X100.303 Y89.926 E0.32629
G1 X101.033 Y89.585 E0.36381
G1 X101.419 Y89.413 E0.38349
G1 X101.552 Y89.357 E0.39021
G1 X102.431 Y89.03 E0.43388
G1 X103.335 Y88.78 E0.47755
G1 X104.257 Y88.607 E0.52123
G1 X105.19 Y88.513 E0.5649
G1 X106.067 Y88.498 E0.60574
G1 X107.102 Y88.522 E0.65395
G1 X108.096 Y88.557 E0.70026
G1 X110.621 Y88.574 E0.81784
G1 X113.38 Y88.514 E0.94634
G1 X113.894 Y88.501 E0.97028
G1 X114.832 Y88.517 E1.01396
G1 X115.765 Y88.613 E1.05764
G1 X116.686 Y88.788 E1.10129
G1 X117.589 Y89.041 E1.14496
G1 X118.482 Y89.377 E1.18938
G1 X118.907 Y89.558 E1.21089
G1 X119.186 Y89.681 E1.22509
G1 X119.369 Y89.765 E1.23447
G1 X120.001 Y90.08 E1.26735
G1 X120.778 Y90.499 E1.30845
G1 X121.102 Y90.681 E1.32576
G1 X121.311 Y90.803 E1.33703
G1 X121.853 Y91.141 E1.36677
G1 X122.446 Y91.535 E1.39992
G1 X122.769 Y91.758 E1.4182
G1 X122.974 Y91.905 E1.42994
G1 X123.456 Y92.271 E1.45813
G1 X123.966 Y92.681 E1.4886
G1 X124.235 Y92.904 E1.50487
G1 X124.586 Y93.205 E1.5264
G1 X125.112 Y93.686 E1.55959
G1 X125.285 Y93.855 E1.57085
G1 X125.464 Y94.035 E1.58267
G1 X125.898 Y94.479 E1.61158
G1 X126.377 Y95.002 E1.6446
G1 X126.93 Y95.646 E1.68413
G1 X127.165 Y95.929 E1.70126
G1 X127.311 Y96.111 E1.71212
G1 X127.701 Y96.627 E1.74224
G1 X128.08 Y97.161 E1.77273
G1 X128.256 Y97.417 E1.7872
G1 X128.407 Y97.643 E1.79985
G1 X128.772 Y98.228 E1.83196
G1 X129.127 Y98.839 E1.86487
G1 X129.299 Y99.147 E1.88129
G1 X129.493 Y99.507 E1.90033
G1 X129.764 Y100.043 E1.9283
G1 X129.907 Y100.347 E1.94394
G1 X130.102 Y100.786 E1.96631
G1 X130.357 Y101.396 E1.9971
G1 X130.573 Y101.956 E2.02505
G1 X130.772 Y102.516 E2.05272
G1 X130.873 Y102.814 E2.06737
G1 X130.971 Y103.117 E2.0822
G1 X131.163 Y103.78 E2.11434
G1 X131.363 Y104.563 E2.15197
G1 X131.445 Y104.91 E2.16857
G1 X131.491 Y105.118 E2.17849
G1 X131.617 Y105.782 E2.20996
G1 X131.74 Y106.563 E2.24678
G1 X131.792 Y106.937 E2.26436
G1 X131.822 Y107.182 E2.27585
G1 X131.881 Y107.809 E2.30518
G1 X131.927 Y108.52 E2.33836
G1 X131.944 Y108.875 E2.3549
G1 X131.953 Y109.154 E2.3679
G1 X131.955 Y109.809 E2.3984
G1 X131.934 Y110.578 E2.43422
G1 X131.916 Y110.967 E2.45236
G1 X131.899 Y111.238 E2.465
G1 X131.841 Y111.87 E2.49455
G1 X131.755 Y112.581 E2.5279
G1 X131.707 Y112.933 E2.54444
G1 X131.667 Y113.193 E2.55669
G1 X131.548 Y113.838 E2.58723
G1 X131.385 Y114.594 E2.62324
G1 X131.293 Y114.986 E2.64199
G1 X131.232 Y115.226 E2.65352
G1 X131.063 Y115.821 E2.68233
G1 X130.839 Y116.532 E2.71704
G1 X130.741 Y116.826 E2.73147
G1 X130.643 Y117.109 E2.74541
G1 X130.381 Y117.792 E2.77948
G1 X130.116 Y118.419 E2.81117
G1 X129.984 Y118.719 E2.82643
G1 X129.858 Y118.994 E2.84052
G1 X129.565 Y119.586 E2.87128
G1 X129.21 Y120.252 E2.90642
G1 X129.026 Y120.585 E2.92413
G1 X128.893 Y120.815 E2.93651
G1 X128.555 Y121.361 E2.96641
G1 X128.149 Y121.977 E3.00076
G1 X127.964 Y122.248 E3.01604
G1 X127.808 Y122.47 E3.02867
G1 X127.4 Y123.014 E3.06034
G1 X126.934 Y123.597 E3.09509
G1 X126.691 Y123.891 E3.11285
G1 X126.51 Y124.102 E3.1258
G1 X126.071 Y124.584 E3.15615
G1 X125.581 Y125.091 E3.18899
G1 X125.354 Y125.319 E3.20397
G1 X125.145 Y125.523 E3.21757
G1 X124.64 Y125.986 E3.24947
G1 X124.085 Y126.464 E3.28358
G1 X123.798 Y126.703 E3.30097
G1 X123.579 Y126.879 E3.31405
G1 X123.065 Y127.268 E3.34406
G1 X122.455 Y127.702 E3.37892
G1 X122.17 Y127.898 E3.39503
G1 X121.952 Y128.043 E3.40722
G1 X121.382 Y128.397 E3.43847
G1 X120.717 Y128.783 E3.47427
G1 X120.418 Y128.951 E3.49024
G1 X120.19 Y129.074 E3.5023
G1 X119.586 Y129.376 E3.53375
G1 X118.942 Y129.674 E3.56679
G1 X118.633 Y129.812 E3.58255
G1 X118.37 Y129.924 E3.59586
G1 X117.736 Y130.17 E3.62752
G1 X117.031 Y130.42 E3.66235
G1 X116.702 Y130.532 E3.67854
G1 X116.439 Y130.616 E3.69139
G1 X115.808 Y130.797 E3.72196
G1 X115.074 Y130.984 E3.75723
G1 X114.739 Y131.063 E3.77326
G1 X114.5 Y131.116 E3.78466
G1 X113.836 Y131.242 E3.81613
G1 X113.102 Y131.358 E3.85073
G1 X112.722 Y131.411 E3.86859
G1 X112.477 Y131.441 E3.88009
G1 X111.844 Y131.5 E3.90969
G1 X111.064 Y131.55 E3.94608
G1 X110.705 Y131.568 E3.96282
G1 X110.418 Y131.577 E3.97619
G1 X109.758 Y131.578 E4.00693
G1 X109.059 Y131.558 E4.03949
G1 X108.7 Y131.541 E4.05622
G1 X108.423 Y131.524 E4.06914
G1 X107.76 Y131.463 E4.10015
G1 X106.984 Y131.368 E4.13655
G1 X106.648 Y131.322 E4.15234
G1 X106.388 Y131.282 E4.16459
G1 X105.73 Y131.16 E4.19575
G1 X105.052 Y131.013 E4.22806
G1 X104.706 Y130.932 E4.2446
G1 X104.427 Y130.862 E4.258
G1 X103.792 Y130.683 E4.28872
G1 X103.054 Y130.45 E4.32475
G1 X102.728 Y130.341 E4.34076
G1 X102.494 Y130.259 E4.35231
G1 X101.845 Y130.008 E4.38471
G1 X101.148 Y129.713 E4.41995
G1 X100.841 Y129.578 E4.43557
G1 X100.593 Y129.464 E4.44828
G1 X100.012 Y129.176 E4.47847
G1 X99.393 Y128.846 E4.51113
G1 X99.057 Y128.659 E4.52904
G1 X98.81 Y128.516 E4.54233
G1 X98.266 Y128.179 E4.57213
G1 X97.629 Y127.759 E4.60766
G1 X97.32 Y127.548 E4.62508
G1 X97.093 Y127.387 E4.63804
G1 X96.591 Y127.009 E4.6673
G1 X96.034 Y126.564 E4.7005
G1 X95.734 Y126.316 E4.71862
G1 X95.536 Y126.146 E4.73077
G1 X95.058 Y125.71 E4.7609
G1 X94.492 Y125.163 E4.79755
G1 X94.25 Y124.922 E4.81345
G1 X94.073 Y124.74 E4.82527
G1 X93.612 Y124.236 E4.85708
G1 X93.133 Y123.678 E4.89132
G1 X92.906 Y123.404 E4.90789
G1 X92.734 Y123.19 E4.92068
G1 X92.35 Y122.682 E4.95033
G1 X91.936 Y122.101 E4.98355
G1 X91.73 Y121.802 E5.00045
G1 X91.57 Y121.561 E5.01392
G1 X91.214 Y120.988 E5.04534
G1 X90.84 Y120.342 E5.08009
G1 X90.679 Y120.053 E5.0955
G1 X90.549 Y119.812 E5.10825
G1 X90.241 Y119.196 E5.14032
G1 X89.933 Y118.528 E5.17457
G1 X89.806 Y118.241 E5.18918
G1 X89.692 Y117.974 E5.2027
G1 X89.439 Y117.327 E5.23505
G1 X89.206 Y116.669 E5.26755
G1 X89.094 Y116.337 E5.28387
G1 X89.007 Y116.064 E5.29721
G1 X88.827 Y115.433 E5.32777
G1 X88.64 Y114.697 E5.36313
G1 X88.553 Y114.33 E5.38069
G1 X88.497 Y114.073 E5.39294
G1 X88.378 Y113.435 E5.42316
G1 X88.262 Y112.695 E5.45803
G1 X88.21 Y112.326 E5.47539
G1 X88.177 Y112.056 E5.48805
G1 X88.119 Y111.429 E5.51737
G1 X88.072 Y110.7 E5.55139
G1 X88.055 Y110.357 E5.56738
G1 X88.046 Y110.086 E5.58001
G1 X88.044 Y109.411 E5.61144
G1 X88.065 Y108.667 E5.64609
G1 X88.081 Y108.313 E5.66259
G1 X88.096 Y108.065 E5.67416
G1 X88.157 Y107.4 E5.70526
G1 X88.249 Y106.644 E5.74072
G1 X88.3 Y106.277 E5.75797
G1 X88.344 Y105.995 E5.77126
G1 X88.458 Y105.379 E5.80043
G1 X88.61 Y104.672 E5.83411
G1 X88.696 Y104.302 E5.8518
G1 X88.783 Y103.956 E5.86841
G1 X88.949 Y103.366 E5.89695
G1 X89.011 Y103.167 E5.90665
G1 X89.111 Y102.862 E5.9216
G1 X89.395 Y102.036 E5.96227
G1 X89.632 Y101.409 E5.99348
G1 X89.742 Y101.143 E6.00689
G1 X89.928 Y100.719 E6.02845
G1 X90.19 Y100.154 E6.05745
G1 X90.471 Y99.591 E6.08675
G1 X90.737 Y99.094 E6.11299
G1 X90.888 Y98.82 E6.12756
G1 X91.137 Y98.385 E6.1509
G1 X91.457 Y97.861 E6.17949
G1 X91.753 Y97.405 E6.20481
G1 X91.951 Y97.112 E6.22127
G1 X92.198 Y96.757 E6.24141
G1 X92.572 Y96.25 E6.27075
G1 X92.813 Y95.947 E6.28877
G1 X92.991 Y95.73 E6.30184
G1 X93.176 Y95.51 E6.31523
G1 X93.541 Y95.088 E6.34121
G1 X93.975 Y94.615 E6.3711
G1 X94.611 Y93.961 E6.41358
G0 F6000 X94.898 Y94.24
G1 F1200 X95.583 Y93.595 E6.45739
G1 X96.264 Y93.009 E6.49922
G1 X96.551 Y92.771 E6.51658
G1 X96.732 Y92.626 E6.52738
G1 X97.215 Y92.261 E6.55557
G1 X97.641 Y91.958 E6.57992
G1 X97.892 Y91.785 E6.59411
G1 X98.197 Y91.581 E6.6112
G1 X98.714 Y91.257 E6.63961
G1 X99.341 Y90.888 E6.67348
G1 X99.655 Y90.71 E6.69029
G1 X99.896 Y90.579 E6.70306
G1 X100.472 Y90.288 E6.73311
G1 X101.202 Y89.947 E6.77063
G1 X101.575 Y89.782 E6.78962
G1 X101.708 Y89.726 E6.79634
G1 X102.571 Y89.406 E6.8392
G1 X103.459 Y89.162 E6.88208
G1 X104.364 Y88.996 E6.92493
G1 X105.281 Y88.909 E6.96782
G1 X106.058 Y88.898 E7.004
G1 X107.087 Y88.922 E7.05193
G1 X108.078 Y88.957 E7.0981
G1 X110.627 Y88.974 E7.2168
G1 X113.234 Y88.919 E7.33822
G1 X113.39 Y88.913 E7.34549
G1 X113.904 Y88.9 E7.36943
G1 X114.824 Y88.917 E7.41227
G1 X115.74 Y89.014 E7.45516
G1 X116.644 Y89.189 E7.49804
G1 X117.529 Y89.443 E7.54091
G1 X118.325 Y89.745 E7.58056
G1 X118.75 Y89.926 E7.60207
G1 X119.019 Y90.044 E7.61574
G1 X119.202 Y90.128 E7.62512
G1 X119.811 Y90.432 E7.65681
G1 X120.588 Y90.851 E7.69792
G1 X120.901 Y91.027 E7.71464
G1 X121.11 Y91.149 E7.72591
G1 X121.632 Y91.474 E7.75454
G1 X122.225 Y91.868 E7.78769
G1 X122.536 Y92.083 E7.8053
G1 X122.741 Y92.23 E7.81705
G1 X123.206 Y92.583 E7.84423
G1 X123.716 Y92.993 E7.8747
G1 X123.974 Y93.207 E7.89031
G1 X124.325 Y93.508 E7.91184
G1 X124.832 Y93.973 E7.94387
G1 X125.178 Y94.315 E7.96653
G1 X125.612 Y94.759 E7.99544
G1 X126.074 Y95.262 E8.02724
G1 X126.627 Y95.906 E8.06677
G1 X126.853 Y96.179 E8.08327
G1 X126.999 Y96.361 E8.09413
G1 X127.375 Y96.859 E8.12319
G1 X127.754 Y97.393 E8.15368
G1 X127.924 Y97.639 E8.1676
G1 X128.075 Y97.865 E8.18026
G1 X128.426 Y98.429 E8.21119
G1 X128.781 Y99.04 E8.2441
G1 X128.947 Y99.336 E8.2599
G1 X129.141 Y99.696 E8.27894
G1 X129.402 Y100.213 E8.30591
G1 X129.545 Y100.517 E8.32155
G1 X129.733 Y100.941 E8.34315
G1 X129.988 Y101.551 E8.37394
G1 X130.196 Y102.09 E8.40084
G1 X130.395 Y102.65 E8.42851
G1 X130.493 Y102.937 E8.44263
G1 X130.591 Y103.24 E8.45746
G1 X130.775 Y103.879 E8.48842
G1 X130.975 Y104.662 E8.52606
G1 X131.055 Y104.996 E8.54205
G1 X131.101 Y105.204 E8.55197
G1 X131.222 Y105.844 E8.5823
G1 X131.345 Y106.625 E8.61911
G1 X131.395 Y106.986 E8.63608
G1 X131.425 Y107.231 E8.64757
G1 X131.482 Y107.835 E8.67582
G1 X131.528 Y108.546 E8.709
G1 X131.544 Y108.888 E8.72494
G1 X131.553 Y109.167 E8.73794
G1 X131.555 Y109.798 E8.76732
G1 X131.534 Y110.567 E8.80314
G1 X131.517 Y110.942 E8.82062
G1 X131.5 Y111.213 E8.83327
G1 X131.444 Y111.822 E8.86174
G1 X131.358 Y112.533 E8.89509
G1 X131.312 Y112.872 E8.91102
G1 X131.272 Y113.132 E8.92327
G1 X131.157 Y113.754 E8.95273
G1 X130.994 Y114.51 E8.98874
G1 X130.905 Y114.887 E9.00677
G1 X130.844 Y115.127 E9.01831
G1 X130.681 Y115.701 E9.04609
G1 X130.457 Y116.412 E9.0808
G1 X130.363 Y116.696 E9.09473
G1 X130.265 Y116.979 E9.10868
G1 X130.013 Y117.637 E9.14149
G1 X129.748 Y118.264 E9.17318
G1 X129.621 Y118.552 E9.18784
G1 X129.495 Y118.827 E9.20192
G1 X129.212 Y119.398 E9.2316
G1 X128.857 Y120.064 E9.26674
G1 X128.679 Y120.384 E9.28379
G1 X128.546 Y120.614 E9.29616
G1 X128.221 Y121.141 E9.32499
G1 X127.815 Y121.757 E9.35935
G1 X127.637 Y122.018 E9.37406
G1 X127.481 Y122.24 E9.38669
G1 X127.088 Y122.764 E9.41719
G1 X126.622 Y123.347 E9.45194
G1 X126.387 Y123.631 E9.46911
G1 X126.206 Y123.842 E9.48205
G1 X125.783 Y124.306 E9.51129
G1 X125.293 Y124.813 E9.54412
G1 X125.075 Y125.033 E9.55854
G1 X124.866 Y125.237 E9.57214
G1 X124.379 Y125.683 E9.60289
G1 X123.824 Y126.161 E9.637
G1 X123.547 Y126.391 E9.65376
G1 X123.328 Y126.567 E9.66685
G1 X122.833 Y126.942 E9.69576
G1 X122.223 Y127.376 E9.73062
G1 X121.948 Y127.565 E9.74616
G1 X121.73 Y127.71 E9.75835
G1 X121.181 Y128.052 E9.78847
G1 X120.516 Y128.438 E9.82427
G1 X120.228 Y128.599 E9.83964
G1 X120 Y128.722 E9.8517
G1 X119.418 Y129.013 E9.882
G1 X118.774 Y129.311 E9.91504
G1 X118.476 Y129.444 E9.93024
G1 X118.213 Y129.556 E9.94355
G1 X117.603 Y129.793 E9.97402
G1 X116.898 Y130.043 E10.00885
G1 X116.58 Y130.15 E10.02447
G1 X116.317 Y130.234 E10.03733
G1 X115.709 Y130.409 E10.06679
G1 X114.975 Y130.596 E10.10206
G1 X114.653 Y130.673 E10.11748
G1 X114.414 Y130.726 E10.12888
G1 X113.774 Y130.847 E10.15921
G1 X113.04 Y130.963 E10.19381
G1 X112.673 Y131.014 E10.21106
G1 X112.428 Y131.044 E10.22255
G1 X111.818 Y131.101 E10.25108
G1 X111.038 Y131.151 E10.28748
G1 X110.692 Y131.168 E10.30361
G1 X110.405 Y131.177 E10.31698
G1 X109.77 Y131.178 E10.34655
G1 X109.071 Y131.158 E10.37911
G1 X108.725 Y131.142 E10.39524
G1 X108.448 Y131.125 E10.40816
G1 X107.809 Y131.066 E10.43804
G1 X107.033 Y130.971 E10.47444
G1 X106.709 Y130.927 E10.48967
G1 X106.449 Y130.887 E10.50192
G1 X105.815 Y130.769 E10.53195
G1 X105.137 Y130.622 E10.56425
G1 X104.803 Y130.544 E10.58022
G1 X104.524 Y130.474 E10.59362
G1 X103.913 Y130.301 E10.62318
G1 X103.175 Y130.068 E10.65922
G1 X102.86 Y129.964 E10.67467
G1 X102.626 Y129.882 E10.68621
G1 X102 Y129.64 E10.71746
G1 X101.303 Y129.345 E10.75271
G1 X101.008 Y129.214 E10.76774
G1 X100.76 Y129.1 E10.78045
G1 X100.2 Y128.823 E10.80954
G1 X99.581 Y128.493 E10.8422
G1 X99.257 Y128.313 E10.85946
G1 X99.01 Y128.17 E10.87275
G1 X98.486 Y127.846 E10.90144
G1 X97.849 Y127.426 E10.93697
G1 X97.552 Y127.222 E10.95374
G1 X97.325 Y127.061 E10.9667
G1 X96.841 Y126.697 E10.9949
G1 X96.284 Y126.252 E11.0281
G1 X95.995 Y126.012 E11.04559
G1 X95.797 Y125.842 E11.05774
G1 X95.336 Y125.422 E11.08678
G1 X94.77 Y124.875 E11.12343
G1 X94.537 Y124.643 E11.13874
G1 X94.36 Y124.461 E11.15057
G1 X93.916 Y123.975 E11.18122
G1 X93.437 Y123.417 E11.21546
G1 X93.218 Y123.154 E11.2314
G1 X93.046 Y122.94 E11.24418
G1 X92.675 Y122.45 E11.2728
G1 X92.261 Y121.869 E11.30602
G1 X92.063 Y121.581 E11.32229
G1 X91.903 Y121.34 E11.33576
G1 X91.56 Y120.788 E11.36603
G1 X91.186 Y120.142 E11.40078
G1 X91.031 Y119.863 E11.41564
G1 X90.901 Y119.622 E11.4284
G1 X90.604 Y119.028 E11.45932
G1 X90.296 Y118.36 E11.49357
G1 X90.173 Y118.084 E11.50764
G1 X90.059 Y117.817 E11.52116
G1 X89.816 Y117.193 E11.55234
G1 X89.583 Y116.535 E11.58484
G1 X89.475 Y116.216 E11.60053
G1 X89.388 Y115.943 E11.61387
G1 X89.214 Y115.334 E11.64336
G1 X89.027 Y114.598 E11.67872
G1 X88.944 Y114.245 E11.69561
G1 X88.888 Y113.988 E11.70785
G1 X88.773 Y113.373 E11.73699
G1 X88.657 Y112.633 E11.77187
G1 X88.607 Y112.277 E11.78861
G1 X88.574 Y112.007 E11.80127
G1 X88.518 Y111.403 E11.82952
G1 X88.471 Y110.674 E11.86353
G1 X88.455 Y110.344 E11.87892
G1 X88.446 Y110.073 E11.89154
G1 X88.444 Y109.422 E11.92186
G1 X88.465 Y108.678 E11.95651
G1 X88.48 Y108.337 E11.97241
G1 X88.495 Y108.089 E11.98398
G1 X88.554 Y107.448 E12.01395
G1 X88.646 Y106.692 E12.04941
G1 X88.695 Y106.339 E12.06601
G1 X88.739 Y106.057 E12.0793
G1 X88.849 Y105.463 E12.10743
G1 X89.001 Y104.756 E12.1411
G1 X89.084 Y104.399 E12.15817
G1 X89.171 Y104.053 E12.17478
G1 X89.331 Y103.485 E12.20226
G1 X89.393 Y103.286 E12.21196
G1 X89.489 Y102.992 E12.22636
G1 X89.773 Y102.166 E12.26704
G1 X90.002 Y101.562 E12.29711
G1 X90.112 Y101.296 E12.31052
G1 X90.291 Y100.888 E12.33126
G1 X90.553 Y100.323 E12.36026
G1 X90.823 Y99.78 E12.3885
G1 X91.089 Y99.283 E12.41475
G1 X91.236 Y99.019 E12.42882
G1 X91.485 Y98.584 E12.45216
G1 X91.793 Y98.079 E12.4797
G1 X92.089 Y97.623 E12.50502
G1 X92.279 Y97.34 E12.52089
G1 X92.526 Y96.985 E12.54103
G1 X92.887 Y96.496 E12.56933
G1 X93.122 Y96.2 E12.58693
G1 X93.3 Y95.983 E12.6
G1 X93.479 Y95.772 E12.61288
G1 X93.844 Y95.35 E12.63886
G1 X94.262 Y94.894 E12.66767
G1 X94.898 Y94.24 E12.71014
G0 F6000 X95.185 Y94.519
G1 F1200 X95.844 Y93.898 E12.75231
G1 X96.525 Y93.312 E12.79414
G1 X96.801 Y93.083 E12.81084
G1 X96.982 Y92.938 E12.82164
G1 X97.447 Y92.587 E12.84877
