;FLAVOR:Marlin
;TIME:130
;Filament used: 0.125763m
;Layer height: 0.28
;MINX:92.819
;MINY:92.813
;MINZ:0.28
;MAXX:127.184
;MAXY:127.185
;MAXZ:2.24
;Generated with Cura_SteamEngine 4.8.0
M140 S50
M105
M190 S50
M104 S200
M105
M109 S200
M82 ;absolute extrusion mode
M201 X500.00 Y500.00 Z100.00 E5000.00 ;Setup machine max acceleration
M203 X500.00 Y500.00 Z10.00 E50.00 ;Setup machine max feedrate
M204 P500.00 R1000.00 T500.00 ;Setup Print/Retract/Travel acceleration
M205 X8.00 Y8.00 Z0.40 E5.00 ;Setup Jerk
M220 S100 ;Reset Feedrate
M221 S100 ;Reset Flowrate

G28 ;Home

G92 E0 ;Reset Extruder
G1 Z2.0 F3000 ;Move Z Axis up
G1 X10.1 Y20 Z0.28 F5000.0 ;Move to start position
G1 X10.1 Y200.0 Z0.28 F1500.0 E15 ;Draw the first line
G1 X10.4 Y200.0 Z0.28 F5000.0 ;Move to side a little
G1 X10.4 Y20 Z0.28 F1500.0 E30 ;Draw the second line
G92 E0 ;Reset Extruder
G1 Z2.0 F3000 ;Move Z Axis up

G92 E0
G92 E0
G1 F2700 E-5
;LAYER_COUNT:8
;LAYER:0
M107
G0 F6000 X97.862 Y97.836 Z0.28
;TYPE:SKIRT
G1 F2700 E0
G1 F1200 X98.112 Y97.591 E0.0163
G1 X98.603 Y97.138 E0.04741
G1 X98.852 Y96.922 E0.06276
G1 X99.337 Y96.524 E0.09197
G1 X99.653 Y96.28 E0.11056
G1 X100.074 Y95.971 E0.13488
G1 X100.27 Y95.834 E0.14601
G1 X100.708 Y95.543 E0.1705
G1 X100.987 Y95.37 E0.18578
G1 X101.39 Y95.129 E0.20765
G1 X101.998 Y94.791 E0.24004
G1 X102.295 Y94.638 E0.2556
G1 X102.883 Y94.357 E0.28594
G1 X103.204 Y94.215 E0.30229
G1 X103.807 Y93.97 E0.33259
G1 X104.174 Y93.833 E0.35084
G1 X104.821 Y93.614 E0.38264
G1 X105.163 Y93.51 E0.39929
G1 X105.745 Y93.35 E0.42739
G1 X106.096 Y93.264 E0.44422
G1 X106.654 Y93.143 E0.47081
G1 X106.932 Y93.09 E0.48398
G1 X107.36 Y93.017 E0.5042
G1 X107.753 Y92.962 E0.52268
G1 X108.071 Y92.923 E0.5376
G1 X108.797 Y92.858 E0.57154
G1 X109.299 Y92.83 E0.59495
G1 X109.962 Y92.813 E0.62583
G1 X110.18 Y92.814 E0.63598
G1 X110.76 Y92.832 E0.663
G1 X111.213 Y92.858 E0.68413
G1 X111.958 Y92.926 E0.71897
G1 X112.355 Y92.976 E0.7376
G1 X112.894 Y93.058 E0.76299
G1 X113.126 Y93.099 E0.77396
G1 X113.847 Y93.251 E0.80827
G1 X114.378 Y93.382 E0.83373
G1 X115.063 Y93.575 E0.86687
G1 X115.262 Y93.638 E0.87659
G1 X115.777 Y93.815 E0.90195
G1 X116.226 Y93.982 E0.92426
G1 X116.963 Y94.287 E0.9614
G1 X117.3 Y94.441 E0.97865
G1 X117.754 Y94.661 E1.00214
G1 X118.011 Y94.793 E1.01559
G1 X118.628 Y95.135 E1.04844
G1 X118.956 Y95.331 E1.06623
G1 X119.482 Y95.667 E1.0953
G1 X119.823 Y95.898 E1.11448
G1 X120.382 Y96.303 E1.14662
G1 X120.598 Y96.47 E1.15933
G1 X120.85 Y96.67 E1.17431
G1 X121.186 Y96.952 E1.19474
G1 X121.425 Y97.16 E1.20949
G1 X121.923 Y97.621 E1.24109
G1 X122.187 Y97.881 E1.25835
G1 X122.65 Y98.366 E1.28957
G1 X122.898 Y98.642 E1.30685
G1 X123.248 Y99.051 E1.33191
G1 X123.436 Y99.282 E1.34578
G1 X123.715 Y99.64 E1.36691
G1 X123.963 Y99.978 E1.38644
G1 X124.126 Y100.209 E1.3996
G1 X124.492 Y100.763 E1.43052
G1 X124.729 Y101.146 E1.45149
G1 X125.018 Y101.641 E1.47818
G1 X125.147 Y101.876 E1.49066
G1 X125.496 Y102.569 E1.52679
G1 X125.717 Y103.049 E1.5514
G1 X125.978 Y103.664 E1.58251
G1 X126.06 Y103.875 E1.59305
G1 X126.264 Y104.446 E1.62128
G1 X126.406 Y104.881 E1.64259
G1 X126.596 Y105.53 E1.67408
G1 X126.676 Y105.838 E1.6889
G1 X126.819 Y106.462 E1.71871
G1 X126.896 Y106.85 E1.73713
G1 X127.005 Y107.506 E1.76809
G1 X127.052 Y107.851 E1.7843
G1 X127.114 Y108.416 E1.81077
G1 X127.138 Y108.702 E1.82413
G1 X127.174 Y109.385 E1.85598
G1 X127.184 Y109.85 E1.87764
G1 X127.175 Y110.597 E1.91242
G1 X127.157 Y110.985 E1.93051
G1 X127.12 Y111.51 E1.95502
G1 X127.094 Y111.785 E1.96788
G1 X127.046 Y112.21 E1.9878
G1 X126.986 Y112.623 E2.00723
G1 X126.927 Y112.98 E2.02408
G1 X126.799 Y113.628 E2.05483
G1 X126.707 Y114.032 E2.07413
G1 X126.536 Y114.692 E2.10587
G1 X126.459 Y114.954 E2.11859
G1 X126.257 Y115.573 E2.14891
G1 X126.078 Y116.071 E2.17355
G1 X125.803 Y116.762 E2.20818
G1 X125.715 Y116.963 E2.2184
G1 X125.486 Y117.452 E2.24354
G1 X125.276 Y117.874 E2.26549
G1 X124.957 Y118.469 E2.29693
G1 X124.818 Y118.71 E2.30988
G1 X124.48 Y119.257 E2.33982
G1 X124.242 Y119.619 E2.36
G1 X123.825 Y120.211 E2.39371
G1 X123.58 Y120.535 E2.41263
G1 X123.2 Y121.009 E2.44092
G1 X123.034 Y121.205 E2.45288
G1 X122.584 Y121.705 E2.4842
G1 X122.289 Y122.013 E2.50406
G1 X121.836 Y122.459 E2.53366
G1 X121.55 Y122.725 E2.55185
G1 X121.071 Y123.145 E2.58151
G1 X120.822 Y123.351 E2.59656
G1 X120.452 Y123.645 E2.61856
G1 X120.239 Y123.805 E2.63097
G1 X120.038 Y123.952 E2.64256
G1 X119.509 Y124.315 E2.67244
G1 X119.148 Y124.548 E2.69245
G1 X118.549 Y124.908 E2.72499
G1 X118.209 Y125.098 E2.74312
G1 X117.603 Y125.413 E2.77493
G1 X117.303 Y125.557 E2.79042
G1 X116.96 Y125.715 E2.80801
G1 X116.666 Y125.84 E2.82288
G1 X116.411 Y125.945 E2.83572
G1 X115.791 Y126.179 E2.86658
G1 X115.339 Y126.334 E2.88883
G1 X114.718 Y126.527 E2.91911
G1 X114.495 Y126.589 E2.92989
G1 X113.84 Y126.75 E2.9613
G1 X113.319 Y126.861 E2.9861
G1 X112.668 Y126.979 E3.01691
G1 X112.436 Y127.014 E3.02783
G1 X111.837 Y127.088 E3.05594
G1 X111.448 Y127.125 E3.07413
G1 X110.744 Y127.169 E3.10698
G1 X110.321 Y127.182 E3.12668
G1 X109.758 Y127.185 E3.1529
G1 X109.514 Y127.18 E3.16426
G1 X109.13 Y127.165 E3.18216
G1 X108.71 Y127.136 E3.20176
G1 X108.269 Y127.097 E3.22238
G1 X107.576 Y127.014 E3.25488
G1 X107.262 Y126.966 E3.26967
G1 X106.823 Y126.89 E3.29041
G1 X106.53 Y126.833 E3.30431
G1 X105.742 Y126.649 E3.34199
G1 X105.257 Y126.517 E3.3654
G1 X104.567 Y126.305 E3.39901
G1 X104.256 Y126.198 E3.41432
G1 X103.616 Y125.955 E3.4462
G1 X103.238 Y125.798 E3.46526
G1 X102.704 Y125.559 E3.4925
G1 X102.393 Y125.41 E3.50856
G1 X101.782 Y125.094 E3.54059
G1 X101.517 Y124.946 E3.55472
G1 X100.948 Y124.605 E3.58561
G1 X100.489 Y124.311 E3.61099
G1 X99.829 Y123.853 E3.6484
G1 X99.634 Y123.707 E3.65974
G1 X99.254 Y123.409 E3.68223
G1 X98.96 Y123.168 E3.69993
G1 X98.477 Y122.748 E3.72973
G1 X98.272 Y122.559 E3.74272
G1 X97.768 Y122.064 E3.77561
G1 X97.335 Y121.61 E3.80483
G1 X96.759 Y120.956 E3.84541
G1 X96.581 Y120.737 E3.85855
G1 X96.311 Y120.392 E3.87895
G1 X96.168 Y120.201 E3.89006
G1 X95.809 Y119.692 E3.91906
G1 X95.576 Y119.341 E3.93868
G1 X95.242 Y118.804 E3.96812
G1 X95.068 Y118.506 E3.98419
G1 X94.728 Y117.878 E4.01745
G1 X94.555 Y117.532 E4.03546
G1 X94.289 Y116.96 E4.06483
G1 X94.138 Y116.609 E4.08262
G1 X93.972 Y116.2 E4.10318
G1 X93.849 Y115.872 E4.11949
G1 X93.772 Y115.656 E4.13017
G1 X93.592 Y115.107 E4.15707
G1 X93.481 Y114.735 E4.17515
G1 X93.307 Y114.077 E4.20684
G1 X93.216 Y113.685 E4.22558
G1 X93.073 Y112.961 E4.25994
G1 X93.004 Y112.536 E4.27999
G1 X92.921 Y111.906 E4.30958
G1 X92.895 Y111.655 E4.32133
G1 X92.848 Y111.043 E4.34991
G1 X92.829 Y110.642 E4.3686
G1 X92.819 Y109.937 E4.40143
G1 X92.827 Y109.458 E4.42374
G1 X92.858 Y108.789 E4.45493
G1 X92.88 Y108.506 E4.46814
G1 X92.927 Y108.035 E4.49018
G1 X92.955 Y107.804 E4.50102
G1 X93.018 Y107.359 E4.52195
G1 X93.096 Y106.909 E4.54321
G1 X93.167 Y106.541 E4.56067
G1 X93.331 Y105.824 E4.59491
G1 X93.425 Y105.467 E4.6121
G1 X93.593 Y104.891 E4.64004
G1 X93.703 Y104.55 E4.65673
G1 X93.857 Y104.105 E4.67865
G1 X93.986 Y103.766 E4.69554
G1 X94.087 Y103.513 E4.70823
G1 X94.314 Y102.985 E4.73499
G1 X94.486 Y102.612 E4.75412
G1 X94.777 Y102.026 E4.78458
G1 X94.936 Y101.729 E4.80027
G1 X95.249 Y101.184 E4.82953
G1 X95.411 Y100.919 E4.844
G1 X95.63 Y100.574 E4.86302
G1 X95.871 Y100.219 E4.883
G1 X96.038 Y99.983 E4.89647
G1 X96.442 Y99.447 E4.92772
G1 X96.806 Y98.994 E4.95478
G1 X97.356 Y98.361 E4.99383
G1 X97.536 Y98.169 E5.00608
G1 X97.862 Y97.836 E5.02778
G0 F6000 X98.142 Y98.121
G1 F1200 X98.392 Y97.876 E5.04408
G1 X98.865 Y97.44 E5.07403
G1 X99.114 Y97.224 E5.08938
G1 X99.582 Y96.841 E5.11754
G1 X99.898 Y96.597 E5.13613
G1 X100.303 Y96.299 E5.15955
G1 X100.499 Y96.162 E5.17068
G1 X100.923 Y95.88 E5.19439
G1 X101.193 Y95.714 E5.20915
G1 X101.596 Y95.473 E5.23102
G1 X102.182 Y95.147 E5.26224
G1 X102.479 Y94.994 E5.2778
G1 X103.045 Y94.723 E5.30702
G1 X103.366 Y94.581 E5.32336
G1 X103.947 Y94.344 E5.35258
G1 X104.314 Y94.207 E5.37082
G1 X104.937 Y93.997 E5.40143
G1 X105.279 Y93.893 E5.41808
G1 X105.84 Y93.739 E5.44517
G1 X106.191 Y93.653 E5.462
G1 X106.729 Y93.536 E5.48763
G1 X107.007 Y93.483 E5.50081
G1 X107.42 Y93.412 E5.52032
G1 X107.802 Y93.359 E5.53828
G1 X108.12 Y93.32 E5.5532
G1 X108.82 Y93.257 E5.58593
G1 X109.322 Y93.229 E5.60934
G1 X109.961 Y93.213 E5.6391
G1 X110.179 Y93.214 E5.64925
G1 X110.737 Y93.231 E5.67525
G1 X111.19 Y93.257 E5.69638
G1 X111.908 Y93.323 E5.72995
G1 X112.305 Y93.373 E5.74858
G1 X112.825 Y93.452 E5.77307
G1 X113.057 Y93.493 E5.78404
G1 X113.751 Y93.64 E5.81708
G1 X114.282 Y93.771 E5.84254
G1 X114.942 Y93.956 E5.87446
G1 X115.141 Y94.019 E5.88418
G1 X115.637 Y94.19 E5.90861
G1 X116.086 Y94.357 E5.93092
G1 X116.797 Y94.651 E5.96674
G1 X117.134 Y94.805 E5.98399
G1 X117.571 Y95.017 E6.00661
G1 X117.828 Y95.149 E6.02006
G1 X118.422 Y95.479 E6.05171
G1 X118.75 Y95.675 E6.0695
G1 X119.258 Y95.998 E6.09753
G1 X119.599 Y96.229 E6.11671
G1 X120.138 Y96.619 E6.14769
G1 X120.354 Y96.786 E6.1604
G1 X120.691 Y97.058 E6.18057
G1 X120.924 Y97.254 E6.19474
G1 X121.163 Y97.462 E6.2095
G1 X121.642 Y97.906 E6.23991
G1 X121.906 Y98.166 E6.25716
G1 X122.353 Y98.633 E6.28726
G1 X122.601 Y98.909 E6.30454
G1 X122.937 Y99.303 E6.32865
G1 X123.125 Y99.534 E6.34252
G1 X123.395 Y99.879 E6.36292
G1 X123.636 Y100.209 E6.38195
G1 X123.799 Y100.44 E6.39511
G1 X124.152 Y100.973 E6.42488
G1 X124.389 Y101.356 E6.44585
G1 X124.667 Y101.833 E6.47156
G1 X124.796 Y102.068 E6.48405
G1 X125.132 Y102.736 E6.51886
G1 X125.353 Y103.216 E6.54347
G1 X125.605 Y103.809 E6.57347
G1 X125.687 Y104.02 E6.58401
G1 X125.884 Y104.571 E6.61126
G1 X126.026 Y105.006 E6.63257
G1 X126.209 Y105.63 E6.66285
G1 X126.289 Y105.938 E6.67766
G1 X126.426 Y106.54 E6.70641
G1 X126.503 Y106.928 E6.72483
G1 X126.609 Y107.56 E6.75467
G1 X126.656 Y107.905 E6.77088
G1 X126.716 Y108.45 E6.79642
G1 X126.74 Y108.736 E6.80978
G1 X126.775 Y109.394 E6.84046
G1 X126.785 Y109.859 E6.86212
G1 X126.776 Y110.578 E6.8956
G1 X126.758 Y110.966 E6.91369
G1 X126.722 Y111.473 E6.93736
G1 X126.696 Y111.748 E6.95022
G1 X126.649 Y112.16 E6.96953
G1 X126.591 Y112.557 E6.98821
G1 X126.532 Y112.914 E7.00506
G1 X126.409 Y113.54 E7.03476
G1 X126.317 Y113.944 E7.05406
G1 X126.152 Y114.579 E7.08461
G1 X126.075 Y114.841 E7.09732
G1 X125.88 Y115.437 E7.12652
G1 X125.701 Y115.935 E7.15117
G1 X125.436 Y116.601 E7.18454
G1 X125.348 Y116.802 E7.19476
G1 X125.128 Y117.273 E7.21897
G1 X124.918 Y117.695 E7.24091
G1 X124.61 Y118.269 E7.27125
G1 X124.471 Y118.51 E7.2842
G1 X124.146 Y119.037 E7.31303
G1 X123.908 Y119.399 E7.3332
G1 X123.506 Y119.969 E7.36568
G1 X123.261 Y120.293 E7.3846
G1 X122.895 Y120.751 E7.4119
G1 X122.729 Y120.947 E7.42386
G1 X122.295 Y121.428 E7.45402
G1 X122 Y121.736 E7.47388
G1 X121.564 Y122.166 E7.5024
G1 X121.278 Y122.432 E7.52058
G1 X120.816 Y122.837 E7.54919
G1 X120.567 Y123.043 E7.56424
G1 X120.208 Y123.328 E7.58558
G1 X119.801 Y123.629 E7.60916
G1 X119.292 Y123.979 E7.63792
G1 X118.931 Y124.212 E7.65793
G1 X118.354 Y124.559 E7.68928
G1 X118.014 Y124.749 E7.70741
G1 X117.43 Y125.052 E7.73805
G1 X117.13 Y125.196 E7.75355
G1 X116.797 Y125.349 E7.77061
G1 X116.514 Y125.471 E7.78496
G1 X116.259 Y125.576 E7.7978
G1 X115.661 Y125.801 E7.82755
G1 X115.209 Y125.956 E7.8498
G1 X114.61 Y126.142 E7.87901
G1 X114.387 Y126.204 E7.88979
G1 X113.757 Y126.358 E7.91998
G1 X113.236 Y126.469 E7.94479
G1 X112.608 Y126.583 E7.97451
G1 X112.376 Y126.618 E7.98543
G1 X111.799 Y126.689 E8.0125
G1 X111.41 Y126.726 E8.0307
G1 X110.732 Y126.769 E8.06233
G1 X110.309 Y126.782 E8.08204
G1 X109.766 Y126.785 E8.10732
G1 X109.522 Y126.78 E8.11869
G1 X109.15 Y126.766 E8.13602
G1 X108.745 Y126.738 E8.15493
G1 X108.304 Y126.699 E8.17554
G1 X107.636 Y126.618 E8.20687
G1 X107.322 Y126.57 E8.22166
G1 X106.9 Y126.497 E8.24161
G1 X106.607 Y126.44 E8.25551
G1 X105.847 Y126.263 E8.29184
G1 X105.362 Y126.131 E8.31525
G1 X104.697 Y125.926 E8.34765
G1 X104.386 Y125.819 E8.36296
G1 X103.769 Y125.585 E8.39369
G1 X103.391 Y125.428 E8.41275
G1 X102.877 Y125.198 E8.43897
G1 X102.566 Y125.049 E8.45503
G1 X101.977 Y124.745 E8.48589
G1 X101.712 Y124.597 E8.50003
G1 X101.164 Y124.268 E8.52979
G1 X100.705 Y123.974 E8.55517
G1 X100.069 Y123.533 E8.59121
G1 X99.874 Y123.387 E8.60255
G1 X99.507 Y123.1 E8.62425
G1 X99.213 Y122.859 E8.64195
G1 X98.748 Y122.454 E8.67066
G1 X98.543 Y122.265 E8.68364
G1 X98.057 Y121.788 E8.71535
G1 X97.624 Y121.334 E8.74457
G1 X97.069 Y120.704 E8.78366
G1 X96.891 Y120.485 E8.7968
G1 X96.632 Y120.152 E8.81645
G1 X96.489 Y119.961 E8.82756
G1 X96.143 Y119.47 E8.85553
G1 X95.91 Y119.119 E8.87514
G1 X95.587 Y118.602 E8.90353
G1 X95.413 Y118.304 E8.9196
G1 X95.086 Y117.699 E8.95162
G1 X94.913 Y117.353 E8.96963
G1 X94.657 Y116.802 E8.99792
G1 X94.506 Y116.451 E9.01572
G1 X94.344 Y116.054 E9.03568
G1 X94.225 Y115.737 E9.05145
G1 X94.148 Y115.521 E9.06213
G1 X93.976 Y114.993 E9.08798
G1 X93.865 Y114.621 E9.10606
G1 X93.697 Y113.987 E9.1366
G1 X93.606 Y113.595 E9.15534
G1 X93.468 Y112.897 E9.18847
G1 X93.399 Y112.472 E9.20852
G1 X93.318 Y111.865 E9.23703
G1 X93.292 Y111.614 E9.24878
G1 X93.248 Y111.024 E9.27633
G1 X93.229 Y110.623 E9.29503
G1 X93.218 Y109.944 E9.32665
G1 X93.226 Y109.465 E9.34896
G1 X93.257 Y108.82 E9.37902
G1 X93.279 Y108.537 E9.39224
G1 X93.324 Y108.083 E9.41349
G1 X93.352 Y107.852 E9.42432
G1 X93.413 Y107.423 E9.4445
G1 X93.489 Y106.985 E9.4652
G1 X93.56 Y106.617 E9.48265
G1 X93.717 Y105.926 E9.51565
G1 X93.811 Y105.569 E9.53284
G1 X93.974 Y105.014 E9.55977
G1 X94.084 Y104.673 E9.57645
G1 X94.233 Y104.241 E9.59773
G1 X94.357 Y103.914 E9.61402
G1 X94.458 Y103.661 E9.6267
G1 X94.677 Y103.152 E9.6525
G1 X94.849 Y102.779 E9.67163
G1 X95.13 Y102.215 E9.70097
G1 X95.289 Y101.918 E9.71666
G1 X95.59 Y101.392 E9.74488
G1 X95.752 Y101.127 E9.75934
G1 X95.965 Y100.792 E9.77782
G1 X96.197 Y100.45 E9.79707
G1 X96.364 Y100.214 E9.81053
G1 X96.754 Y99.697 E9.84069
G1 X97.118 Y99.244 E9.86774
G1 X97.648 Y98.634 E9.90537
G1 X97.828 Y98.442 E9.91763
G1 X98.142 Y98.121 E9.93854
G0 F6000 X98.422 Y98.407
G1 F1200 X98.672 Y98.162 E9.95484
G1 X99.127 Y97.742 E9.98367
G1 X99.376 Y97.526 E9.99902
G1 X99.826 Y97.158 E10.02609
G1 X100.142 Y96.914 E10.04468
G1 X100.532 Y96.627 E10.06722
G1 X100.728 Y96.49 E10.07836
G1 X101.139 Y96.217 E10.10133
G1 X101.398 Y96.057 E10.11551
G1 X101.801 Y95.816 E10.13737
G1 X102.365 Y95.502 E10.16743
G1 X102.662 Y95.349 E10.18299
G1 X103.207 Y95.089 E10.21111
G1 X103.528 Y94.947 E10.22745
G1 X104.087 Y94.719 E10.25556
G1 X104.454 Y94.582 E10.2738
G1 X105.053 Y94.379 E10.30325
G1 X105.395 Y94.275 E10.3199
G1 X105.936 Y94.127 E10.34602
G1 X106.287 Y94.041 E10.36284
G1 X106.804 Y93.928 E10.38748
G1 X107.082 Y93.875 E10.40066
G1 X107.479 Y93.808 E10.41941
G1 X107.85 Y93.756 E10.43685
G1 X108.168 Y93.717 E10.45177
G1 X108.842 Y93.657 E10.48328
G1 X109.344 Y93.629 E10.50669
G1 X109.959 Y93.613 E10.53534
G1 X110.177 Y93.614 E10.54549
G1 X110.714 Y93.631 E10.57051
G1 X111.167 Y93.657 E10.59164
G1 X111.858 Y93.72 E10.62395
G1 X112.255 Y93.77 E10.64258
G1 X112.755 Y93.846 E10.66613
G1 X112.987 Y93.887 E10.6771
G1 X113.655 Y94.028 E10.70889
G1 X114.186 Y94.159 E10.73435
G1 X114.822 Y94.338 E10.76512
G1 X115.021 Y94.401 E10.77484
G1 X115.498 Y94.565 E10.79833
G1 X115.947 Y94.732 E10.82063
G1 X116.63 Y95.015 E10.85506
G1 X116.967 Y95.169 E10.87231
G1 X117.388 Y95.373 E10.8941
G1 X117.645 Y95.505 E10.90755
G1 X118.217 Y95.822 E10.938
G1 X118.545 Y96.018 E10.95579
G1 X119.034 Y96.329 E10.98278
G1 X119.375 Y96.56 E11.00196
G1 X119.893 Y96.936 E11.03176
G1 X120.109 Y97.103 E11.04447
G1 X120.438 Y97.367 E11.06412
G1 X120.661 Y97.556 E11.07773
G1 X120.9 Y97.764 E11.09248
G1 X121.361 Y98.191 E11.12174
G1 X121.625 Y98.451 E11.13899
G1 X122.055 Y98.901 E11.16798
G1 X122.303 Y99.177 E11.18525
G1 X122.627 Y99.556 E11.20847
G1 X122.815 Y99.787 E11.22234
G1 X123.074 Y100.119 E11.24195
G1 X123.309 Y100.439 E11.26043
G1 X123.472 Y100.67 E11.2736
G1 X123.812 Y101.184 E11.30229
G1 X124.049 Y101.567 E11.32327
G1 X124.316 Y102.026 E11.34799
G1 X124.445 Y102.261 E11.36048
G1 X124.769 Y102.903 E11.39396
G1 X124.99 Y103.383 E11.41857
