;FLAVOR:Marlin
;TIME:197
;Filament used: 0.182379m
;Layer height: 0.28
;MINX:86.514
;MINY:86.514
;MINZ:0.28
;MAXX:133.486
;MAXY:133.486
;MAXZ:0.84
;Generated with Cura_SteamEngine 4.8.0
M140 S50
M105
M190 S50
M104 S200
M105
M109 S200
M82 ;absolute extrusion mode
M201 X500.00 Y500.00 Z100.00 E5000.00 ;Setup machine max acceleration
M203 X500.00 Y500.00 Z10.00 E50.00 ;Setup machine max feedrate
M204 P500.00 R1000.00 T500.00 ;Setup Print/Retract/Travel acceleration
M205 X8.00 Y8.00 Z0.40 E5.00 ;Setup Jerk
M220 S100 ;Reset Feedrate
M221 S100 ;Reset Flowrate

G28 ;Home

G92 E0 ;Reset Extruder
G1 Z2.0 F3000 ;Move Z Axis up
G1 X10.1 Y20 Z0.28 F5000.0 ;Move to start position
G1 X10.1 Y200.0 Z0.28 F1500.0 E15 ;Draw the first line
G1 X10.4 Y200.0 Z0.28 F5000.0 ;Move to side a little
G1 X10.4 Y20 Z0.28 F1500.0 E30 ;Draw the second line
G92 E0 ;Reset Extruder
G1 Z2.0 F3000 ;Move Z Axis up

G92 E0
G92 E0
G1 F2700 E-5
;LAYER_COUNT:3
;LAYER:0
M107
G0 F6000 X93.283 Y93.501 Z0.28
;TYPE:SKIRT
G1 F2700 E0
G1 F1200 X93.632 Y93.158 E0.02279
G1 X93.858 Y92.942 E0.03734
G1 X94.291 Y92.54 E0.06485
G1 X94.747 Y92.139 E0.09313
G1 X95.107 Y91.84 E0.11492
G1 X95.333 Y91.657 E0.12846
G1 X95.76 Y91.321 E0.15376
G1 X96.285 Y90.932 E0.18419
G1 X96.747 Y90.611 E0.21038
G1 X96.977 Y90.456 E0.2233
G1 X97.404 Y90.175 E0.2471
G1 X97.958 Y89.833 E0.27742
G1 X98.397 Y89.58 E0.30101
G1 X98.648 Y89.441 E0.31437
G1 X99.135 Y89.177 E0.34016
G1 X99.712 Y88.885 E0.37028
G1 X100.201 Y88.656 E0.39542
G1 X100.485 Y88.528 E0.40992
G1 X100.964 Y88.32 E0.43424
G1 X101.526 Y88.094 E0.46245
G1 X102.042 Y87.903 E0.48807
G1 X102.356 Y87.792 E0.50357
G1 X102.829 Y87.633 E0.52681
G1 X103.422 Y87.452 E0.55568
G1 X103.932 Y87.312 E0.58031
G1 X104.218 Y87.238 E0.59406
G1 X104.759 Y87.105 E0.62
G1 X105.384 Y86.971 E0.64977
G1 X105.865 Y86.882 E0.67255
G1 X106.159 Y86.831 E0.68644
G1 X106.7 Y86.746 E0.71194
G1 X107.311 Y86.668 E0.74062
G1 X107.87 Y86.612 E0.76678
G1 X108.182 Y86.585 E0.78136
G1 X108.686 Y86.549 E0.80489
G1 X109.303 Y86.522 E0.83365
G1 X109.83 Y86.514 E0.85819
G1 X110.165 Y86.514 E0.87379
G1 X110.688 Y86.522 E0.89815
G1 X111.305 Y86.549 E0.9269
G1 X111.864 Y86.589 E0.953
G1 X112.16 Y86.614 E0.96683
G1 X112.646 Y86.662 E0.98957
G1 X113.259 Y86.74 E1.01835
G1 X113.843 Y86.831 E1.04587
G1 X114.203 Y86.894 E1.06289
G1 X114.729 Y86.994 E1.08782
G1 X115.291 Y87.116 E1.1146
G1 X115.728 Y87.223 E1.13555
G1 X116.036 Y87.303 E1.15036
G1 X116.58 Y87.453 E1.17664
G1 X117.164 Y87.631 E1.20507
G1 X117.687 Y87.807 E1.23076
G1 X117.986 Y87.913 E1.24554
G1 X118.455 Y88.086 E1.26881
G1 X119.047 Y88.324 E1.29852
G1 X119.542 Y88.54 E1.32367
G1 X119.819 Y88.665 E1.33782
G1 X120.296 Y88.889 E1.36236
G1 X120.843 Y89.165 E1.39089
G1 X121.336 Y89.431 E1.41697
G1 X121.621 Y89.59 E1.43217
G1 X122.048 Y89.837 E1.45514
G1 X122.567 Y90.157 E1.48353
G1 X123.025 Y90.457 E1.50903
G1 X123.283 Y90.631 E1.52352
G1 X123.701 Y90.922 E1.54723
G1 X124.203 Y91.294 E1.57633
G1 X124.643 Y91.639 E1.60236
G1 X124.898 Y91.845 E1.61762
G1 X125.3 Y92.18 E1.64199
G1 X125.746 Y92.572 E1.66964
G1 X126.128 Y92.927 E1.69392
G1 X126.376 Y93.165 E1.70993
G1 X126.748 Y93.533 E1.73429
G1 X127.163 Y93.967 E1.76226
G1 X127.53 Y94.372 E1.7877
G1 X127.737 Y94.606 E1.80225
G1 X128.069 Y94.994 E1.82603
G1 X128.454 Y95.471 E1.85457
G1 X128.78 Y95.898 E1.87959
G1 X128.978 Y96.166 E1.8951
G1 X129.284 Y96.593 E1.91957
G1 X129.615 Y97.081 E1.94702
G1 X129.908 Y97.54 E1.97238
G1 X130.084 Y97.825 E1.98798
G1 X130.344 Y98.261 E2.01161
G1 X130.647 Y98.804 E2.04057
G1 X130.907 Y99.302 E2.06673
G1 X131.048 Y99.581 E2.08128
G1 X131.281 Y100.06 E2.10609
G1 X131.538 Y100.629 E2.13516
G1 X131.732 Y101.093 E2.15858
G1 X131.85 Y101.389 E2.17342
G1 X132.048 Y101.904 E2.19911
G1 X132.256 Y102.495 E2.22828
G1 X132.413 Y102.985 E2.25224
G1 X132.497 Y103.258 E2.26554
G1 X132.636 Y103.734 E2.28863
G1 X132.794 Y104.337 E2.31766
G1 X132.928 Y104.916 E2.34533
G1 X132.991 Y105.208 E2.35924
G1 X133.087 Y105.681 E2.38171
G1 X133.194 Y106.296 E2.41078
G1 X133.27 Y106.822 E2.43553
G1 X133.312 Y107.151 E2.45097
G1 X133.373 Y107.687 E2.47609
G1 X133.426 Y108.309 E2.50516
G1 X133.458 Y108.874 E2.53151
G1 X133.472 Y109.19 E2.54624
G1 X133.486 Y109.693 E2.56967
G1 X133.486 Y110.313 E2.59854
G1 X133.471 Y110.838 E2.623
G1 X133.458 Y111.141 E2.63712
G1 X133.428 Y111.675 E2.66202
G1 X133.374 Y112.307 E2.69156
G1 X133.314 Y112.832 E2.71616
G1 X133.275 Y113.133 E2.7303
G1 X133.197 Y113.681 E2.75607
G1 X133.096 Y114.275 E2.78413
G1 X133.004 Y114.738 E2.80611
G1 X132.93 Y115.082 E2.82249
G1 X132.803 Y115.629 E2.84864
G1 X132.648 Y116.22 E2.87709
G1 X132.492 Y116.755 E2.90304
G1 X132.403 Y117.047 E2.91725
G1 X132.243 Y117.544 E2.94157
G1 X132.041 Y118.116 E2.96981
G1 X131.864 Y118.577 E2.99281
G1 X131.743 Y118.879 E3.00796
G1 X131.528 Y119.393 E3.0339
G1 X131.265 Y119.974 E3.0636
G1 X131.036 Y120.443 E3.0879
G1 X130.914 Y120.685 E3.10052
G1 X130.669 Y121.157 E3.12528
G1 X130.349 Y121.731 E3.15588
G1 X130.064 Y122.208 E3.18176
G1 X129.902 Y122.47 E3.1961
G1 X129.631 Y122.896 E3.21961
G1 X129.281 Y123.413 E3.24868
G1 X128.974 Y123.84 E3.27317
G1 X128.79 Y124.089 E3.28759
G1 X128.472 Y124.506 E3.312
G1 X128.085 Y124.985 E3.34068
G1 X127.713 Y125.42 E3.36733
G1 X127.515 Y125.646 E3.38132
G1 X127.187 Y126.009 E3.4041
G1 X126.75 Y126.465 E3.43351
G1 X126.383 Y126.827 E3.45752
G1 X126.152 Y127.048 E3.4724
G1 X125.719 Y127.451 E3.49995
G1 X125.253 Y127.861 E3.52885
G1 X124.893 Y128.16 E3.55064
G1 X124.667 Y128.343 E3.56418
G1 X124.24 Y128.679 E3.58948
G1 X123.72 Y129.064 E3.61961
G1 X123.26 Y129.384 E3.6457
G1 X123.002 Y129.558 E3.66019
G1 X122.562 Y129.846 E3.68468
G1 X122.043 Y130.165 E3.71304
G1 X121.614 Y130.413 E3.73612
G1 X121.353 Y130.56 E3.75007
G1 X120.868 Y130.823 E3.77576
G1 X120.281 Y131.118 E3.80635
G1 X119.791 Y131.347 E3.83153
G1 X119.515 Y131.472 E3.84564
G1 X119.036 Y131.68 E3.86996
G1 X118.474 Y131.906 E3.89816
G1 X117.958 Y132.097 E3.92378
G1 X117.644 Y132.208 E3.93929
G1 X117.171 Y132.367 E3.96253
G1 X116.578 Y132.548 E3.9914
G1 X116.068 Y132.688 E4.01602
G1 X115.782 Y132.762 E4.02978
G1 X115.241 Y132.895 E4.05572
G1 X114.616 Y133.029 E4.08548
G1 X114.135 Y133.118 E4.10826
G1 X113.841 Y133.169 E4.12216
G1 X113.3 Y133.254 E4.14766
G1 X112.689 Y133.332 E4.17634
G1 X112.13 Y133.388 E4.2025
G1 X111.818 Y133.415 E4.21708
G1 X111.314 Y133.451 E4.24061
G1 X110.697 Y133.478 E4.26937
G1 X110.17 Y133.486 E4.29391
G1 X109.835 Y133.486 E4.30951
G1 X109.312 Y133.478 E4.33386
G1 X108.695 Y133.451 E4.36262
G1 X108.136 Y133.411 E4.38872
G1 X107.84 Y133.386 E4.40255
G1 X107.354 Y133.338 E4.42529
G1 X106.741 Y133.26 E4.45406
G1 X106.157 Y133.169 E4.48158
G1 X105.797 Y133.106 E4.4986
G1 X105.271 Y133.006 E4.52353
G1 X104.709 Y132.884 E4.55031
G1 X104.272 Y132.777 E4.57126
G1 X103.964 Y132.697 E4.58608
G1 X103.42 Y132.547 E4.61236
G1 X102.824 Y132.365 E4.64137
G1 X102.294 Y132.186 E4.66742
G1 X102.015 Y132.087 E4.68121
G1 X101.553 Y131.917 E4.70413
G1 X100.953 Y131.676 E4.73424
G1 X100.458 Y131.46 E4.75939
G1 X100.181 Y131.335 E4.77354
G1 X99.704 Y131.111 E4.79807
G1 X99.157 Y130.835 E4.8266
G1 X98.664 Y130.569 E4.85269
G1 X98.382 Y130.411 E4.86774
G1 X97.953 Y130.163 E4.89081
G1 X97.426 Y129.839 E4.91962
G1 X96.97 Y129.54 E4.94501
G1 X96.714 Y129.367 E4.9594
G1 X96.292 Y129.073 E4.98335
G1 X95.79 Y128.701 E5.01244
G1 X95.349 Y128.355 E5.03854
G1 X95.084 Y128.141 E5.0544
G1 X94.688 Y127.81 E5.07843
G1 X94.254 Y127.427 E5.10539
G1 X93.871 Y127.071 E5.12974
G1 X93.624 Y126.834 E5.14567
G1 X93.251 Y126.465 E5.17011
G1 X92.844 Y126.04 E5.19751
G1 X92.478 Y125.637 E5.22286
G1 X92.253 Y125.382 E5.23869
G1 X91.91 Y124.98 E5.2633
G1 X91.532 Y124.511 E5.29135
G1 X91.217 Y124.098 E5.31553
G1 X91.016 Y123.826 E5.33128
G1 X90.707 Y123.394 E5.35601
G1 X90.384 Y122.916 E5.38288
G1 X90.094 Y122.462 E5.40796
G1 X89.907 Y122.16 E5.4245
G1 X89.642 Y121.714 E5.44866
G1 X89.35 Y121.189 E5.47663
G1 X89.095 Y120.701 E5.50227
G1 X88.948 Y120.411 E5.51741
G1 X88.715 Y119.931 E5.54225
G1 X88.466 Y119.378 E5.57049
G1 X88.272 Y118.915 E5.59387
G1 X88.151 Y118.615 E5.60893
G1 X87.952 Y118.098 E5.63473
G1 X87.74 Y117.496 E5.66445
G1 X87.584 Y117.008 E5.6883
G1 X87.499 Y116.73 E5.70184
G1 X87.351 Y116.221 E5.72652
G1 X87.192 Y115.609 E5.75596
G1 X87.067 Y115.064 E5.782
G1 X87.007 Y114.783 E5.79538
G1 X86.908 Y114.293 E5.81866
G1 X86.801 Y113.674 E5.84791
G1 X86.728 Y113.164 E5.8719
G1 X86.687 Y112.847 E5.88678
G1 X86.626 Y112.31 E5.91195
G1 X86.574 Y111.691 E5.94087
G1 X86.542 Y111.127 E5.96718
G1 X86.528 Y110.81 E5.98195
G1 X86.514 Y110.307 E6.00538
G1 X86.514 Y109.687 E6.03425
G1 X86.529 Y109.162 E6.05871
G1 X86.542 Y108.86 E6.07279
G1 X86.572 Y108.325 E6.09774
G1 X86.626 Y107.69 E6.12741
G1 X86.686 Y107.166 E6.15197
G1 X86.725 Y106.864 E6.16615
G1 X86.803 Y106.317 E6.19188
G1 X86.908 Y105.704 E6.22084
G1 X87.001 Y105.241 E6.24283
G1 X87.069 Y104.929 E6.2577
G1 X87.198 Y104.371 E6.28436
G1 X87.354 Y103.771 E6.31323
G1 X87.507 Y103.246 E6.33869
G1 X87.595 Y102.959 E6.35267
G1 X87.756 Y102.458 E6.37718
G1 X87.964 Y101.87 E6.40622
G1 X88.14 Y101.413 E6.42902
G1 X88.264 Y101.104 E6.44453
G1 X88.48 Y100.59 E6.47049
G1 X88.728 Y100.043 E6.49845
G1 X88.956 Y99.574 E6.52274
G1 X89.089 Y99.309 E6.53654
G1 X89.338 Y98.83 E6.56168
G1 X89.657 Y98.259 E6.59214
G1 X89.938 Y97.789 E6.61763
G1 X90.098 Y97.53 E6.63181
G1 X90.369 Y97.104 E6.65532
G1 X90.719 Y96.587 E6.68439
G1 X91.026 Y96.16 E6.70888
G1 X91.21 Y95.911 E6.7233
G1 X91.528 Y95.494 E6.74772
G1 X91.915 Y95.015 E6.77639
G1 X92.287 Y94.58 E6.80304
G1 X92.485 Y94.355 E6.817
G1 X92.831 Y93.972 E6.84103
G1 X93.283 Y93.501 E6.87143
G0 F6000 X93.563 Y93.786
G1 F1200 X93.912 Y93.443 E6.89421
G1 X94.13 Y93.235 E6.90824
G1 X94.563 Y92.833 E6.93576
G1 X95.002 Y92.447 E6.96298
G1 X95.362 Y92.148 E6.98477
G1 X95.58 Y91.972 E6.99781
G1 X96.007 Y91.636 E7.02311
G1 X96.514 Y91.261 E7.05248
G1 X96.976 Y90.94 E7.07867
G1 X97.197 Y90.79 E7.09111
G1 X97.624 Y90.509 E7.11491
G1 X98.158 Y90.18 E7.14412
G1 X98.597 Y89.927 E7.16771
G1 X98.838 Y89.792 E7.18057
G1 X99.325 Y89.528 E7.20637
G1 X99.882 Y89.247 E7.23542
G1 X100.371 Y89.018 E7.26056
G1 X100.644 Y88.895 E7.2745
G1 X101.123 Y88.687 E7.29882
G1 X101.665 Y88.469 E7.32602
G1 X102.181 Y88.278 E7.35164
G1 X102.484 Y88.171 E7.36661
G1 X102.957 Y88.012 E7.38984
G1 X103.528 Y87.838 E7.41764
G1 X104.038 Y87.698 E7.44226
G1 X104.313 Y87.626 E7.4555
G1 X104.854 Y87.493 E7.48144
G1 X105.456 Y87.364 E7.51011
G1 X105.937 Y87.275 E7.53289
G1 X106.221 Y87.226 E7.54631
G1 X106.762 Y87.141 E7.57181
G1 X107.35 Y87.066 E7.59941
G1 X107.909 Y87.01 E7.62557
G1 X108.211 Y86.984 E7.63968
G1 X108.715 Y86.948 E7.66321
G1 X109.309 Y86.922 E7.6909
G1 X109.836 Y86.914 E7.71544
G1 X110.159 Y86.914 E7.73048
G1 X110.682 Y86.922 E7.75484
G1 X111.277 Y86.948 E7.78257
G1 X111.836 Y86.988 E7.80866
G1 X112.121 Y87.012 E7.82198
G1 X112.607 Y87.06 E7.84472
G1 X113.197 Y87.135 E7.87242
G1 X113.781 Y87.226 E7.89994
G1 X114.129 Y87.287 E7.91639
G1 X114.655 Y87.387 E7.94132
G1 X115.196 Y87.504 E7.96709
G1 X115.633 Y87.611 E7.98804
G1 X115.93 Y87.688 E8.00233
G1 X116.474 Y87.838 E8.02861
G1 X117.037 Y88.011 E8.05603
G1 X117.56 Y88.187 E8.08173
G1 X117.847 Y88.288 E8.09589
G1 X118.316 Y88.461 E8.11917
G1 X118.887 Y88.691 E8.14784
G1 X119.382 Y88.907 E8.17298
G1 X119.649 Y89.027 E8.18661
G1 X120.126 Y89.251 E8.21115
G1 X120.653 Y89.517 E8.23864
G1 X121.146 Y89.783 E8.26472
G1 X121.421 Y89.937 E8.2794
G1 X121.848 Y90.184 E8.30237
G1 X122.348 Y90.492 E8.32972
G1 X122.806 Y90.792 E8.35521
G1 X123.054 Y90.96 E8.36916
G1 X123.472 Y91.251 E8.39287
G1 X123.957 Y91.608 E8.42092
G1 X124.397 Y91.953 E8.44695
G1 X124.642 Y92.152 E8.46165
G1 X125.044 Y92.487 E8.48602
G1 X125.474 Y92.865 E8.51267
G1 X125.856 Y93.22 E8.53696
G1 X126.095 Y93.449 E8.55237
G1 X126.467 Y93.817 E8.57674
G1 X126.867 Y94.235 E8.60368
G1 X127.234 Y94.64 E8.62912
G1 X127.433 Y94.866 E8.64315
G1 X127.765 Y95.254 E8.66692
G1 X128.136 Y95.714 E8.69444
G1 X128.462 Y96.141 E8.71946
G1 X128.653 Y96.399 E8.73441
G1 X128.959 Y96.826 E8.75887
G1 X129.278 Y97.297 E8.78535
G1 X129.571 Y97.756 E8.81071
G1 X129.74 Y98.03 E8.8257
G1 X130 Y98.466 E8.84934
G1 X130.292 Y98.989 E8.87723
G1 X130.552 Y99.487 E8.90339
G1 X130.688 Y99.756 E8.91743
G1 X130.921 Y100.235 E8.94223
G1 X131.169 Y100.783 E8.97024
G1 X131.363 Y101.247 E8.99366
G1 X131.477 Y101.532 E9.00795
G1 X131.675 Y102.047 E9.03364
G1 X131.875 Y102.617 E9.06177
G1 X132.032 Y103.107 E9.08573
G1 X132.113 Y103.37 E9.09854
G1 X132.252 Y103.846 E9.12163
G1 X132.404 Y104.427 E9.1496
G1 X132.538 Y105.006 E9.17727
G1 X132.599 Y105.288 E9.1907
G1 X132.695 Y105.761 E9.21318
G1 X132.798 Y106.353 E9.24116
G1 X132.874 Y106.879 E9.26591
G1 X132.915 Y107.196 E9.28079
G1 X132.976 Y107.732 E9.30591
G1 X133.027 Y108.332 E9.33395
G1 X133.059 Y108.897 E9.3603
G1 X133.072 Y109.201 E9.37447
G1 X133.086 Y109.704 E9.3979
G1 X133.086 Y110.302 E9.42574
G1 X133.071 Y110.827 E9.4502
G1 X133.058 Y111.119 E9.46381
G1 X133.028 Y111.653 E9.48871
G1 X132.976 Y112.262 E9.51717
G1 X132.916 Y112.787 E9.54178
G1 X132.879 Y113.077 E9.55539
G1 X132.801 Y113.625 E9.58117
G1 X132.704 Y114.197 E9.60818
G1 X132.612 Y114.66 E9.63016
G1 X132.54 Y114.991 E9.64594
G1 X132.413 Y115.538 E9.67208
G1 X132.264 Y116.108 E9.69952
G1 X132.108 Y116.643 E9.72547
G1 X132.022 Y116.924 E9.73915
G1 X131.862 Y117.421 E9.76346
G1 X131.668 Y117.972 E9.79066
G1 X131.491 Y118.433 E9.81366
G1 X131.374 Y118.724 E9.82826
G1 X131.159 Y119.238 E9.85421
G1 X130.905 Y119.799 E9.88288
G1 X130.676 Y120.268 E9.90718
G1 X130.559 Y120.5 E9.91928
G1 X130.314 Y120.972 E9.94405
G1 X130.006 Y121.526 E9.97356
G1 X129.721 Y122.003 E9.99943
G1 X129.565 Y122.256 E10.01327
G1 X129.294 Y122.682 E10.03678
G1 X128.956 Y123.18 E10.06481
G1 X128.649 Y123.607 E10.0893
G1 X128.472 Y123.847 E10.10318
G1 X128.154 Y124.264 E10.1276
G1 X127.781 Y124.725 E10.15522
G1 X127.409 Y125.16 E10.18187
G1 X127.218 Y125.378 E10.19536
G1 X126.89 Y125.741 E10.21814
G1 X126.469 Y126.181 E10.2465
G1 X126.102 Y126.543 E10.2705
G1 X125.88 Y126.755 E10.2848
G1 X125.447 Y127.158 E10.31234
G1 X124.998 Y127.553 E10.34019
G1 X124.638 Y127.852 E10.36198
G1 X124.42 Y128.028 E10.37503
G1 X123.993 Y128.364 E10.40033
G1 X123.491 Y128.736 E10.42942
G1 X123.031 Y129.056 E10.45551
G1 X122.783 Y129.223 E10.46943
G1 X122.343 Y129.511 E10.49392
G1 X121.843 Y129.819 E10.52127
G1 X121.414 Y130.067 E10.54434
G1 X121.162 Y130.208 E10.55779
G1 X120.677 Y130.471 E10.58348
G1 X120.112 Y130.756 E10.61294
G1 X119.622 Y130.985 E10.63813
G1 X119.356 Y131.105 E10.65172
G1 X118.877 Y131.313 E10.67603
G1 X118.335 Y131.531 E10.70323
G1 X117.819 Y131.722 E10.72886
G1 X117.516 Y131.829 E10.74382
G1 X117.043 Y131.988 E10.76705
G1 X116.472 Y132.162 E10.79485
G1 X115.962 Y132.302 E10.81948
G1 X115.687 Y132.374 E10.83271
G1 X115.146 Y132.507 E10.85865
G1 X114.544 Y132.636 E10.88732
G1 X114.063 Y132.725 E10.9101
G1 X113.779 Y132.774 E10.92352
G1 X113.238 Y132.859 E10.94902
G1 X112.65 Y132.934 E10.97662
G1 X112.091 Y132.99 E11.00278
G1 X111.789 Y133.016 E11.01689
G1 X111.285 Y133.052 E11.04042
G1 X110.691 Y133.078 E11.06811
G1 X110.164 Y133.086 E11.09265
G1 X109.841 Y133.086 E11.10769
G1 X109.318 Y133.078 E11.13205
G1 X108.723 Y133.052 E11.15978
G1 X108.164 Y133.012 E11.18587
G1 X107.879 Y132.988 E11.19919
G1 X107.393 Y132.94 E11.22193
G1 X106.803 Y132.865 E11.24963
G1 X106.219 Y132.774 E11.27715
G1 X105.871 Y132.713 E11.2936
G1 X105.345 Y132.613 E11.31853
G1 X104.804 Y132.496 E11.3443
G1 X104.367 Y132.389 E11.36525
G1 X104.07 Y132.312 E11.37954
G1 X103.526 Y132.162 E11.40582
G1 X102.952 Y131.986 E11.43377
G1 X102.422 Y131.807 E11.45982
G1 X102.154 Y131.712 E11.47306
G1 X101.692 Y131.542 E11.49598
G1 X101.113 Y131.309 E11.52505
G1 X100.618 Y131.093 E11.55019
G1 X100.351 Y130.973 E11.56383
G1 X99.874 Y130.749 E11.58836
G1 X99.347 Y130.483 E11.61585
G1 X98.854 Y130.217 E11.64194
G1 X98.582 Y130.065 E11.65645
G1 X98.153 Y129.817 E11.67952
G1 X97.646 Y129.504 E11.70726
G1 X97.19 Y129.205 E11.73265
G1 X96.943 Y129.038 E11.74654
G1 X96.521 Y128.744 E11.77049
G1 X96.037 Y128.387 E11.79849
