;FLAVOR:Marlin
;TIME:952
;Filament used: 0.684745m
;Layer height: 0.28
;MINX:89
;MINY:91
;MINZ:0.28
;MAXX:131
;MAXY:129
;MAXZ:17.08
;Generated with Cura_SteamEngine 4.8.0
M140 S50
M105
M190 S50
M104 S200
M105
M109 S200
M82 ;absolute extrusion mode
M201 X500.00 Y500.00 Z100.00 E5000.00 ;Setup machine max acceleration
M203 X500.00 Y500.00 Z10.00 E50.00 ;Setup machine max feedrate
M204 P500.00 R1000.00 T500.00 ;Setup Print/Retract/Travel acceleration
M205 X8.00 Y8.00 Z0.40 E5.00 ;Setup Jerk
M220 S100 ;Reset Feedrate
M221 S100 ;Reset Flowrate

G28 ;Home

G92 E0 ;Reset Extruder
G1 Z2.0 F3000 ;Move Z Axis up
G1 X10.1 Y20 Z0.28 F5000.0 ;Move to start position
G1 X10.1 Y200.0 Z0.28 F1500.0 E15 ;Draw the first line
G1 X10.4 Y200.0 Z0.28 F5000.0 ;Move to side a little
G1 X10.4 Y20 Z0.28 F1500.0 E30 ;Draw the second line
G92 E0 ;Reset Extruder
G1 Z2.0 F3000 ;Move Z Axis up

G92 E0
G92 E0
G1 F2700 E-5
;LAYER_COUNT:61
;LAYER:0
M107
G0 F6000 X92.75 Y94.897 Z0.28
;TYPE:SKIRT
G1 F2700 E0
G1 F1200 X93.426 Y94.247 E0.04367
G1 X94.094 Y93.703 E0.08378
G1 X94.275 Y93.567 E0.09432
G1 X95.189 Y92.95 E0.14567
G1 X95.427 Y92.806 E0.15863
G1 X96.249 Y92.355 E0.20229
G1 X97.302 Y91.901 E0.25568
G1 X97.591 Y91.794 E0.27003
G1 X98.795 Y91.425 E0.32867
G1 X99.081 Y91.355 E0.34238
G1 X100.001 Y91.171 E0.38607
G1 X100.638 Y91.091 E0.41596
G1 X100.938 Y91.062 E0.42999
G1 X101.569 Y91.019 E0.45944
G1 X101.955 Y91.008 E0.47743
G1 X102.633 Y91 E0.509
G1 X117.293 Y91 E1.19163
G1 X118.149 Y91.011 E1.23149
G1 X118.817 Y91.041 E1.26263
G1 X118.963 Y91.052 E1.26945
G1 X119.472 Y91.102 E1.29326
G1 X119.75 Y91.136 E1.3063
G1 X120.676 Y91.29 E1.35001
G1 X121.868 Y91.611 E1.40749
G1 X122.234 Y91.732 E1.42544
G1 X122.67 Y91.886 E1.44698
G1 X123.535 Y92.249 E1.49066
G1 X124.543 Y92.789 E1.5439
G1 X124.821 Y92.957 E1.55903
G1 X125.35 Y93.297 E1.58831
G1 X125.458 Y93.371 E1.59441
G1 X126.208 Y93.933 E1.63805
G1 X126.906 Y94.557 E1.68164
G1 X127.119 Y94.764 E1.69547
G1 X127.801 Y95.489 E1.74182
G1 X127.946 Y95.658 E1.75219
G1 X128.526 Y96.395 E1.79586
G1 X128.898 Y96.947 E1.82686
G1 X128.994 Y97.099 E1.83523
G1 X129.262 Y97.546 E1.8595
G1 X129.376 Y97.747 E1.87026
G1 X129.804 Y98.582 E1.91395
G1 X130.029 Y99.109 E1.94063
G1 X130.064 Y99.197 E1.94504
G1 X130.283 Y99.796 E1.97474
G1 X130.369 Y100.055 E1.98744
G1 X130.626 Y100.956 E2.03107
G1 X130.841 Y102.129 E2.0866
G1 X130.903 Y102.615 E2.10941
G1 X130.99 Y103.841 E2.16665
G1 X131 Y104.604 E2.20218
G1 X130.999 Y115.451 E2.70726
G1 X130.989 Y116.149 E2.73976
G1 X130.955 Y116.863 E2.77305
G1 X130.941 Y117.039 E2.78127
G1 X130.896 Y117.494 E2.80256
G1 X130.87 Y117.708 E2.8126
G1 X130.717 Y118.633 E2.85626
G1 X130.533 Y119.381 E2.89212
G1 X130.461 Y119.635 E2.90442
G1 X130.207 Y120.419 E2.94279
G1 X130.133 Y120.621 E2.95281
G1 X129.773 Y121.487 E2.99648
G1 X129.223 Y122.519 E3.05093
G1 X128.998 Y122.892 E3.07122
G1 X128.48 Y123.673 E3.11485
G1 X127.897 Y124.408 E3.15854
G1 X127.518 Y124.824 E3.18474
G1 X127.237 Y125.117 E3.20365
G1 X126.56 Y125.766 E3.24731
G1 X125.906 Y126.297 E3.28654
G1 X125.725 Y126.433 E3.29708
G1 X124.716 Y127.107 E3.35359
G1 X124.437 Y127.272 E3.36868
G1 X123.611 Y127.715 E3.41232
G1 X122.324 Y128.237 E3.47699
G1 X121.905 Y128.377 E3.49756
G1 X121.004 Y128.636 E3.54122
G1 X119.948 Y128.837 E3.59127
G1 X119.834 Y128.853 E3.59663
G1 X119.367 Y128.909 E3.61853
G1 X119.068 Y128.938 E3.63252
G1 X118.425 Y128.981 E3.66253
G1 X118.045 Y128.992 E3.68023
G1 X117.368 Y129 E3.71176
G1 X102.549 Y128.999 E4.40179
G1 X101.851 Y128.989 E4.4343
G1 X101.183 Y128.959 E4.46543
G1 X101.037 Y128.948 E4.47225
G1 X100.528 Y128.898 E4.49607
G1 X100.25 Y128.864 E4.50911
G1 X99.324 Y128.71 E4.55282
G1 X98.092 Y128.376 E4.61226
G1 X97.656 Y128.23 E4.63367
G1 X96.78 Y127.894 E4.67735
G1 X95.936 Y127.485 E4.72102
G1 X95.455 Y127.211 E4.7468
G1 X95.174 Y127.041 E4.76209
G1 X94.65 Y126.703 E4.79113
G1 X94.542 Y126.629 E4.79723
G1 X93.792 Y126.067 E4.84087
G1 X93.093 Y125.442 E4.88453
G1 X92.878 Y125.233 E4.89849
G1 X92.197 Y124.509 E4.94477
G1 X92.052 Y124.34 E4.95514
G1 X91.472 Y123.603 E4.99881
G1 X91.085 Y123.028 E5.03108
G1 X90.987 Y122.872 E5.03966
G1 X90.721 Y122.426 E5.06384
G1 X90.611 Y122.231 E5.07427
G1 X90.186 Y121.395 E5.11794
G1 X89.936 Y120.803 E5.14786
G1 X89.898 Y120.705 E5.15276
G1 X89.718 Y120.207 E5.17741
G1 X89.634 Y119.955 E5.18978
G1 X89.376 Y119.053 E5.23347
G1 X89.158 Y117.863 E5.2898
G1 X89.097 Y117.383 E5.31233
G1 X89.01 Y116.153 E5.36975
G1 X89 Y115.365 E5.40644
G1 X89.001 Y104.549 E5.91008
G1 X89.011 Y103.851 E5.94259
G1 X89.045 Y103.137 E5.97587
G1 X89.059 Y102.961 E5.98409
G1 X89.104 Y102.506 E6.00538
G1 X89.13 Y102.292 E6.01542
G1 X89.283 Y101.367 E6.05908
G1 X89.467 Y100.619 E6.09495
G1 X89.539 Y100.365 E6.10724
G1 X89.793 Y99.581 E6.14561
G1 X89.867 Y99.379 E6.15563
G1 X90.227 Y98.513 E6.1993
G1 X90.784 Y97.47 E6.25436
G1 X91.009 Y97.098 E6.2746
G1 X91.528 Y96.317 E6.31827
G1 X92.112 Y95.583 E6.36194
G1 X92.469 Y95.191 E6.38663
G1 X92.75 Y94.897 E6.40557
G0 F6000 X93.039 Y95.173
G1 F1200 X93.704 Y94.536 E6.44845
G1 X94.335 Y94.023 E6.48632
G1 X94.516 Y93.887 E6.49686
G1 X95.396 Y93.292 E6.54632
G1 X95.634 Y93.148 E6.55927
G1 X96.441 Y92.706 E6.60212
G1 X97.441 Y92.276 E6.65281
G1 X97.73 Y92.169 E6.66716
G1 X98.89 Y91.814 E6.72364
G1 X99.176 Y91.744 E6.73735
G1 X100.079 Y91.564 E6.78023
G1 X100.676 Y91.489 E6.80825
G1 X100.976 Y91.46 E6.82228
G1 X101.585 Y91.419 E6.8507
G1 X101.96 Y91.408 E6.86817
G1 X102.633 Y91.4 E6.89951
G1 X117.293 Y91.4 E7.58214
G1 X118.143 Y91.411 E7.62172
G1 X118.787 Y91.44 E7.65174
G1 X118.933 Y91.451 E7.65856
G1 X119.424 Y91.499 E7.68153
G1 X119.702 Y91.533 E7.69457
G1 X120.61 Y91.685 E7.73744
G1 X121.742 Y91.991 E7.79204
G1 X122.108 Y92.112 E7.80999
G1 X122.531 Y92.261 E7.83088
G1 X123.38 Y92.618 E7.87376
G1 X124.336 Y93.131 E7.92428
G1 X124.614 Y93.299 E7.93941
G1 X125.123 Y93.627 E7.9676
G1 X125.231 Y93.701 E7.9737
G1 X125.968 Y94.254 E8.0166
G1 X126.628 Y94.843 E8.05779
G1 X126.841 Y95.05 E8.07162
G1 X127.498 Y95.75 E8.11633
G1 X127.643 Y95.919 E8.1267
G1 X128.211 Y96.643 E8.16955
G1 X128.56 Y97.161 E8.19863
G1 X128.656 Y97.313 E8.207
G1 X128.914 Y97.744 E8.23039
G1 X129.028 Y97.945 E8.24115
G1 X129.447 Y98.764 E8.28399
G1 X129.658 Y99.257 E8.30896
G1 X129.693 Y99.345 E8.31337
G1 X129.903 Y99.922 E8.34196
G1 X129.989 Y100.181 E8.35467
G1 X130.241 Y101.066 E8.39751
G1 X130.444 Y102.18 E8.45024
G1 X130.506 Y102.666 E8.47305
G1 X130.59 Y103.847 E8.52819
G1 X130.6 Y104.604 E8.56344
G1 X130.599 Y115.445 E9.06824
G1 X130.589 Y116.143 E9.10075
G1 X130.557 Y116.832 E9.13286
G1 X130.543 Y117.008 E9.14108
G1 X130.499 Y117.445 E9.16154
G1 X130.473 Y117.659 E9.17157
G1 X130.322 Y118.568 E9.21448
G1 X130.148 Y119.272 E9.24825
G1 X130.076 Y119.526 E9.26054
G1 X129.831 Y120.281 E9.2975
G1 X129.757 Y120.483 E9.30752
G1 X129.403 Y121.333 E9.35039
G1 X128.881 Y122.312 E9.40206
G1 X128.656 Y122.685 E9.42234
G1 X128.146 Y123.452 E9.46523
G1 X127.572 Y124.172 E9.50811
G1 X127.229 Y124.547 E9.53177
G1 X126.948 Y124.84 E9.55067
G1 X126.283 Y125.476 E9.59352
G1 X125.665 Y125.977 E9.63057
G1 X125.484 Y126.113 E9.64111
G1 X124.513 Y126.763 E9.69552
G1 X124.234 Y126.928 E9.71061
G1 X123.422 Y127.362 E9.75348
G1 X122.197 Y127.858 E9.81502
G1 X121.778 Y127.998 E9.83559
G1 X120.893 Y128.251 E9.87845
G1 X119.892 Y128.441 E9.9259
G1 X119.778 Y128.457 E9.93126
G1 X119.328 Y128.51 E9.95235
G1 X119.029 Y128.539 E9.96634
G1 X118.41 Y128.581 E9.99523
G1 X118.04 Y128.592 E10.01247
G1 X117.368 Y128.6 E10.04376
G1 X102.555 Y128.599 E10.73352
G1 X101.857 Y128.589 E10.76602
G1 X101.213 Y128.56 E10.79604
G1 X101.067 Y128.549 E10.80286
G1 X100.576 Y128.501 E10.82583
G1 X100.298 Y128.467 E10.83887
G1 X99.39 Y128.315 E10.88174
G1 X98.219 Y127.996 E10.93825
G1 X97.783 Y127.85 E10.95966
G1 X96.924 Y127.52 E11.00251
G1 X96.096 Y127.117 E11.04539
G1 X95.662 Y126.868 E11.06869
G1 X95.381 Y126.698 E11.08398
G1 X94.877 Y126.373 E11.11191
G1 X94.769 Y126.299 E11.118
G1 X94.032 Y125.746 E11.16091
G1 X93.371 Y125.156 E11.20216
G1 X93.156 Y124.947 E11.21613
G1 X92.5 Y124.248 E11.26076
G1 X92.355 Y124.079 E11.27113
G1 X91.787 Y123.355 E11.31398
G1 X91.424 Y122.816 E11.34424
G1 X91.326 Y122.66 E11.35282
G1 X91.07 Y122.229 E11.37616
G1 X90.96 Y122.034 E11.38659
G1 X90.543 Y121.213 E11.42946
G1 X90.309 Y120.658 E11.45751
G1 X90.271 Y120.56 E11.4624
G1 X90.098 Y120.08 E11.48616
G1 X90.014 Y119.828 E11.49853
G1 X89.761 Y118.943 E11.54139
G1 X89.555 Y117.812 E11.59492
G1 X89.494 Y117.332 E11.61745
G1 X89.41 Y116.147 E11.67277
G1 X89.4 Y115.365 E11.70919
G1 X89.401 Y104.555 E12.21254
G1 X89.411 Y103.857 E12.24505
G1 X89.443 Y103.168 E12.27717
G1 X89.457 Y102.992 E12.28539
G1 X89.501 Y102.555 E12.30584
G1 X89.527 Y102.341 E12.31588
G1 X89.678 Y101.432 E12.35878
G1 X89.852 Y100.728 E12.39255
G1 X89.924 Y100.474 E12.40485
G1 X90.169 Y99.719 E12.44181
G1 X90.243 Y99.517 E12.45182
G1 X90.597 Y98.667 E12.4947
G1 X91.126 Y97.677 E12.54697
G1 X91.351 Y97.305 E12.56721
G1 X91.861 Y96.539 E12.61006
G1 X92.436 Y95.82 E12.65293
G1 X92.758 Y95.467 E12.67518
G1 X93.039 Y95.173 E12.69411
G0 F6000 X93.328 Y95.449
G1 F1200 X93.981 Y94.825 E12.73617
G1 X94.575 Y94.342 E12.77182
G1 X94.756 Y94.206 E12.78236
G1 X95.603 Y93.634 E12.82995
G1 X95.841 Y93.49 E12.84291
G1 X96.633 Y93.057 E12.88494
G1 X97.579 Y92.652 E12.93285
G1 X97.868 Y92.545 E12.9472
G1 X98.985 Y92.202 E13.00161
G1 X99.271 Y92.132 E13.01532
G1 X100.157 Y91.957 E13.05738
G1 X100.715 Y91.887 E13.08356
G1 X101.015 Y91.858 E13.0976
G1 X101.6 Y91.819 E13.1249
G1 X101.965 Y91.808 E13.1419
G1 X102.633 Y91.8 E13.17301
G1 X117.293 Y91.8 E13.85564
G1 X118.137 Y91.811 E13.89494
G1 X118.757 Y91.839 E13.92384
G1 X118.903 Y91.85 E13.93066
G1 X119.375 Y91.896 E13.95274
G1 X119.653 Y91.93 E13.96578
G1 X120.544 Y92.08 E14.00786
G1 X121.617 Y92.371 E14.05962
G1 X121.983 Y92.492 E14.07757
G1 X122.392 Y92.636 E14.09776
G1 X123.225 Y92.987 E14.13986
G1 X124.13 Y93.473 E14.18769
G1 X124.408 Y93.641 E14.20281
G1 X124.897 Y93.957 E14.22992
G1 X125.005 Y94.031 E14.23602
G1 X125.727 Y94.574 E14.27809
G1 X126.349 Y95.13 E14.31693
G1 X126.562 Y95.337 E14.33076
G1 X127.194 Y96.01 E14.37375
G1 X127.339 Y96.179 E14.38412
G1 X127.896 Y96.89 E14.42618
G1 X128.222 Y97.374 E14.45335
G1 X128.318 Y97.526 E14.46172
G1 X128.566 Y97.941 E14.48423
G1 X128.68 Y98.142 E14.49499
G1 X129.091 Y98.946 E14.53704
G1 X129.286 Y99.404 E14.56022
G1 X129.321 Y99.492 E14.56463
G1 X129.523 Y100.048 E14.59217
G1 X129.609 Y100.307 E14.60488
G1 X129.856 Y101.176 E14.64695
G1 X130.047 Y102.23 E14.69683
G1 X130.109 Y102.716 E14.71964
G1 X130.19 Y103.853 E14.77272
G1 X130.2 Y104.604 E14.80769
G1 X130.199 Y115.439 E15.31221
G1 X130.189 Y116.137 E15.34472
G1 X130.158 Y116.8 E15.37562
G1 X130.144 Y116.976 E15.38385
G1 X130.102 Y117.397 E15.40355
G1 X130.076 Y117.611 E15.41358
G1 X129.927 Y118.502 E15.45565
G1 X129.763 Y119.163 E15.48736
G1 X129.691 Y119.417 E15.49965
G1 X129.456 Y120.144 E15.53523
G1 X129.382 Y120.346 E15.54525
G1 X129.034 Y121.179 E15.58729
G1 X128.538 Y122.106 E15.63624
G1 X128.313 Y122.479 E15.65652
G1 X127.813 Y123.23 E15.69854
G1 X127.248 Y123.935 E15.7406
G1 X126.941 Y124.27 E15.76176
G1 X126.66 Y124.563 E15.78067
G1 X126.006 Y125.187 E15.82276
G1 X125.425 Y125.658 E15.85758
G1 X125.244 Y125.794 E15.86813
G1 X124.309 Y126.419 E15.9205
G1 X124.03 Y126.584 E15.93559
G1 X123.233 Y127.008 E15.97763
G1 X122.07 Y127.478 E16.03603
G1 X121.651 Y127.618 E16.05661
G1 X120.783 Y127.866 E16.09864
G1 X119.837 Y128.045 E16.14347
G1 X119.723 Y128.061 E16.14883
G1 X119.29 Y128.112 E16.16913
G1 X118.991 Y128.141 E16.18312
G1 X118.394 Y128.182 E16.21099
G1 X118.035 Y128.192 E16.22771
G1 X117.368 Y128.2 E16.25877
G1 X102.561 Y128.199 E16.94825
G1 X101.863 Y128.189 E16.98075
G1 X101.243 Y128.161 E17.00965
G1 X101.097 Y128.15 E17.01647
G1 X100.625 Y128.104 E17.03855
G1 X100.347 Y128.07 E17.05159
G1 X99.456 Y127.92 E17.09366
G1 X98.346 Y127.617 E17.14724
G1 X97.91 Y127.471 E17.16865
G1 X97.067 Y127.147 E17.2107
G1 X95.869 Y126.526 E17.27354
G1 X95.588 Y126.356 E17.28883
G1 X95.103 Y126.043 E17.31571
G1 X94.995 Y125.969 E17.3218
G1 X94.273 Y125.426 E17.36387
G1 X93.65 Y124.869 E17.40278
G1 X93.435 Y124.66 E17.41675
G1 X92.804 Y123.988 E17.45967
G1 X92.659 Y123.819 E17.47004
G1 X92.102 Y123.108 E17.51209
G1 X91.763 Y122.603 E17.54042
G1 X91.665 Y122.447 E17.549
G1 X91.418 Y122.032 E17.57148
G1 X91.308 Y121.837 E17.58191
G1 X90.9 Y121.032 E17.62393
G1 X90.682 Y120.514 E17.6501
G1 X90.644 Y120.416 E17.655
G1 X90.477 Y119.954 E17.67787
G1 X90.393 Y119.702 E17.69024
G1 X90.146 Y118.833 E17.73231
G1 X89.951 Y117.762 E17.783
G1 X89.89 Y117.282 E17.80553
G1 X89.81 Y116.141 E17.85879
G1 X89.8 Y115.365 E17.89492
G1 X89.801 Y104.561 E18.398
G1 X89.811 Y103.863 E18.43051
G1 X89.842 Y103.2 E18.46141
G1 X89.856 Y103.024 E18.46964
G1 X89.898 Y102.603 E18.48934
G1 X89.924 Y102.389 E18.49937
G1 X90.073 Y101.498 E18.54144
G1 X90.237 Y100.837 E18.57315
G1 X90.309 Y100.583 E18.58544
G1 X90.544 Y99.856 E18.62102
G1 X90.618 Y99.654 E18.63104
G1 X90.966 Y98.821 E18.67308
G1 X91.468 Y97.884 E18.72257
G1 X91.693 Y97.512 E18.74282
G1 X92.194 Y96.761 E18.78485
G1 X93.047 Y95.743 E18.8467
G1 X93.328 Y95.449 E18.86563
G1 F2700 E13.86563
;MESH:Radiator.stl
G0 F6000 X99.341 Y103.909
G0 X100.419 Y104.027
G0 X100.806 Y116.272
G0 X100.995 Y116.669
G0 X101.689 Y117.362
;TYPE:WALL-INNER
G1 F2700 E18.86563
G1 F1200 X101.395 Y117.259 E18.88014
G1 X101.374 Y117.248 E18.88124
G1 X101.124 Y117.09 E18.89502
G1 X100.909 Y116.874 E18.90921
G1 X100.742 Y116.61 E18.92375
G1 X100.639 Y116.311 E18.93848
G1 X100.6 Y115.961 E18.95488
G1 X100.6 Y104.039 E19.51001
G1 X100.638 Y103.69 E19.52636
G1 X100.741 Y103.393 E19.541
G1 X100.908 Y103.127 E19.55562
G1 X101.129 Y102.906 E19.57018
G1 X101.396 Y102.74 E19.58482
G1 X101.688 Y102.639 E19.5992
G1 X102.039 Y102.6 E19.61565
G1 X117.962 Y102.6 E20.35709
G1 X118.315 Y102.639 E20.37363
G1 X118.605 Y102.741 E20.38794
G1 X118.621 Y102.749 E20.38877
G1 X118.876 Y102.91 E20.40282
G1 X119.091 Y103.126 E20.41701
G1 X119.258 Y103.392 E20.43163
G1 X119.361 Y103.689 E20.44627
G1 X119.4 Y104.039 E20.46267
G1 X119.4 Y115.961 E21.01781
G1 X119.362 Y116.31 E21.03415
G1 X119.259 Y116.607 E21.04879
G1 X119.092 Y116.873 E21.06342
G1 X118.871 Y117.094 E21.07797
G1 X118.622 Y117.25 E21.09165
G1 X118.606 Y117.258 E21.09248
G1 X118.312 Y117.361 E21.10699
G1 X117.961 Y117.4 E21.12344
G1 X102.038 Y117.4 E21.86488
G1 X101.689 Y117.362 E21.88122
G0 F6000 X101.608 Y117.756
;TYPE:WALL-OUTER
G1 F1200 X101.547 Y117.737 E21.8842
G1 X101.233 Y117.627 E21.89969
G1 X101.18 Y117.598 E21.9025
G1 X100.891 Y117.417 E21.91838
G1 X100.859 Y117.39 E21.92033
G1 X100.601 Y117.131 E21.93736
G1 X100.583 Y117.108 E21.93872
G1 X100.393 Y116.806 E21.95533
G1 X100.376 Y116.774 E21.95702
G1 X100.246 Y116.398 E21.97554
G1 X100.2 Y115.987 E21.9948
G1 X100.2 Y104.013 E22.55236
G1 X100.245 Y103.603 E22.57156
G1 X100.375 Y103.227 E22.59009
G1 X100.393 Y103.194 E22.59184
G1 X100.582 Y102.893 E22.60839
G1 X100.6 Y102.87 E22.60975
G1 X100.858 Y102.611 E22.62677
G1 X100.89 Y102.584 E22.62872
G1 X101.189 Y102.397 E22.64514
G1 X101.229 Y102.374 E22.64729
G1 X101.546 Y102.264 E22.66292
G1 X101.607 Y102.245 E22.66589
G1 X102.013 Y102.2 E22.68491
G1 X117.987 Y102.2 E23.42873
G1 X118.392 Y102.244 E23.4477
G1 X118.447 Y102.261 E23.45038
G1 X118.767 Y102.373 E23.46616
G1 X118.82 Y102.402 E23.46898
G1 X119.109 Y102.583 E23.48486
G1 X119.141 Y102.61 E23.48681
G1 X119.399 Y102.869 E23.50383
G1 X119.417 Y102.892 E23.50519
G1 X119.606 Y103.193 E23.52174
G1 X119.624 Y103.226 E23.52349
G1 X119.754 Y103.602 E23.54201
G1 X119.8 Y104.013 E23.56127
G1 X119.8 Y115.987 E24.11883
G1 X119.755 Y116.397 E24.13804
G1 X119.625 Y116.773 E24.15656
G1 X119.607 Y116.806 E24.15831
G1 X119.418 Y117.107 E24.17486
G1 X119.4 Y117.13 E24.17622
G1 X119.142 Y117.389 E24.19324
G1 X119.11 Y117.416 E24.19519
G1 X118.821 Y117.597 E24.21107
G1 X118.768 Y117.626 E24.21389
G1 X118.454 Y117.736 E24.22938
G1 X118.393 Y117.755 E24.23235
G1 X117.987 Y117.8 E24.25137
G1 X102.013 Y117.8 E24.99519
G1 X101.608 Y117.756 E25.01416
