;FLAVOR:Marlin
;TIME:272
;Filament used: 0.223379m
;Layer height: 0.28
;MINX:83.516
;MINY:83.513
;MINZ:0.28
;MAXX:136.494
;MAXY:136.49
;MAXZ:1.96
;Generated with Cura_SteamEngine 4.8.0
M140 S50
M105
M190 S50
M104 S200
M105
M109 S200
M82 ;absolute extrusion mode
M201 X500.00 Y500.00 Z100.00 E5000.00 ;Setup machine max acceleration
M203 X500.00 Y500.00 Z10.00 E50.00 ;Setup machine max feedrate
M204 P500.00 R1000.00 T500.00 ;Setup Print/Retract/Travel acceleration
M205 X8.00 Y8.00 Z0.40 E5.00 ;Setup Jerk
M220 S100 ;Reset Feedrate
M221 S100 ;Reset Flowrate

G28 ;Home

G92 E0 ;Reset Extruder
G1 Z2.0 F3000 ;Move Z Axis up
G1 X10.1 Y20 Z0.28 F5000.0 ;Move to start position
G1 X10.1 Y200.0 Z0.28 F1500.0 E15 ;Draw the first line
G1 X10.4 Y200.0 Z0.28 F5000.0 ;Move to side a little
G1 X10.4 Y20 Z0.28 F1500.0 E30 ;Draw the second line
G92 E0 ;Reset Extruder
G1 Z2.0 F3000 ;Move Z Axis up

G92 E0
G92 E0
G1 F2700 E-5
;LAYER_COUNT:7
;LAYER:0
M107
G0 F6000 X91.144 Y91.4 Z0.28
;TYPE:SKIRT
G1 F2700 E0
G1 F1200 X91.507 Y91.042 E0.02374
G1 X92.003 Y90.569 E0.05565
G1 X92.235 Y90.354 E0.07038
G1 X92.566 Y90.06 E0.091
G1 X92.8 Y89.859 E0.10536
G1 X93.014 Y89.68 E0.11835
G1 X93.503 Y89.281 E0.14774
G1 X93.72 Y89.108 E0.16066
G1 X93.942 Y88.936 E0.17374
G1 X94.358 Y88.627 E0.19787
G1 X94.566 Y88.478 E0.20978
G1 X95.104 Y88.102 E0.24035
G1 X95.331 Y87.947 E0.25315
G1 X95.562 Y87.794 E0.26605
G1 X95.798 Y87.642 E0.27912
G1 X96.012 Y87.508 E0.29088
G1 X96.265 Y87.354 E0.30467
G1 X96.847 Y87.011 E0.33612
G1 X97.094 Y86.87 E0.34937
G1 X97.479 Y86.659 E0.36981
G1 X97.712 Y86.536 E0.38208
G1 X97.973 Y86.403 E0.39572
G1 X98.588 Y86.099 E0.42766
G1 X98.885 Y85.958 E0.44297
G1 X99.291 Y85.773 E0.46375
G1 X99.506 Y85.679 E0.47467
G1 X99.814 Y85.55 E0.49022
G1 X100.464 Y85.289 E0.52284
G1 X100.741 Y85.182 E0.53667
G1 X101.131 Y85.04 E0.55599
G1 X101.408 Y84.944 E0.56964
G1 X101.683 Y84.853 E0.58313
G1 X102.348 Y84.642 E0.61562
G1 X102.63 Y84.557 E0.62933
G1 X103.094 Y84.427 E0.65177
G1 X103.352 Y84.36 E0.66418
G1 X103.598 Y84.299 E0.67598
G1 X104.308 Y84.132 E0.70995
G1 X104.574 Y84.073 E0.72263
G1 X104.789 Y84.028 E0.73286
G1 X105.116 Y83.965 E0.74837
G1 X105.538 Y83.892 E0.76831
G1 X106.249 Y83.78 E0.80183
G1 X106.518 Y83.741 E0.81448
G1 X106.722 Y83.714 E0.82406
G1 X107.062 Y83.674 E0.84001
G1 X107.522 Y83.63 E0.86152
G1 X108.26 Y83.57 E0.896
G1 X108.56 Y83.55 E0.91
G1 X108.746 Y83.54 E0.91867
G1 X109.042 Y83.528 E0.93247
G1 X109.536 Y83.517 E0.95548
G1 X110.246 Y83.513 E0.98854
G1 X110.598 Y83.517 E1.00493
G1 X111.083 Y83.532 E1.02752
G1 X111.277 Y83.541 E1.03657
G1 X111.546 Y83.557 E1.04912
G1 X112.236 Y83.606 E1.08133
G1 X112.534 Y83.631 E1.09525
G1 X112.778 Y83.655 E1.10667
G1 X113.039 Y83.684 E1.11889
G1 X113.292 Y83.715 E1.13076
G1 X113.573 Y83.753 E1.14397
G1 X114.245 Y83.853 E1.1756
G1 X114.548 Y83.902 E1.1899
G1 X115.014 Y83.988 E1.21196
G1 X115.264 Y84.038 E1.22383
G1 X115.543 Y84.097 E1.23711
G1 X116.199 Y84.246 E1.26843
G1 X116.487 Y84.316 E1.28224
G1 X116.757 Y84.385 E1.29521
G1 X117.011 Y84.453 E1.30746
G1 X117.461 Y84.583 E1.32927
G1 X118.14 Y84.792 E1.36235
G1 X118.409 Y84.879 E1.37551
G1 X118.911 Y85.051 E1.40022
G1 X119.119 Y85.127 E1.41053
G1 X119.361 Y85.219 E1.42259
G1 X120.034 Y85.483 E1.45625
G1 X120.318 Y85.599 E1.47054
G1 X120.73 Y85.778 E1.49145
G1 X121.011 Y85.906 E1.50583
G1 X121.233 Y86.01 E1.51725
G1 X121.84 Y86.303 E1.54863
G1 X122.101 Y86.433 E1.56221
G1 X122.322 Y86.547 E1.57379
G1 X122.554 Y86.67 E1.58601
G1 X122.737 Y86.77 E1.59573
G1 X122.977 Y86.905 E1.60855
G1 X123.638 Y87.288 E1.64412
G1 X124.041 Y87.533 E1.66608
G1 X124.228 Y87.651 E1.67638
G1 X124.485 Y87.818 E1.69065
G1 X124.713 Y87.971 E1.70343
G1 X125.302 Y88.375 E1.73669
G1 X125.55 Y88.55 E1.75083
G1 X125.945 Y88.841 E1.77367
G1 X126.325 Y89.136 E1.79607
G1 X126.865 Y89.569 E1.8283
G1 X127.121 Y89.78 E1.84375
G1 X127.277 Y89.913 E1.85329
G1 X127.482 Y90.093 E1.866
G1 X127.86 Y90.435 E1.88973
G1 X128.343 Y90.885 E1.92047
G1 X128.623 Y91.155 E1.93859
G1 X128.947 Y91.482 E1.96002
G1 X129.295 Y91.847 E1.9835
G1 X129.739 Y92.329 E2.01402
G1 X129.965 Y92.582 E2.02981
G1 X130.139 Y92.783 E2.04219
G1 X130.328 Y93.008 E2.05588
G1 X130.615 Y93.361 E2.07706
G1 X131.025 Y93.881 E2.1079
G1 X131.226 Y94.144 E2.12331
G1 X131.386 Y94.36 E2.13583
G1 X131.647 Y94.725 E2.15672
G1 X131.796 Y94.941 E2.16894
G1 X132.182 Y95.515 E2.20115
G1 X132.354 Y95.779 E2.21582
G1 X132.498 Y96.007 E2.22838
G1 X132.733 Y96.393 E2.24942
G1 X132.888 Y96.657 E2.26367
G1 X133.232 Y97.266 E2.29624
G1 X133.472 Y97.71 E2.31974
G1 X133.595 Y97.948 E2.33222
G1 X133.7 Y98.157 E2.34311
G1 X133.826 Y98.416 E2.35652
G1 X134.131 Y99.065 E2.38991
G1 X134.282 Y99.399 E2.40698
G1 X134.447 Y99.789 E2.4267
G1 X134.625 Y100.23 E2.44884
G1 X134.88 Y100.895 E2.48201
G1 X134.994 Y101.207 E2.49747
G1 X135.129 Y101.602 E2.51691
G1 X135.22 Y101.882 E2.53062
G1 X135.308 Y102.164 E2.54438
G1 X135.501 Y102.817 E2.57608
G1 X135.63 Y103.282 E2.59855
G1 X135.707 Y103.582 E2.61298
G1 X135.761 Y103.806 E2.6237
G1 X135.819 Y104.063 E2.63597
G1 X135.969 Y104.758 E2.66908
G1 X136.029 Y105.054 E2.68314
G1 X136.079 Y105.321 E2.69579
G1 X136.13 Y105.613 E2.70959
G1 X136.191 Y106.013 E2.72844
G1 X136.29 Y106.722 E2.76177
G1 X136.328 Y107.022 E2.77585
G1 X136.351 Y107.228 E2.7855
G1 X136.382 Y107.542 E2.80019
G1 X136.404 Y107.808 E2.81262
G1 X136.42 Y108.035 E2.82322
G1 X136.463 Y108.729 E2.8556
G1 X136.478 Y109.051 E2.87061
G1 X136.492 Y109.559 E2.89427
G1 X136.494 Y109.788 E2.90493
G1 X136.493 Y110.041 E2.91672
G1 X136.483 Y110.742 E2.94936
G1 X136.475 Y111.027 E2.96264
G1 X136.466 Y111.251 E2.97307
G1 X136.449 Y111.564 E2.98767
G1 X136.413 Y112.056 E3.01064
G1 X136.354 Y112.722 E3.04177
G1 X136.321 Y113.042 E3.05675
G1 X136.297 Y113.245 E3.06627
G1 X136.263 Y113.504 E3.07844
G1 X136.184 Y114.039 E3.10362
G1 X136.063 Y114.761 E3.13771
G1 X135.987 Y115.167 E3.15694
G1 X135.874 Y115.705 E3.18254
G1 X135.809 Y115.984 E3.19588
G1 X135.642 Y116.668 E3.22866
G1 X135.54 Y117.055 E3.2473
G1 X135.437 Y117.415 E3.26473
G1 X135.376 Y117.62 E3.27469
G1 X135.281 Y117.925 E3.28957
G1 X135.055 Y118.611 E3.3232
G1 X134.96 Y118.886 E3.33675
G1 X134.876 Y119.12 E3.34833
G1 X134.781 Y119.375 E3.361
G1 X134.611 Y119.806 E3.38257
G1 X134.338 Y120.467 E3.41587
G1 X134.191 Y120.807 E3.43312
G1 X134.085 Y121.041 E3.44508
G1 X133.904 Y121.424 E3.46481
G1 X133.802 Y121.632 E3.47559
G1 X133.484 Y122.263 E3.5085
G1 X133.345 Y122.531 E3.52255
G1 X133.241 Y122.724 E3.53276
G1 X133.103 Y122.972 E3.54598
G1 X132.961 Y123.22 E3.55928
G1 X132.816 Y123.465 E3.57254
G1 X132.477 Y124.023 E3.60294
G1 X132.208 Y124.449 E3.6264
G1 X132.037 Y124.71 E3.64093
G1 X131.904 Y124.906 E3.65196
G1 X131.748 Y125.13 E3.66467
G1 X131.343 Y125.696 E3.69708
G1 X131.176 Y125.923 E3.7102
G1 X131.022 Y126.127 E3.7221
G1 X130.816 Y126.391 E3.7377
G1 X130.527 Y126.748 E3.75908
G1 X130.115 Y127.242 E3.78904
G1 X129.882 Y127.512 E3.80564
G1 X129.617 Y127.807 E3.82411
G1 X129.399 Y128.043 E3.83907
G1 X129.205 Y128.248 E3.85221
G1 X128.746 Y128.72 E3.88287
G1 X128.546 Y128.92 E3.89604
G1 X128.374 Y129.088 E3.90723
G1 X128.146 Y129.305 E3.92189
G1 X127.787 Y129.633 E3.94453
G1 X127.307 Y130.058 E3.97439
G1 X127.065 Y130.266 E3.98924
G1 X126.859 Y130.438 E4.00174
G1 X126.654 Y130.605 E4.01405
G1 X126.454 Y130.764 E4.02595
G1 X126.247 Y130.924 E4.03813
G1 X125.7 Y131.338 E4.07008
G1 X125.434 Y131.533 E4.08543
G1 X125.053 Y131.801 E4.10712
G1 X124.675 Y132.055 E4.12833
G1 X124.065 Y132.45 E4.16217
G1 X123.753 Y132.645 E4.1793
G1 X123.385 Y132.864 E4.19924
G1 X123.167 Y132.989 E4.21094
G1 X122.944 Y133.113 E4.22282
G1 X122.316 Y133.454 E4.2561
G1 X122.003 Y133.617 E4.27253
G1 X121.547 Y133.843 E4.29623
G1 X121.168 Y134.02 E4.31571
G1 X120.502 Y134.319 E4.3497
G1 X120.235 Y134.435 E4.36326
G1 X120.029 Y134.521 E4.37365
G1 X119.748 Y134.634 E4.38775
G1 X119.486 Y134.735 E4.40083
G1 X118.642 Y135.041 E4.44263
G1 X118.316 Y135.153 E4.45868
G1 X117.896 Y135.288 E4.47923
G1 X117.619 Y135.372 E4.4927
G1 X117.344 Y135.451 E4.50603
G1 X116.704 Y135.627 E4.53693
G1 X116.443 Y135.696 E4.54951
G1 X116.234 Y135.748 E4.55953
G1 X115.944 Y135.816 E4.5734
G1 X115.667 Y135.877 E4.58661
G1 X115.437 Y135.925 E4.59755
G1 X114.75 Y136.061 E4.63016
G1 X114.413 Y136.122 E4.64611
G1 X113.983 Y136.191 E4.66639
G1 X113.739 Y136.226 E4.67787
G1 X113.461 Y136.262 E4.69092
G1 X112.755 Y136.345 E4.72402
G1 X112.237 Y136.396 E4.74826
G1 X111.905 Y136.422 E4.76376
G1 X111.409 Y136.451 E4.7869
G1 X110.771 Y136.478 E4.81663
G1 X110.451 Y136.487 E4.83154
G1 X110.224 Y136.49 E4.84211
G1 X109.933 Y136.49 E4.85566
G1 X109.501 Y136.482 E4.87578
G1 X108.782 Y136.459 E4.90928
G1 X108.46 Y136.444 E4.92429
G1 X107.979 Y136.412 E4.94673
G1 X107.719 Y136.39 E4.95888
G1 X107.451 Y136.364 E4.97142
G1 X106.774 Y136.29 E5.00313
G1 X106.466 Y136.252 E5.01758
G1 X106.234 Y136.22 E5.02849
G1 X105.943 Y136.176 E5.04219
G1 X105.477 Y136.096 E5.06421
G1 X104.775 Y135.965 E5.09746
G1 X104.476 Y135.905 E5.11166
G1 X104.012 Y135.803 E5.13378
G1 X103.822 Y135.758 E5.14288
G1 X103.52 Y135.682 E5.15738
G1 X102.827 Y135.497 E5.19078
G1 X102.36 Y135.363 E5.2134
G1 X102.051 Y135.268 E5.22845
G1 X101.582 Y135.113 E5.25145
G1 X100.939 Y134.889 E5.28316
G1 X100.642 Y134.78 E5.29789
G1 X100.411 Y134.692 E5.3094
G1 X100.15 Y134.589 E5.32246
G1 X99.741 Y134.418 E5.34311
G1 X99.046 Y134.115 E5.37841
G1 X98.736 Y133.974 E5.39427
G1 X98.334 Y133.781 E5.41503
G1 X97.928 Y133.574 E5.43625
G1 X97.291 Y133.237 E5.46981
G1 X96.968 Y133.059 E5.48698
G1 X96.563 Y132.824 E5.50879
G1 X96.156 Y132.577 E5.53095
G1 X95.561 Y132.201 E5.56373
G1 X95.345 Y132.061 E5.57571
G1 X95.127 Y131.916 E5.58791
G1 X94.854 Y131.728 E5.60334
G1 X94.481 Y131.46 E5.62473
G1 X93.925 Y131.047 E5.65698
G1 X93.678 Y130.859 E5.67143
G1 X93.293 Y130.552 E5.69436
G1 X93.105 Y130.397 E5.70571
G1 X92.901 Y130.224 E5.71816
G1 X92.385 Y129.777 E5.74995
G1 X92.12 Y129.54 E5.7665
G1 X91.814 Y129.255 E5.78598
G1 X91.632 Y129.081 E5.7977
G1 X91.414 Y128.867 E5.81193
G1 X90.946 Y128.394 E5.84291
G1 X90.757 Y128.198 E5.85559
G1 X90.547 Y127.975 E5.86985
G1 X90.288 Y127.691 E5.88775
G1 X90.022 Y127.386 E5.90659
G1 X89.603 Y126.894 E5.93668
G1 X89.379 Y126.622 E5.95309
G1 X89.123 Y126.298 E5.97232
G1 X88.956 Y126.081 E5.98507
G1 X88.779 Y125.845 E5.99881
G1 X88.394 Y125.316 E6.02927
G1 X88.227 Y125.08 E6.04273
G1 X88.068 Y124.849 E6.05579
G1 X87.799 Y124.443 E6.07847
G1 X87.643 Y124.197 E6.09203
G1 X87.283 Y123.614 E6.12394
G1 X87.119 Y123.341 E6.13877
G1 X86.997 Y123.13 E6.15012
G1 X86.849 Y122.865 E6.16425
G1 X86.622 Y122.446 E6.18644
G1 X86.305 Y121.831 E6.21866
G1 X86.094 Y121.4 E6.241
G1 X85.987 Y121.172 E6.25273
G1 X85.873 Y120.921 E6.26557
G1 X85.769 Y120.685 E6.27758
G1 X85.486 Y120.021 E6.31119
G1 X85.364 Y119.722 E6.32622
G1 X85.186 Y119.26 E6.34928
G1 X85.029 Y118.819 E6.37108
G1 X84.8 Y118.142 E6.40435
G1 X84.704 Y117.845 E6.41889
G1 X84.634 Y117.617 E6.42999
G1 X84.552 Y117.336 E6.44362
G1 X84.437 Y116.915 E6.46395
G1 X84.254 Y116.201 E6.49827
G1 X84.183 Y115.906 E6.5124
G1 X84.084 Y115.457 E6.53381
G1 X84.038 Y115.231 E6.54454
G1 X83.985 Y114.953 E6.55772
G1 X83.861 Y114.252 E6.59087
G1 X83.811 Y113.945 E6.60535
G1 X83.777 Y113.715 E6.61618
G1 X83.71 Y113.194 E6.64064
G1 X83.68 Y112.925 E6.65324
G1 X83.613 Y112.249 E6.68488
G1 X83.586 Y111.941 E6.69927
G1 X83.569 Y111.701 E6.71048
G1 X83.543 Y111.178 E6.73486
G1 X83.535 Y110.949 E6.74553
G1 X83.519 Y110.254 E6.7779
G1 X83.516 Y109.962 E6.7915
G1 X83.517 Y109.683 E6.80449
G1 X83.524 Y109.321 E6.82135
G1 X83.538 Y108.97 E6.8377
G1 X83.575 Y108.244 E6.87155
G1 X83.599 Y107.896 E6.8878
G1 X83.636 Y107.48 E6.90724
G1 X83.664 Y107.212 E6.91979
G1 X83.694 Y106.952 E6.93198
G1 X83.783 Y106.26 E6.96447
G1 X83.831 Y105.923 E6.98032
G1 X83.909 Y105.456 E7.00236
G1 X83.995 Y105.001 E7.02392
G1 X84.142 Y104.285 E7.05796
G1 X84.218 Y103.943 E7.07427
G1 X84.332 Y103.476 E7.09666
G1 X84.402 Y103.21 E7.10947
G1 X84.468 Y102.972 E7.12097
G1 X84.649 Y102.342 E7.15149
G1 X84.734 Y102.057 E7.16534
G1 X84.804 Y101.836 E7.17613
G1 X84.968 Y101.353 E7.19988
G1 X85.046 Y101.136 E7.21062
G1 X85.298 Y100.455 E7.24443
G1 X85.42 Y100.139 E7.2602
G1 X85.598 Y99.705 E7.28205
G1 X85.69 Y99.491 E7.29289
G1 X85.797 Y99.252 E7.30509
G1 X86.089 Y98.615 E7.33772
G1 X86.22 Y98.339 E7.35194
G1 X86.318 Y98.14 E7.36227
G1 X86.458 Y97.865 E7.37664
G1 X86.673 Y97.462 E7.39791
G1 X87.005 Y96.859 E7.42996
G1 X87.218 Y96.49 E7.4498
G1 X87.405 Y96.181 E7.46662
G1 X87.516 Y96.002 E7.47643
G1 X87.678 Y95.748 E7.49045
G1 X88.091 Y95.121 E7.52541
G1 X88.287 Y94.833 E7.54164
G1 X88.509 Y94.521 E7.55947
G1 X88.654 Y94.322 E7.57093
G1 X88.845 Y94.068 E7.58573
G1 X89.29 Y93.493 E7.61959
G1 X89.487 Y93.245 E7.63433
G1 X89.62 Y93.083 E7.64409
G1 X89.799 Y92.871 E7.65701
G1 X90.145 Y92.473 E7.68157
G1 X90.553 Y92.02 E7.70996
G1 X90.756 Y91.801 E7.72386
G1 X90.931 Y91.617 E7.73569
G1 X91.144 Y91.4 E7.74985
G0 F6000 X91.426 Y91.684
G1 F1200 X91.783 Y91.332 E7.77319
G1 X92.279 Y90.859 E7.8051
G1 X92.503 Y90.651 E7.81934
G1 X92.827 Y90.363 E7.83952
G1 X93.061 Y90.162 E7.85389
G1 X93.267 Y89.99 E7.86638
G1 X93.756 Y89.591 E7.89577
G1 X93.965 Y89.425 E7.9082
G1 X94.187 Y89.253 E7.92128
G1 X94.407 Y89.087 E7.93411
G1 X94.795 Y88.806 E7.95642
G1 X95.333 Y88.43 E7.98698
G1 X95.552 Y88.281 E7.99931
G1 X96.01 Y87.981 E8.02481
G1 X96.224 Y87.847 E8.03657
G1 X96.468 Y87.699 E8.04985
G1 X97.05 Y87.356 E8.08131
G1 X97.471 Y87.119 E8.10381
G1 X97.665 Y87.013 E8.1141
G1 X97.898 Y86.89 E8.12637
G1 X98.15 Y86.762 E8.13953
G1 X98.765 Y86.458 E8.17148
G1 X99.051 Y86.321 E8.18624
G1 X99.452 Y86.14 E8.20673
G1 X99.667 Y86.046 E8.21765
G1 X99.963 Y85.921 E8.23262
G1 X100.613 Y85.66 E8.26523
G1 X101.05 Y85.495 E8.28698
G1 X101.262 Y85.418 E8.29748
G1 X101.539 Y85.322 E8.31114
G1 X101.804 Y85.234 E8.32414
G1 X102.469 Y85.023 E8.35662
G1 X102.925 Y84.888 E8.37877
G1 X103.195 Y84.814 E8.3918
G1 X103.453 Y84.747 E8.40422
G1 X103.69 Y84.689 E8.41558
G1 X104.4 Y84.522 E8.44954
G1 X104.655 Y84.465 E8.46171
G1 X104.87 Y84.42 E8.47194
G1 X105.186 Y84.359 E8.48692
G1 X105.601 Y84.287 E8.50653
G1 X106.312 Y84.175 E8.54005
G1 X106.774 Y84.111 E8.56177
G1 X107.102 Y84.072 E8.57715
G1 X107.554 Y84.029 E8.59829
G1 X108.292 Y83.969 E8.63277
G1 X108.582 Y83.949 E8.6463
G1 X108.768 Y83.939 E8.65498
G1 X109.053 Y83.928 E8.66826
G1 X109.538 Y83.917 E8.69085
G1 X110.248 Y83.913 E8.72391
G1 X110.588 Y83.917 E8.73974
G1 X111.064 Y83.931 E8.76192
G1 X111.258 Y83.94 E8.77096
G1 X111.518 Y83.956 E8.78309
G1 X112.208 Y84.005 E8.8153
G1 X112.495 Y84.029 E8.82871
G1 X112.739 Y84.053 E8.84013
G1 X113.243 Y84.112 E8.86375
G1 X113.514 Y84.148 E8.87648
G1 X114.186 Y84.248 E8.90812
G1 X114.478 Y84.296 E8.9219
G1 X114.936 Y84.38 E8.94358
G1 X115.186 Y84.43 E8.95545
G1 X115.455 Y84.487 E8.96826
G1 X116.111 Y84.636 E8.99958
G1 X116.388 Y84.703 E9.01285
G1 X116.658 Y84.772 E9.02583
G1 X117.095 Y84.892 E9.04693
G1 X117.343 Y84.965 E9.05897
G1 X118.022 Y85.174 E9.09205
G1 X118.282 Y85.258 E9.10477
G1 X118.514 Y85.336 E9.11617
G1 X118.774 Y85.427 E9.12899
G1 X119.215 Y85.591 E9.1509
G1 X119.888 Y85.855 E9.18457
G1 X120.162 Y85.967 E9.19835
G1 X120.315 Y86.032 E9.20609
G1 X120.564 Y86.142 E9.21877
G1 X121.059 Y86.37 E9.24414
G1 X121.666 Y86.663 E9.27553
G1 X121.917 Y86.789 E9.2886
G1 X122.362 Y87.021 E9.31197
G1 X122.545 Y87.121 E9.32168
G1 X122.776 Y87.251 E9.33403
G1 X123.437 Y87.634 E9.3696
G1 X123.83 Y87.873 E9.39102
G1 X124.01 Y87.987 E9.40094
G1 X124.267 Y88.154 E9.41521
G1 X124.487 Y88.301 E9.42753
G1 X125.076 Y88.705 E9.46079
G1 X125.315 Y88.873 E9.47439
G1 X125.491 Y89.001 E9.48452
G1 X125.89 Y89.303 E9.50783
G1 X126.075 Y89.448 E9.51877
G1 X126.615 Y89.881 E9.551
G1 X126.861 Y90.085 E9.56588
G1 X127.215 Y90.391 E9.58767
G1 X127.588 Y90.727 E9.61105
G1 X128.071 Y91.177 E9.64178
G1 X128.34 Y91.438 E9.65924
G1 X128.659 Y91.759 E9.68031
G1 X128.851 Y91.959 E9.69322
G1 X129.444 Y92.6 E9.73388
G1 X129.662 Y92.844 E9.74912
G1 X129.836 Y93.045 E9.7615
G1 X130.018 Y93.261 E9.77465
G1 X130.301 Y93.609 E9.79553
G1 X130.711 Y94.129 E9.82637
