;FLAVOR:Marlin
;TIME:1237
;Filament used: 1.75182m
;Layer height: 0.28
;MINX:82.511
;MINY:82.514
;MINZ:0.28
;MAXX:137.482
;MAXY:137.487
;MAXZ:25.76
;Generated with Cura_SteamEngine 4.8.0
M140 S50
M105
M190 S50
M104 S200
M105
M109 S200
M82 ;absolute extrusion mode
M201 X500.00 Y500.00 Z100.00 E5000.00 ;Setup machine max acceleration
M203 X500.00 Y500.00 Z10.00 E50.00 ;Setup machine max feedrate
M204 P500.00 R1000.00 T500.00 ;Setup Print/Retract/Travel acceleration
M205 X8.00 Y8.00 Z0.40 E5.00 ;Setup Jerk
M220 S100 ;Reset Feedrate
M221 S100 ;Reset Flowrate

G28 ;Home

G92 E0 ;Reset Extruder
G1 Z2.0 F3000 ;Move Z Axis up
G1 X10.1 Y20 Z0.28 F5000.0 ;Move to start position
G1 X10.1 Y200.0 Z0.28 F1500.0 E15 ;Draw the first line
G1 X10.4 Y200.0 Z0.28 F5000.0 ;Move to side a little
G1 X10.4 Y20 Z0.28 F1500.0 E30 ;Draw the second line
G92 E0 ;Reset Extruder
G1 Z2.0 F3000 ;Move Z Axis up

G92 E0
G92 E0
G1 F2700 E-5
;LAYER_COUNT:92
;LAYER:0
M107
G0 F6000 X90.829 Y90.3 Z0.28
;TYPE:SKIRT
G1 F2700 E0
G1 F1200 X91.034 Y90.1 E0.01334
G1 X91.217 Y89.926 E0.02509
G1 X91.532 Y89.639 E0.04494
G1 X92.122 Y89.12 E0.08153
G1 X92.379 Y88.901 E0.09725
G1 X92.552 Y88.758 E0.1077
G1 X92.831 Y88.535 E0.12433
G1 X93.537 Y87.989 E0.16589
G1 X93.793 Y87.796 E0.18082
G1 X93.962 Y87.673 E0.19055
G1 X94.278 Y87.451 E0.20853
G1 X94.928 Y87.012 E0.24506
G1 X95.206 Y86.831 E0.2605
G1 X95.41 Y86.702 E0.27174
G1 X95.735 Y86.504 E0.28946
G1 X96.465 Y86.077 E0.32884
G1 X96.914 Y85.826 E0.3528
G1 X97.283 Y85.631 E0.37223
G1 X98.003 Y85.269 E0.40975
G1 X98.329 Y85.112 E0.4266
G1 X98.567 Y85.002 E0.43881
G1 X98.882 Y84.862 E0.45486
G1 X99.619 Y84.549 E0.49215
G1 X99.906 Y84.432 E0.50658
G1 X100.077 Y84.365 E0.51513
G1 X100.443 Y84.229 E0.53331
G1 X101.308 Y83.925 E0.57601
G1 X101.61 Y83.824 E0.59083
G1 X101.823 Y83.756 E0.60124
G1 X102.212 Y83.64 E0.62015
G1 X102.954 Y83.433 E0.65602
G1 X103.242 Y83.356 E0.6699
G1 X103.518 Y83.287 E0.68315
G1 X103.897 Y83.2 E0.70125
G1 X104.668 Y83.036 E0.73796
G1 X104.989 Y82.972 E0.7532
G1 X105.209 Y82.932 E0.76361
G1 X105.585 Y82.871 E0.78135
G1 X106.412 Y82.75 E0.82027
G1 X106.748 Y82.706 E0.83604
G1 X106.983 Y82.679 E0.84706
G1 X107.339 Y82.644 E0.86372
G1 X108.167 Y82.576 E0.9024
G1 X108.497 Y82.554 E0.9178
G1 X108.709 Y82.543 E0.92769
G1 X109.088 Y82.53 E0.94534
G1 X109.952 Y82.515 E0.98558
G1 X110.277 Y82.514 E1.00071
G1 X110.441 Y82.516 E1.00835
G1 X110.815 Y82.527 E1.02577
G1 X111.724 Y82.569 E1.06815
G1 X112.111 Y82.593 E1.0862
G1 X112.307 Y82.609 E1.09536
G1 X112.631 Y82.641 E1.11052
G1 X113.438 Y82.731 E1.14833
G1 X113.786 Y82.775 E1.16466
G1 X114.043 Y82.812 E1.17675
G1 X114.395 Y82.869 E1.19336
G1 X115.174 Y83.007 E1.2302
G1 X115.482 Y83.066 E1.2448
G1 X115.69 Y83.109 E1.25469
G1 X116.06 Y83.192 E1.27234
G1 X116.912 Y83.399 E1.31317
G1 X117.273 Y83.493 E1.33054
G1 X117.47 Y83.548 E1.34007
G1 X117.798 Y83.645 E1.35599
G1 X118.603 Y83.897 E1.39527
G1 X118.906 Y83.997 E1.41013
G1 X119.103 Y84.065 E1.41983
G1 X119.456 Y84.194 E1.43733
G1 X120.261 Y84.503 E1.47748
G1 X120.609 Y84.643 E1.49495
G1 X120.779 Y84.715 E1.50355
G1 X121.089 Y84.852 E1.51933
G1 X121.884 Y85.218 E1.56008
G1 X122.226 Y85.383 E1.57776
G1 X122.397 Y85.469 E1.58668
G1 X122.677 Y85.615 E1.60138
G1 X123.426 Y86.019 E1.64101
G1 X123.754 Y86.203 E1.65852
G1 X123.92 Y86.3 E1.66747
G1 X124.203 Y86.471 E1.68287
G1 X124.932 Y86.927 E1.72291
G1 X125.234 Y87.123 E1.73967
G1 X125.423 Y87.25 E1.75027
G1 X125.719 Y87.455 E1.76704
G1 X126.381 Y87.932 E1.80503
G1 X126.659 Y88.14 E1.8212
G1 X126.876 Y88.307 E1.83395
G1 X127.15 Y88.525 E1.85025
G1 X127.761 Y89.027 E1.88708
G1 X128.014 Y89.241 E1.90251
G1 X128.18 Y89.386 E1.91277
G1 X128.446 Y89.626 E1.92945
G1 X129.053 Y90.192 E1.9681
G1 X129.329 Y90.459 E1.98598
G1 X129.482 Y90.612 E1.99605
G1 X129.711 Y90.848 E2.01137
G1 X130.295 Y91.468 E2.05103
G1 X130.553 Y91.751 E2.06886
G1 X130.69 Y91.907 E2.07853
G1 X130.908 Y92.164 E2.09422
G1 X131.447 Y92.817 E2.13365
G1 X131.669 Y93.094 E2.15018
G1 X131.815 Y93.283 E2.1613
G1 X132.023 Y93.561 E2.17746
G1 X132.491 Y94.208 E2.21465
G1 X132.69 Y94.493 E2.23083
G1 X132.855 Y94.737 E2.24455
G1 X133.045 Y95.028 E2.26073
G1 X133.459 Y95.684 E2.29685
G1 X133.633 Y95.969 E2.3124
G1 X133.712 Y96.103 E2.31964
G1 X133.894 Y96.423 E2.33678
G1 X134.346 Y97.252 E2.38075
G1 X134.537 Y97.619 E2.40002
G1 X134.635 Y97.816 E2.41026
G1 X134.766 Y98.09 E2.4244
G1 X135.089 Y98.787 E2.46017
G1 X135.231 Y99.107 E2.47647
G1 X135.325 Y99.328 E2.48766
G1 X135.456 Y99.648 E2.50376
G1 X135.779 Y100.479 E2.54527
G1 X135.896 Y100.796 E2.56101
G1 X135.948 Y100.943 E2.56827
G1 X136.064 Y101.289 E2.58526
G1 X136.326 Y102.116 E2.62566
G1 X136.449 Y102.531 E2.64581
G1 X136.506 Y102.739 E2.65585
G1 X136.579 Y103.022 E2.66946
G1 X136.778 Y103.832 E2.7083
G1 X136.84 Y104.095 E2.72088
G1 X136.889 Y104.318 E2.73151
G1 X136.973 Y104.743 E2.75169
G1 X137.121 Y105.571 E2.79085
G1 X137.177 Y105.914 E2.80704
G1 X137.213 Y106.16 E2.81861
G1 X137.256 Y106.49 E2.83411
G1 X137.343 Y107.243 E2.86941
G1 X137.379 Y107.606 E2.88639
G1 X137.396 Y107.813 E2.89606
G1 X137.419 Y108.154 E2.91198
G1 X137.466 Y109.077 E2.95501
G1 X137.478 Y109.427 E2.97132
G1 X137.481 Y109.585 E2.97868
G1 X137.482 Y109.961 E2.99618
G1 X137.469 Y110.819 E3.03614
G1 X137.46 Y111.121 E3.05021
G1 X137.451 Y111.332 E3.06004
G1 X137.427 Y111.729 E3.07856
G1 X137.358 Y112.603 E3.11939
G1 X137.322 Y112.973 E3.1367
G1 X137.297 Y113.194 E3.14705
G1 X137.254 Y113.533 E3.16297
G1 X137.139 Y114.328 E3.20037
G1 X137.087 Y114.652 E3.21565
G1 X137.053 Y114.846 E3.22482
G1 X136.985 Y115.199 E3.24156
G1 X136.803 Y116.069 E3.28295
G1 X136.718 Y116.445 E3.3009
G1 X136.672 Y116.632 E3.30986
G1 X136.584 Y116.964 E3.32586
G1 X136.363 Y117.755 E3.3641
G1 X136.272 Y118.064 E3.3791
G1 X136.197 Y118.305 E3.39085
G1 X136.088 Y118.636 E3.40708
G1 X135.813 Y119.43 E3.44621
G1 X135.673 Y119.811 E3.46511
G1 X135.607 Y119.981 E3.4736
G1 X135.486 Y120.28 E3.48862
G1 X135.146 Y121.085 E3.52931
G1 X135.024 Y121.364 E3.54349
G1 X134.927 Y121.577 E3.55439
G1 X134.755 Y121.937 E3.57296
G1 X134.398 Y122.651 E3.61014
G1 X134.248 Y122.94 E3.6253
G1 X134.155 Y123.113 E3.63444
G1 X133.966 Y123.451 E3.65247
G1 X133.513 Y124.227 E3.69432
G1 X133.263 Y124.636 E3.71664
G1 X133.055 Y124.958 E3.73449
G1 X132.566 Y125.686 E3.77532
G1 X132.36 Y125.982 E3.79211
G1 X132.244 Y126.143 E3.80135
G1 X132.041 Y126.415 E3.81716
G1 X131.54 Y127.067 E3.85545
G1 X131.313 Y127.353 E3.87245
G1 X131.146 Y127.556 E3.88469
G1 X130.92 Y127.822 E3.90094
G1 X130.384 Y128.433 E3.93879
G1 X130.181 Y128.658 E3.9529
G1 X130.041 Y128.809 E3.96249
G1 X129.753 Y129.108 E3.98182
G1 X129.156 Y129.705 E4.02113
G1 X128.951 Y129.905 E4.03447
G1 X128.774 Y130.073 E4.04583
G1 X128.47 Y130.351 E4.06501
G1 X127.859 Y130.889 E4.10292
G1 X127.612 Y131.1 E4.11805
G1 X127.442 Y131.241 E4.12833
G1 X127.147 Y131.477 E4.14592
G1 X126.46 Y132.008 E4.18635
G1 X126.196 Y132.206 E4.20172
G1 X126.05 Y132.312 E4.21012
G1 X125.754 Y132.52 E4.22697
G1 X125.042 Y133.002 E4.267
G1 X124.733 Y133.203 E4.28417
G1 X124.555 Y133.315 E4.29396
G1 X124.249 Y133.501 E4.31063
G1 X123.529 Y133.922 E4.34947
G1 X123.288 Y134.059 E4.36238
G1 X123.103 Y134.161 E4.37222
G1 X122.742 Y134.351 E4.39121
G1 X121.982 Y134.734 E4.43084
G1 X121.63 Y134.904 E4.44904
G1 X121.404 Y135.008 E4.46063
G1 X121.099 Y135.143 E4.47616
G1 X120.37 Y135.452 E4.51303
G1 X120.114 Y135.557 E4.52591
G1 X119.896 Y135.643 E4.53682
G1 X119.5 Y135.79 E4.55649
G1 X118.716 Y136.065 E4.59518
G1 X118.403 Y136.169 E4.61054
G1 X118.151 Y136.249 E4.62285
G1 X117.779 Y136.36 E4.64093
G1 X117.037 Y136.567 E4.6768
G1 X116.749 Y136.644 E4.69068
G1 X116.473 Y136.713 E4.70392
G1 X116.094 Y136.8 E4.72203
G1 X115.323 Y136.964 E4.75874
G1 X115.002 Y137.028 E4.77398
G1 X114.782 Y137.068 E4.78439
G1 X114.406 Y137.129 E4.80213
G1 X113.579 Y137.25 E4.84104
G1 X113.232 Y137.295 E4.85734
G1 X112.995 Y137.322 E4.86844
G1 X112.66 Y137.355 E4.88412
G1 X111.829 Y137.424 E4.92295
G1 X111.468 Y137.448 E4.93979
G1 X111.268 Y137.458 E4.94912
G1 X110.922 Y137.47 E4.96524
G1 X110.055 Y137.486 E5.00562
G1 X109.671 Y137.487 E5.0235
G1 X109.489 Y137.484 E5.03197
G1 X109.154 Y137.473 E5.04758
G1 X108.281 Y137.432 E5.08828
G1 X107.946 Y137.411 E5.10391
G1 X107.714 Y137.393 E5.11474
G1 X107.332 Y137.357 E5.13261
G1 X106.543 Y137.268 E5.16958
G1 X106.232 Y137.228 E5.18418
G1 X105.971 Y137.191 E5.19646
G1 X105.596 Y137.131 E5.21414
G1 X104.817 Y136.993 E5.25098
G1 X104.509 Y136.934 E5.26558
G1 X104.301 Y136.891 E5.27547
G1 X103.931 Y136.808 E5.29313
G1 X103.079 Y136.601 E5.33395
G1 X102.718 Y136.507 E5.35132
G1 X102.521 Y136.452 E5.36085
G1 X102.193 Y136.355 E5.37678
G1 X101.388 Y136.103 E5.41605
G1 X101.06 Y135.994 E5.43215
G1 X100.876 Y135.93 E5.44122
G1 X100.543 Y135.808 E5.45773
G1 X99.734 Y135.497 E5.49809
G1 X99.423 Y135.372 E5.5137
G1 X99.211 Y135.283 E5.5244
G1 X98.866 Y135.132 E5.54194
G1 X98.115 Y134.786 E5.58044
G1 X97.799 Y134.634 E5.59677
G1 X97.605 Y134.537 E5.60687
G1 X97.3 Y134.378 E5.62289
G1 X96.581 Y133.99 E5.66093
G1 X96.269 Y133.815 E5.67759
G1 X96.087 Y133.709 E5.68739
G1 X95.786 Y133.528 E5.70375
G1 X95.024 Y133.051 E5.74561
G1 X94.688 Y132.831 E5.76431
G1 X94.542 Y132.732 E5.77252
G1 X94.286 Y132.553 E5.78707
G1 X93.603 Y132.061 E5.82627
G1 X93.342 Y131.868 E5.84138
G1 X93.171 Y131.737 E5.85141
G1 X92.879 Y131.505 E5.86878
G1 X92.213 Y130.958 E5.90891
G1 X91.943 Y130.729 E5.92539
G1 X91.797 Y130.601 E5.93443
G1 X91.543 Y130.371 E5.95039
G1 X90.926 Y129.795 E5.98969
G1 X90.654 Y129.532 E6.00731
G1 X90.51 Y129.388 E6.01679
G1 X90.276 Y129.147 E6.03244
G1 X89.672 Y128.505 E6.07348
G1 X89.409 Y128.216 E6.09168
G1 X89.282 Y128.071 E6.10065
G1 X89.076 Y127.828 E6.11548
G1 X88.54 Y127.179 E6.15468
G1 X88.306 Y126.886 E6.17214
G1 X88.172 Y126.712 E6.18237
G1 X87.981 Y126.457 E6.1972
G1 X87.509 Y125.806 E6.23464
G1 X87.288 Y125.488 E6.25268
G1 X87.138 Y125.265 E6.26519
G1 X86.966 Y125.002 E6.27982
G1 X86.518 Y124.293 E6.31888
G1 X86.342 Y124.005 E6.33459
G1 X86.273 Y123.888 E6.34092
G1 X86.082 Y123.551 E6.35895
G1 X85.643 Y122.743 E6.40177
G1 X85.461 Y122.392 E6.42018
G1 X85.358 Y122.185 E6.43095
G1 X85.223 Y121.905 E6.44542
G1 X84.9 Y121.207 E6.48124
G1 X84.772 Y120.92 E6.49587
G1 X84.664 Y120.668 E6.50864
G1 X84.521 Y120.317 E6.52628
G1 X84.222 Y119.547 E6.56475
G1 X84.094 Y119.199 E6.58201
G1 X84.038 Y119.039 E6.58991
G1 X83.931 Y118.718 E6.60566
G1 X83.648 Y117.822 E6.64941
G1 X83.537 Y117.45 E6.66749
G1 X83.494 Y117.295 E6.67498
G1 X83.411 Y116.976 E6.69033
G1 X83.208 Y116.149 E6.72998
G1 X83.144 Y115.875 E6.74308
G1 X83.099 Y115.669 E6.7529
G1 X83.017 Y115.255 E6.77255
G1 X82.865 Y114.404 E6.81281
G1 X82.811 Y114.072 E6.82847
G1 X82.787 Y113.909 E6.83614
G1 X82.74 Y113.55 E6.853
G1 X82.643 Y112.697 E6.89298
G1 X82.607 Y112.315 E6.91084
G1 X82.588 Y112.073 E6.92215
G1 X82.568 Y111.768 E6.93638
G1 X82.528 Y110.978 E6.97321
G1 X82.516 Y110.604 E6.99063
G1 X82.512 Y110.362 E7.0019
G1 X82.511 Y110.021 E7.01778
G1 X82.523 Y109.189 E7.05653
G1 X82.534 Y108.835 E7.07302
G1 X82.544 Y108.621 E7.083
G1 X82.566 Y108.272 E7.09928
G1 X82.635 Y107.394 E7.14029
G1 X82.664 Y107.082 E7.15488
G1 X82.683 Y106.905 E7.16317
G1 X82.732 Y106.513 E7.18156
G1 X82.856 Y105.651 E7.22211
G1 X82.912 Y105.302 E7.23857
G1 X82.941 Y105.138 E7.24633
G1 X83.006 Y104.801 E7.26231
G1 X83.188 Y103.931 E7.3037
G1 X83.273 Y103.555 E7.32165
G1 X83.319 Y103.368 E7.33061
G1 X83.407 Y103.036 E7.34661
G1 X83.628 Y102.245 E7.38485
G1 X83.715 Y101.947 E7.39931
G1 X83.786 Y101.718 E7.41047
G1 X83.902 Y101.368 E7.42764
G1 X84.177 Y100.576 E7.46668
G1 X84.314 Y100.202 E7.48522
G1 X84.394 Y99.996 E7.49551
G1 X84.517 Y99.693 E7.51074
G1 X84.849 Y98.908 E7.55043
G1 X84.968 Y98.638 E7.56417
G1 X85.064 Y98.427 E7.57496
G1 X85.237 Y98.063 E7.59373
G1 X85.594 Y97.349 E7.6309
G1 X85.751 Y97.047 E7.64675
G1 X85.861 Y96.843 E7.65754
G1 X86.038 Y96.528 E7.67437
G1 X86.455 Y95.812 E7.71295
G1 X86.65 Y95.49 E7.73048
G1 X86.762 Y95.312 E7.74027
G1 X86.937 Y95.042 E7.75525
G1 X87.42 Y94.322 E7.79562
G1 X87.626 Y94.026 E7.81242
G1 X87.726 Y93.887 E7.82039
G1 X87.939 Y93.6 E7.83703
G1 X88.478 Y92.9 E7.87817
G1 X88.683 Y92.643 E7.89348
G1 X88.823 Y92.472 E7.90377
G1 X89.071 Y92.179 E7.92164
G1 X89.622 Y91.552 E7.96051
G1 X89.802 Y91.352 E7.97304
G1 X89.934 Y91.209 E7.9821
G1 X90.232 Y90.898 E8.00216
G1 X90.829 Y90.3 E8.0415
G0 F6000 X91.112 Y90.583
G1 F1200 X91.31 Y90.39 E8.05438
G1 X91.493 Y90.216 E8.06614
G1 X91.796 Y89.939 E8.08525
G1 X92.386 Y89.42 E8.12184
G1 X92.634 Y89.209 E8.137
G1 X92.807 Y89.066 E8.14746
G1 X93.075 Y88.851 E8.16345
G1 X93.781 Y88.305 E8.20501
G1 X94.028 Y88.12 E8.21938
G1 X94.197 Y87.997 E8.22912
G1 X94.502 Y87.783 E8.24646
G1 X95.152 Y87.344 E8.28299
G1 X95.42 Y87.169 E8.29789
G1 X95.624 Y87.04 E8.30913
G1 X95.937 Y86.849 E8.3262
G1 X96.667 Y86.422 E8.36558
G1 X97.107 Y86.176 E8.38906
G1 X97.463 Y85.989 E8.40778
G1 X98.183 Y85.627 E8.44531
G1 X98.497 Y85.475 E8.46155
G1 X98.735 Y85.365 E8.47376
G1 X99.038 Y85.23 E8.48921
G1 X99.775 Y84.917 E8.52649
G1 X100.223 Y84.738 E8.54895
G1 X100.575 Y84.607 E8.56644
G1 X101.44 Y84.303 E8.60914
G1 X101.731 Y84.205 E8.62343
G1 X101.944 Y84.137 E8.63385
G1 X102.32 Y84.025 E8.65211
G1 X103.062 Y83.818 E8.68798
G1 X103.339 Y83.744 E8.70133
G1 X103.615 Y83.675 E8.71458
G1 X103.981 Y83.591 E8.73207
G1 X104.752 Y83.427 E8.76877
G1 X105.061 Y83.366 E8.78344
G1 X105.281 Y83.326 E8.79385
G1 X105.642 Y83.267 E8.81088
G1 X106.469 Y83.146 E8.8498
G1 X106.794 Y83.103 E8.86507
G1 X107.029 Y83.076 E8.87608
G1 X107.371 Y83.043 E8.89208
G1 X108.199 Y82.975 E8.93076
G1 X108.518 Y82.953 E8.94565
G1 X108.73 Y82.942 E8.95554
G1 X109.095 Y82.93 E8.97254
G1 X109.959 Y82.915 E9.01278
G1 X110.272 Y82.914 E9.02736
G1 X110.436 Y82.916 E9.03499
G1 X110.796 Y82.926 E9.05176
G1 X111.705 Y82.968 E9.09414
G1 X112.078 Y82.992 E9.11154
G1 X112.274 Y83.008 E9.1207
G1 X112.587 Y83.038 E9.13534
G1 X113.394 Y83.128 E9.17315
G1 X113.729 Y83.171 E9.18888
G1 X113.986 Y83.208 E9.20097
G1 X114.325 Y83.263 E9.21696
G1 X115.104 Y83.401 E9.2538
G1 X115.401 Y83.457 E9.26787
G1 X115.609 Y83.5 E9.27776
G1 X115.966 Y83.581 E9.2948
G1 X116.818 Y83.788 E9.33563
G1 X117.165 Y83.878 E9.35232
G1 X117.362 Y83.933 E9.36185
G1 X117.679 Y84.027 E9.37724
G1 X118.484 Y84.279 E9.41652
G1 X118.776 Y84.375 E9.43083
G1 X118.973 Y84.443 E9.44054
G1 X119.313 Y84.567 E9.45739
G1 X120.118 Y84.876 E9.49754
G1 X120.453 Y85.011 E9.51436
G1 X120.623 Y85.083 E9.52296
G1 X120.922 Y85.215 E9.53818
G1 X121.717 Y85.581 E9.57893
G1 X122.047 Y85.74 E9.59599
G1 X122.218 Y85.826 E9.6049
G1 X122.487 Y85.967 E9.61904
G1 X123.236 Y86.371 E9.65867
G1 X123.552 Y86.548 E9.67553
G1 X123.718 Y86.645 E9.68448
G1 X123.991 Y86.81 E9.69934
G1 X124.72 Y87.266 E9.73938
G1 X125.011 Y87.455 E9.75553
G1 X125.2 Y87.582 E9.76614
G1 X125.485 Y87.78 E9.7823
G1 X126.147 Y88.257 E9.82029
G1 X126.415 Y88.457 E9.83586
G1 X126.632 Y88.624 E9.84861
G1 X126.896 Y88.834 E9.86432
G1 X127.507 Y89.336 E9.90114
G1 X127.751 Y89.543 E9.91604
G1 X127.917 Y89.688 E9.9263
G1 X128.173 Y89.918 E9.94233
G1 X128.78 Y90.484 E9.98097
G1 X129.046 Y90.742 E9.99823
G1 X129.199 Y90.895 E10.00831
G1 X129.42 Y91.122 E10.02306
G1 X130.004 Y91.742 E10.06272
G1 X130.253 Y92.015 E10.07992
G1 X130.39 Y92.171 E10.08959
G1 X130.6 Y92.418 E10.10469
G1 X131.139 Y93.071 E10.14411
G1 X131.353 Y93.339 E10.16008
G1 X131.499 Y93.528 E10.1712
G1 X131.699 Y93.796 E10.18677
G1 X132.167 Y94.443 E10.22396
G1 X132.359 Y94.717 E10.23954
G1 X132.524 Y94.961 E10.25325
G1 X132.707 Y95.242 E10.26887
G1 X133.121 Y95.898 E10.30499
G1 X133.288 Y96.172 E10.31993
G1 X133.367 Y96.306 E10.32717
G1 X133.543 Y96.615 E10.34373
G1 X133.995 Y97.444 E10.3877
G1 X134.179 Y97.797 E10.40623
G1 X134.277 Y97.994 E10.41648
G1 X134.403 Y98.258 E10.4301
G1 X134.726 Y98.955 E10.46587
G1 X134.863 Y99.263 E10.48157
G1 X134.957 Y99.484 E10.49275
G1 X135.083 Y99.793 E10.50829
G1 X135.406 Y100.624 E10.5498
G1 X135.519 Y100.929 E10.56495
G1 X135.571 Y101.076 E10.57221
G1 X135.683 Y101.41 E10.58861
G1 X135.945 Y102.237 E10.62901
G1 X136.063 Y102.636 E10.64838
